;FLAVOR:Marlin
;TIME:252
;Filament used: 0.0405494m, 0.0385057m
;Layer height: 0.2
;MINX:82.409
;MINY:79.826
;MINZ:0.25
;MAXX:293.98
;MAXY:271.98
;MAXZ:2.25
T0
M82 ;absolute extrusion mode
M605 S0
M900 P0.4 S50
IDEX_CALIBRATION_CHECK
BREAK_CLEAN P=60
G21 ; set units to millimeters
G90 ; use absolute positioning
M82 ; absolute extrusion mode
M104 T0 S150 ; set extruder temp
M140 S60 ; set bed temp
G28 Z ; home z
M109 S150
G28 XY; home XY
START_GCODE
M109 S205
PRIME_ROUTINE
G92 E0
T0
G92 E0
G1 F2700 E-6.5
;LAYER_COUNT:1
;LAYER:0
M107
M104 T1 S100
M204 S750
G1 F600 Z2.25
G0 F18000 X205.569 Y122.787 Z2.25
M104 T1 S205
M204 S1500
;TYPE:SKIRT
G1 F600 Z0.25
G1 F2700 E0
G1 F1500 X206.399 Y122.199 E0.0244
G1 X207.007 Y121.384 E0.04878
G1 X207.208 Y120.916 E0.061
G1 X207.376 Y120.255 E0.07735
G1 X207.391 Y119.185 E0.10302
G1 X207.39 Y99.102 E0.58468
G1 X207.188 Y97.698 E0.6187
G1 X207.057 Y96.864 E0.63895
G1 X206.713 Y94.155 E0.70444
G1 X206.444 Y91.444 E0.76978
G1 X206.249 Y88.665 E0.83659
G1 X206.163 Y87.066 E0.875
G1 X206.033 Y86.494 E0.88906
G1 X205.582 Y85.582 E0.91347
G1 X204.873 Y84.854 E0.93784
G1 X203.973 Y84.38 E0.96223
G1 X203.308 Y84.212 E0.97868
G1 X202.274 Y84.197 E1.00349
G1 X128.486 Y84.197 E2.77318
G1 X125.798 Y84.16 E2.83765
G1 X123.091 Y84.049 E2.90263
G1 X120.344 Y83.857 E2.96867
G1 X117.644 Y83.593 E3.03374
G1 X114.913 Y83.246 E3.09976
G1 X112.231 Y82.829 E3.16486
G1 X109.53 Y82.329 E3.23074
G1 X106.84 Y81.754 E3.29671
G1 X104.195 Y81.109 E3.36201
G1 X101.492 Y80.372 E3.4292
G1 X100.658 Y80.334 E3.44922
G1 X97.693 Y80.904 E3.52164
G1 X95.034 Y81.34 E3.58626
G1 X92.298 Y81.709 E3.65247
G1 X89.563 Y82 E3.71844
G1 X86.592 Y82.229 E3.7899
G1 X85.891 Y82.361 E3.80701
G1 X85.416 Y82.548 E3.81925
G1 X84.807 Y82.906 E3.8362
G1 X83.799 Y83.914 E3.87039
G1 X83.365 Y84.49 E3.88768
G1 X83.14 Y84.948 E3.89992
G1 X82.99 Y85.435 E3.91214
G1 X82.918 Y85.94 E3.92438
G1 X82.957 Y86.789 E3.94476
G1 X83.212 Y90.19 E4.02656
G1 X83.331 Y92.906 E4.09176
G1 X83.372 Y95.648 E4.15753
G1 X83.336 Y98.404 E4.22363
G1 X83.224 Y101.117 E4.28876
G1 X82.993 Y104.41 E4.36793
G1 X83.492 Y107.124 E4.43411
G1 X83.924 Y109.876 E4.50092
G1 X84.273 Y112.599 E4.56676
G1 X84.541 Y115.299 E4.63183
G1 X84.735 Y118.045 E4.69786
G1 X84.85 Y120.758 E4.76298
G1 X84.89 Y123.554 E4.83005
G1 X84.891 Y202.257 E6.71762
G1 X85.008 Y203.067 E6.73725
G1 X85.177 Y203.548 E6.74947
G1 X85.419 Y203.996 E6.76169
G1 X86.097 Y204.754 E6.78608
G1 X86.976 Y205.265 E6.81046
G1 X87.629 Y205.462 E6.82682
G1 X90.832 Y205.643 E6.90376
G1 X93.53 Y205.873 E6.9687
G1 X96.275 Y206.187 E7.03497
G1 X98.97 Y206.571 E7.10026
G1 X99.915 Y206.687 E7.12309
G1 X100.625 Y206.698 E7.14012
G1 X120.577 Y206.698 E7.61864
G1 X121.36 Y206.589 E7.6376
G1 X122.294 Y206.189 E7.66197
G1 X123.06 Y205.52 E7.68636
G1 X123.455 Y204.963 E7.70273
G1 X123.962 Y203.702 E7.73533
G1 X124.2 Y203.085 E7.75119
G1 X125.274 Y200.508 E7.81815
G1 X126.397 Y198.019 E7.88364
G1 X127.594 Y195.553 E7.94938
G1 X128.851 Y193.138 E8.01468
G1 X130.178 Y190.757 E8.08005
G1 X131.592 Y188.38 E8.14639
G1 X133.045 Y186.09 E8.21143
G1 X134.583 Y183.808 E8.27743
G1 X136.189 Y181.567 E8.34355
G1 X137.816 Y179.424 E8.40808
G1 X139.544 Y177.28 E8.47413
G1 X141.328 Y175.19 E8.54003
G1 X143.152 Y173.171 E8.60529
G1 X145.057 Y171.177 E8.67143
G1 X146.999 Y169.259 E8.73689
G1 X148.99 Y167.4 E8.80222
G1 X151.042 Y165.589 E8.86786
G1 X153.14 Y163.842 E8.93334
G1 X155.304 Y162.139 E8.99938
G1 X157.478 Y160.528 E9.06428
G1 X158.542 Y159.785 E9.0954
G1 X159.571 Y159.044 E9.12581
G1 X160.314 Y158.062 E9.15535
G1 X161.916 Y155.831 E9.22122
G1 X163.555 Y153.674 E9.28619
G1 X165.269 Y151.549 E9.35167
G1 X167.057 Y149.454 E9.41773
G1 X168.883 Y147.434 E9.48303
G1 X170.78 Y145.451 E9.54885
G1 X172.73 Y143.525 E9.61458
G1 X174.719 Y141.67 E9.67981
G1 X176.78 Y139.853 E9.74571
G1 X178.887 Y138.098 E9.81148
G1 X181.027 Y136.416 E9.87676
G1 X183.23 Y134.783 E9.94252
G1 X185.479 Y133.213 E10.00831
G1 X187.771 Y131.71 E10.07404
G1 X190.081 Y130.284 E10.13915
G1 X192.469 Y128.902 E10.20532
G1 X194.85 Y127.613 E10.27026
G1 X197.307 Y126.37 E10.3363
G1 X199.8 Y125.198 E10.40236
G1 X202.281 Y124.115 E10.46729
G1 X205.569 Y122.787 E10.55234
M204 S750
G1 F2700 E4.05234
G1 F600 Z2.25
;MESH:IDEX offset calibration_ref.STL
G0 F18000 X167.263 Y126.633 Z2.25
M204 S1500
;TYPE:WALL-OUTER
G1 F600 Z0.25
G1 F2700 E10.55234
G1 F1868 X167.681 Y126.633 E10.56053
G1 F1711.7 X167.681 Y125.637 E10.5817
G1 F1459 X167.68 Y124.641 E10.6062
G1 F1493.6 X168.698 Y124.642 E10.63071
G1 F1858.4 X169.716 Y124.643 E10.65077
G1 F2106 X169.716 Y124.269 E10.65733
G1 F1858.4 X168.698 Y124.269 E10.67739
G1 F1493.6 X167.68 Y124.269 E10.7019
G1 F1459 X167.68 Y123.273 E10.7264
G1 F1711.7 X167.681 Y122.277 E10.74757
G1 F1868 X167.263 Y122.278 E10.75576
G1 F1711.7 X167.263 Y123.274 E10.77694
G1 F1459 X167.263 Y124.27 E10.80143
G1 F1493.6 X166.245 Y124.269 E10.82594
G1 F1858.4 X165.227 Y124.269 E10.846
G1 F2106 X165.228 Y124.643 E10.85256
G1 F1858.4 X166.246 Y124.643 E10.87262
G1 F1493.6 X167.264 Y124.642 E10.89713
G1 F1459 X167.263 Y125.638 E10.92163
G1 F1711.7 X167.263 Y126.634 E10.9428
M204 S750
G0 F18000 X167.463 Y126.633
G1 F2700 E4.4428
G1 F600 Z2.25
G0 F18000 X147.837 Y123.767 Z2.25
M204 S1500
G1 F600 Z0.25
G1 F2700 E10.9428
G1 F2100 X147.837 Y123.393 E10.94938
G1 X145.452 Y123.393 E10.99132
G1 X145.452 Y123.767 E10.9979
G1 X147.837 Y123.767 E11.03985
M204 S750
G0 F18000 X147.837 Y123.567
G1 F2700 E4.53985
G1 F600 Z2.25
G0 F18000 X149.694 Y135.489 Z2.25
M204 S1500
G1 F600 Z0.25
G1 F2700 E11.03985
G1 F1882.6 X150.16 Y135.422 E11.04901
G1 F1784.5 X150.804 Y135.081 E11.06392
G1 F1728.3 X150.991 Y134.894 E11.06949
G1 F1780 X151.2 Y134.419 E11.08013
G1 F1536.4 X151.139 Y134.377 E11.08187
G1 F1321.2 X151.31 Y134.243 E11.08771
G1 F1434.7 X151.458 Y134.264 E11.09145
G1 F1691.4 X151.947 Y134.991 E11.11028
G1 F1917.6 X152.709 Y135.404 E11.12687
G1 F1953.8 X153.252 Y135.485 E11.13719
G1 F1858.4 X153.681 Y135.438 E11.1457
G1 F1788.9 X154.056 Y135.301 E11.15385
G1 F1771.2 X154.371 Y135.099 E11.16155
G1 F1775.6 X154.682 Y134.74 E11.17131
G1 F1728.3 X154.918 Y134.059 E11.1865
G1 F1699.5 X154.993 Y133.263 E11.20361
G1 F1720 X154.993 Y130.399 E11.26421
G1 X154.543 Y130.399 E11.27374
G1 F1741 X154.541 Y133.578 E11.34026
G1 F1766.9 X154.313 Y134.497 E11.35981
G1 F1775.6 X154.063 Y134.789 E11.36771
G1 F1830 X153.47 Y135.058 E11.38072
G1 F1959 X152.934 Y135.06 E11.39078
G1 F2136.7 X152.466 Y134.887 E11.39942
G1 F2275.1 X152.128 Y134.649 E11.40616
G1 F1969.6 X151.483 Y133.849 E11.42535
G1 F1671.4 X151.442 Y133.15 E11.44056
G1 X151.412 Y132.782 E11.44858
G1 F1711.7 X151.413 Y130.398 E11.49926
G1 F1715.9 X150.961 Y130.398 E11.50884
G1 F1711.7 X150.961 Y132.805 E11.56
G1 F1663.6 X150.971 Y133.197 E11.56856
G1 F1533 X150.942 Y134.089 E11.58955
G1 F1385.6 X150.897 Y134.247 E11.59378
G1 F1536.4 X150.824 Y134.223 E11.59558
G1 F1780 X150.619 Y134.64 E11.60511
G1 F1797.9 X150.068 Y135.011 E11.6186
G1 F1897.4 X149.615 Y135.086 E11.62748
G1 F1980.4 X149.283 Y135.05 E11.63368
G1 F2018.8 X148.859 Y134.891 E11.64195
G1 F2233.9 X148.52 Y134.565 E11.64975
G1 F1636.6 X148.054 Y134.2 E11.66286
G1 F1369 X147.873 Y133.409 E11.684
G1 F1651.9 X147.833 Y132.721 E11.69914
G1 F1711.7 X147.83 Y130.399 E11.74849
G1 X147.38 Y130.399 E11.75806
G1 X147.38 Y132.756 E11.80816
G1 F1644.2 X147.396 Y133.479 E11.82411
G1 F1366.2 X147.467 Y134.35 E11.84692
G1 F1414.1 X147.379 Y135.374 E11.87292
G1 F1715.9 X147.831 Y135.374 E11.88251
G1 X147.831 Y134.912 E11.89231
G1 F1414.1 X147.918 Y134.631 E11.89975
G1 F1636.6 X148.294 Y134.787 E11.90877
G1 F2303.4 X148.404 Y134.981 E11.91236
G1 F2070.3 X148.673 Y135.236 E11.91897
G1 F1991.2 X149.314 Y135.459 E11.93151
G1 F1938.1 X149.694 Y135.489 E11.93874
M204 S750
G0 F18000 X149.892 Y135.461
G1 F2700 E5.43874
G1 F600 Z2.25
G0 F18000 X144.006 Y135.453 Z2.25
M204 S1500
G1 F600 Z0.25
G1 F2700 E11.93874
G1 F1816.1 X144.447 Y135.299 E11.94814
G1 F1771.2 X144.761 Y135.098 E11.95582
G1 F1753.8 X145.047 Y134.769 E11.96488
G1 F1711.7 X145.305 Y134.184 E11.97847
G1 F1707.6 X145.38 Y133.265 E11.99811
G1 F1720 X145.38 Y130.399 E12.05876
G1 X144.93 Y130.399 E12.06828
G1 F1745.3 X144.928 Y133.718 E12.13758
G1 F1788.9 X144.777 Y134.343 E12.15071
G1 F1793.4 X144.468 Y134.776 E12.16154
G1 F1839.4 X143.999 Y135.027 E12.17212
G1 F1959 X143.61 Y135.077 E12.17948
G1 F2041.4 X143.092 Y135.005 E12.18892
G1 F2227.1 X142.534 Y134.655 E12.19989
G1 F2024.4 X142.005 Y133.985 E12.21542
G1 F1500 X141.921 Y133.931 E12.21782
G1 F1487.2 X141.801 Y132.876 E12.24348
G1 F1711.7 X141.8 Y130.399 E12.29614
G1 F1715.9 X141.348 Y130.399 E12.30572
G1 X141.348 Y132.837 E12.35743
G1 F1599.5 X141.39 Y133.859 E12.38057
G1 F1506.5 X140.949 Y134.715 E12.40357
G1 F1671.4 X140.475 Y135.004 E12.41563
G1 F1907.5 X139.99 Y135.083 E12.42508
G1 F1953.8 X139.405 Y134.972 E12.43628
G1 F1975 X139.158 Y134.82 E12.44168
G1 F1753.8 X138.608 Y134.309 E12.45729
G1 F1462.1 X138.395 Y134.155 E12.46374
M104 T1 S190
G1 F1526.3 X138.222 Y133.197 E12.48672
G1 F1703.5 X138.218 Y130.399 E12.54646
G1 F1711.7 X137.767 Y130.399 E12.55605
G1 F1703.5 X137.769 Y133.236 E12.61662
G1 F1529.6 X137.814 Y134 E12.63465
G1 F1271.5 X137.86 Y134.369 E12.645
G1 F1394 X137.767 Y135.374 E12.67087
G1 F1715.9 X138.219 Y135.374 E12.68045
G1 X138.219 Y134.951 E12.68942
G1 F1394 X138.312 Y134.66 E12.69725
G1 F1334.1 X138.472 Y134.683 E12.70156
G1 F1732.6 X139.058 Y135.235 E12.71849
G1 F1953.8 X139.433 Y135.39 E12.72612
G1 F1927.8 X140.082 Y135.487 E12.73862
G1 F1882.6 X140.62 Y135.4 E12.74923
G1 F1797.9 X141.055 Y135.185 E12.75909
G1 F1720 X141.381 Y134.881 E12.76852
G1 F1484 X141.705 Y134.259 E12.7855
G1 F1588.6 X141.918 Y134.341 E12.7907
G1 F2070.3 X142.448 Y135.05 E12.80648
G1 F2106 X142.969 Y135.364 E12.81715
G1 F2007.7 X143.28 Y135.451 E12.82307
G1 F1912.5 X144.006 Y135.453 E12.837
M204 S750
G0 F18000 X144.194 Y135.388
G1 F2700 E6.337
G1 F600 Z2.25
G0 F18000 X134.259 Y137.231 Z2.25
M204 S1500
G1 F600 Z0.25
G1 F2700 E12.837
G1 F1663.6 X134.261 Y130.399 E12.98607
G1 F1715.9 X133.809 Y130.399 E12.99566
G1 F1663.6 X133.808 Y136.821 E13.13579
G1 F1753.8 X133.618 Y136.876 E13.1399
G1 F1922.7 X132.812 Y136.878 E13.15529
G1 F1932.9 X133.037 Y137.282 E13.16408
G1 F1762.5 X134.259 Y137.231 E13.18938
M204 S750
G0 F18000 X134.259 Y137.031
G1 F2700 E6.68938
G1 F600 Z2.25
G0 F18000 X129.989 Y131.145 Z2.25
M204 S1500
G1 F600 Z0.25
G1 F2700 E13.18938
G1 F1500 X130.11 Y131.066 E13.19285
G1 X130.261 Y130.803 E13.20012
G1 X130.213 Y130.583 E13.20552
G1 X130.018 Y130.398 E13.21197
G1 X129.846 Y130.342 E13.21631
G1 X129.538 Y130.391 E13.22379
G1 X129.333 Y130.659 E13.23188
G1 X129.388 Y130.992 E13.23997
G1 X129.612 Y131.169 E13.24682
G1 X129.989 Y131.145 E13.25588
M204 S750
G0 F18000 X130.11 Y131.066
G0 X130.137 Y131.018
G1 F2700 E6.75588
G1 F600 Z2.25
G0 F18000 X125.722 Y136.989 Z2.25
M204 S1500
G1 F600 Z0.25
G1 F2700 E13.25588
G1 F1943.3 X125.227 Y137.063 E13.26534
G1 F1897.4 X124.685 Y136.946 E13.27606
G1 F1811.5 X124.135 Y136.562 E13.28959
G1 F1762.5 X123.824 Y136.125 E13.30069
G1 F1753.8 X123.608 Y135.587 E13.31274
G1 F1741 X123.484 Y134.963 E13.32606
G1 F1724.2 X123.427 Y134.15 E13.34326
G1 F1728.3 X123.447 Y132.995 E13.3676
G1 F1766.9 X123.602 Y132.098 E13.38639
G1 F1802.4 X123.817 Y131.549 E13.39834
G1 F1816.1 X124.154 Y131.081 E13.40995
G1 F1844.1 X124.447 Y130.839 E13.41749
G1 F1877.7 X124.885 Y130.639 E13.42689
G1 F1917.6 X125.581 Y130.626 E13.44021
G1 F1927.8 X126.014 Y130.784 E13.44899
G1 F1863.2 X126.486 Y131.15 E13.46073
G1 F1780 X126.817 Y131.649 E13.47301
G1 F1728.3 X127.058 Y132.344 E13.48851
G1 F1691.4 X127.197 Y133.242 E13.50804
G1 F1720 X127.205 Y134.496 E13.53457
G1 F1766.9 X127.009 Y135.5 E13.55569
G1 F1775.6 X126.846 Y135.921 E13.56497
G1 F1797.9 X126.526 Y136.45 E13.57753
G1 F1834.7 X126.086 Y136.826 E13.58907
G1 F1902.4 X125.722 Y136.989 E13.59676
M204 S750
G0 F18000 X125.524 Y137.018
G0 X125.192 Y137.466
M204 S1500
G1 F1912.5 X125.945 Y137.35 E13.61138
G1 F1872.8 X126.303 Y137.186 E13.61908
G1 F1807 X126.971 Y136.585 E13.63725
G1 F1736.8 X127.364 Y135.855 E13.65464
G1 F1699.5 X127.548 Y135.189 E13.66942
G1 F1724.2 X127.642 Y134.556 E13.68294
G1 F1715.9 X127.659 Y133.223 E13.71121
G1 F1687.3 X127.504 Y132.256 E13.7323
G1 F1736.8 X127.24 Y131.499 E13.74912
G1 F1793.4 X126.792 Y130.849 E13.76519
G1 F1844.1 X126.078 Y130.355 E13.78242
G1 F1892.5 X125.754 Y130.247 E13.78904
G1 F1887.5 X125.241 Y130.195 E13.79906
G1 F1877.7 X124.747 Y130.249 E13.80875
G1 F1844.1 X124.102 Y130.549 E13.82287
G1 F1766.9 X123.634 Y131.018 E13.83655
G1 F1732.6 X123.295 Y131.625 E13.85116
G1 F1720 X123.076 Y132.426 E13.86874
G1 F1687.3 X122.977 Y133.319 E13.88809
G1 F1691.4 X122.981 Y134.263 E13.90838
G1 F1703.5 X123.055 Y135.232 E13.92912
G1 X123.26 Y135.95 E13.94507
G1 F1732.6 X123.45 Y136.363 E13.95462
G1 F1762.5 X123.795 Y136.837 E13.96675
G1 F1766.9 X124.127 Y137.115 E13.97569
G1 F1807 X124.51 Y137.328 E13.98455
G1 F1897.4 X125.192 Y137.466 E13.998
M204 S750
G0 F18000 X125.389 Y137.436
G1 F2700 E7.498
G1 F600 Z2.25
G0 F18000 X126.38 Y147.781 Z2.25
M204 S1500
G1 F600 Z0.25
G1 F2700 E13.998
G1 F2106 X126.38 Y145.394 E14.03987
G1 X126.006 Y145.394 E14.04643
G1 X126.006 Y147.781 E14.0883
G1 X126.38 Y147.781 E14.09486
M204 S750
G0 F18000 X126.38 Y147.581
G1 F2700 E7.59486
G1 F600 Z2.25
G0 F18000 X127.255 Y169.571 Z2.25
M204 S1500
G1 F600 Z0.25
G1 F2700 E14.09486
G1 F1858.4 X127.255 Y168.553 E14.11492
G1 F1493.6 X127.254 Y167.535 E14.13943
G1 F1459 X128.25 Y167.535 E14.16393
G1 F1711.7 X129.246 Y167.536 E14.1851
G1 F1868 X129.246 Y167.118 E14.1933
G1 F1711.7 X128.25 Y167.118 E14.21447
G1 F1459 X127.254 Y167.118 E14.23896
G1 F1493.6 X127.254 Y166.1 E14.26348
G1 F1858.4 X127.255 Y165.082 E14.28353
G1 F2106 X126.881 Y165.083 E14.29009
G1 F1858.4 X126.881 Y166.101 E14.31015
G1 F1493.6 X126.881 Y167.119 E14.33466
G1 F1459 X125.885 Y167.118 E14.35916
G1 F1711.7 X124.889 Y167.118 E14.38033
G1 F1868 X124.89 Y167.536 E14.38853
G1 F1711.7 X125.886 Y167.536 E14.4097
G1 F1459 X126.882 Y167.535 E14.4342
G1 F1493.6 X126.881 Y168.553 E14.45871
G1 F1858.4 X126.881 Y169.571 E14.47877
G1 F2106 X127.255 Y169.571 E14.48533
M204 S750
G0 F18000 X127.255 Y169.371
G1 F2700 E7.98533
G1 F600 Z2.25
G0 F18000 X157.152 Y156.458 Z2.25
M204 S1500
G1 F600 Z0.25
G1 F2700 E14.48533
G1 F1985.8 X157.152 Y144.708 E14.70303
G1 F2013.2 X157.152 Y132.958 E14.91798
G1 F2047.1 X157.153 Y121.208 E15.12961
G1 F2058.7 X157.153 Y121.209 E15.12963
G1 X156.771 Y121.209 E15.13647
G1 F2047.1 X156.771 Y132.832 E15.34582
G1 F2013.2 X156.771 Y144.455 E15.55844
G1 F1985.8 X156.771 Y156.078 E15.77379
G1 X145.148 Y156.078 E15.98915
G1 F2013.2 X133.525 Y156.078 E16.20177
G1 F2047.1 X121.902 Y156.078 E16.41112
G1 F2058.7 X121.902 Y156.46 E16.41796
G1 F2047.1 X133.652 Y156.46 E16.62959
G1 F2013.2 X145.402 Y156.459 E16.84454
G1 F1985.8 X157.152 Y156.458 E17.06225
M204 S750
G0 F18000 X157.152 Y156.258
G1 F2700 E10.56225
G1 F600 Z2.25
G0 F18000 X156.962 Y102.762 Z2.25
M204 S1500
G1 F600 Z0.25
G1 F2700 E17.06225
G1 F1347.3 X156.962 Y88.509 E17.43894
M204 S750
G1 F2700 E10.93894
G1 F600 Z2.25
G0 F18000 X88.426 Y198.916 Z2.25
M204 S1500
G1 F600 Z0.25
G1 F2700 E17.43894
G1 F1699.5 X88.601 Y198.293 E17.45278
G1 X89.183 Y198.153 E17.46559
G1 F1736.8 X88.566 Y198.005 E17.4789
G1 F2447.2 X88.566 Y194.493 E17.53241
G1 F1766.9 X89.183 Y194.345 E17.54551
G1 F1732.6 X88.566 Y194.197 E17.55885
G1 F2447.2 X88.566 Y190.686 E17.61234
G1 F1771.2 X89.183 Y190.538 E17.62541
G1 F1736.8 X88.566 Y190.39 E17.63872
G1 F2447.2 X88.566 Y186.878 E17.69223
G1 F1771.2 X89.183 Y186.73 E17.7053
G1 F1736.8 X88.566 Y186.582 E17.71861
G1 F2447.2 X88.566 Y183.071 E17.7721
G1 F1771.2 X89.183 Y182.923 E17.78517
G1 F1736.8 X88.566 Y182.775 E17.79848
G1 F2447.2 X88.566 Y179.263 E17.85199
G1 F1771.2 X89.183 Y179.115 E17.86506
G1 F1736.8 X88.566 Y178.967 E17.87837
G1 F2447.2 X88.566 Y175.455 E17.93188
G1 F1766.9 X89.183 Y175.307 E17.94498
G1 F1732.6 X88.566 Y175.159 E17.95831
G1 F2447.2 X88.566 Y171.648 E18.01181
G1 F1771.2 X89.183 Y171.5 E18.02488
G1 F1736.8 X88.566 Y171.352 E18.03819
