;FLAVOR:Marlin
;TIME:946
;Filament used: 0.105665m, 0.110563m
;Layer height: 0.2
;MINX:88.845
;MINY:87.234
;MINZ:0.25
;MAXX:214.016
;MAXY:214.26
;MAXZ:20.001
;TARGET_MACHINE.NAME:Syncraft IDEX
;Generated with Cura_SteamEngine 5.7.2
T0
M104 S205
M105
M109 S205
M105
M109 T1 S100
M82 ;absolute extrusion mode
;Filament weight = [0.8358609619140625, 0.8746009716796875]
;Nozzle diameter = 0.6
M605 S0
M900 P0.6 S75
CTEMP MAT='PLA' FAM=''
BREAK_CLEAN P=50
G21 ; set units to millimeters
G90 ; use absolute positioning
M82 ; absolute extrusion mode
M104 T1 S150 ; set extruder temp
M140 S60 ; set bed temp
G28 Z ; home z
M109 S150
G28 XY; home XY
START_GCODE
set_temperature_layer L0=<TEMPERATURE_LAYER_ZERO_VALUE> L1=<TEMPERATURE_LAYER_ONE_VALUE>
PRIME_ROUTINE
G92 E0
T0
G92 E0
G1 F2700 E-6.5
;LAYER_COUNT:4
G0 F7200 X150 Y150
;LAYER:0
M107
G1 F600 Z2.25
G0 F1800 X168.11 Y163.033 Z2.25
;TYPE:SKIRT
G1 F600 Z0.25
G1 F2700 E0
G1 F1200 X166.2 Y165.706 E0.0515
G1 X165.751 Y166.237 E0.0624
G1 X164.78 Y166.935 E0.08114
G1 X163.842 Y167.589 E0.09907
G1 X161.659 Y169.204 E0.14163
G1 X159.543 Y170.864 E0.18379
G1 X157.385 Y172.658 E0.22778
G1 X155.36 Y174.441 E0.27008
G1 X153.33 Y176.331 E0.31356
G1 X151.412 Y178.224 E0.3558
G1 X149.493 Y180.227 E0.39928
G1 X147.669 Y182.241 E0.44187
G1 X145.867 Y184.35 E0.48536
G1 X144.173 Y186.447 E0.52761
G1 X142.506 Y188.636 E0.57075
G1 X140.9 Y190.874 E0.61392
G1 X139.377 Y193.125 E0.65653
G1 X137.907 Y195.439 E0.6995
G1 X136.514 Y197.777 E0.74216
G1 X135.159 Y200.201 E0.78569
G1 X133.911 Y202.59 E0.82794
G1 X132.704 Y205.07 E0.87118
G1 X131.574 Y207.57 E0.91418
G1 X130.511 Y210.108 E0.95732
G1 X130.297 Y210.666 E0.96669
G1 X129.743 Y212.047 E0.99001
G1 X129.35 Y212.597 E1.00061
G1 X128.996 Y212.957 E1.00852
G1 X128.14 Y213.49 E1.02433
G1 X127.66 Y213.648 E1.03225
G1 X126.91 Y213.75 E1.04411
G1 X107.004 Y213.75 E1.35615
G1 X106.086 Y213.736 E1.37054
G1 X102.662 Y213.24 E1.42477
G1 X99.905 Y212.927 E1.46827
G1 X97.221 Y212.697 E1.5105
G1 X94.039 Y212.517 E1.56046
G1 X93.389 Y212.321 E1.5711
G1 X92.52 Y211.811 E1.58689
G1 X92.156 Y211.459 E1.59483
G1 X91.617 Y210.608 E1.61062
G1 X91.454 Y210.129 E1.61855
G1 X91.347 Y209.364 E1.63066
G1 X91.346 Y130.838 E2.86159
G1 X91.306 Y128.04 E2.90546
G1 X91.191 Y125.323 E2.94808
G1 X90.996 Y122.577 E2.99124
G1 X90.728 Y119.871 E3.03386
G1 X90.38 Y117.149 E3.07688
G1 X89.961 Y114.481 E3.11921
G1 X89.454 Y111.714 E3.16331
G1 X89.683 Y108.444 E3.21469
G1 X89.795 Y105.733 E3.25723
G1 X89.831 Y102.972 E3.30051
G1 X89.789 Y100.225 E3.34358
G1 X89.672 Y97.521 E3.386
G1 X89.355 Y93.401 E3.45078
G1 X89.463 Y92.73 E3.46143
G1 X89.854 Y91.801 E3.47723
G1 X90.31 Y91.207 E3.48897
G1 X91.252 Y90.289 E3.50959
G1 X91.834 Y89.944 E3.52019
G1 X92.304 Y89.758 E3.52812
G1 X92.996 Y89.627 E3.53916
G1 X96.01 Y89.393 E3.58654
G1 X98.76 Y89.099 E3.6299
G1 X101.455 Y88.734 E3.67253
G1 X104.172 Y88.287 E3.71569
G1 X107.045 Y87.736 E3.76155
G1 X107.867 Y87.775 E3.77445
G1 X110.544 Y88.503 E3.81793
G1 X113.212 Y89.154 E3.86098
G1 X115.886 Y89.725 E3.90384
G1 X118.58 Y90.223 E3.94679
G1 X121.256 Y90.638 E3.98924
G1 X124.003 Y90.987 E4.03264
G1 X126.733 Y91.253 E4.07564
G1 X129.448 Y91.442 E4.1183
G1 X132.164 Y91.554 E4.16091
G1 X134.835 Y91.59 E4.20279
G1 X208.445 Y91.59 E5.35666
G1 X209.482 Y91.605 E5.37291
G1 X210.136 Y91.773 E5.3835
G1 X211.026 Y92.247 E5.39931
G1 X211.404 Y92.582 E5.40722
G1 X211.979 Y93.41 E5.42303
G1 X212.162 Y93.881 E5.43095
G1 X212.292 Y94.626 E5.4428
G1 X212.379 Y96.218 E5.46779
G1 X212.581 Y98.996 E5.51145
G1 X212.859 Y101.742 E5.55472
G1 X213.205 Y104.41 E5.59689
G1 X213.319 Y105.129 E5.6083
G1 X213.505 Y106.427 E5.62886
G1 X213.506 Y126.458 E5.94285
G1 X213.491 Y127.525 E5.95958
G1 X213.323 Y128.18 E5.97018
G1 X212.851 Y129.07 E5.98597
G1 X212.124 Y129.769 E6.00178
G1 X211.486 Y130.113 E6.01314
G1 X208.528 Y131.298 E6.06309
G1 X205.992 Y132.405 E6.10647
G1 X203.538 Y133.558 E6.14897
G1 X201.091 Y134.795 E6.19195
G1 X198.651 Y136.115 E6.23544
G1 X196.302 Y137.473 E6.27797
G1 X193.982 Y138.904 E6.3207
G1 X191.695 Y140.406 E6.36359
G1 X189.428 Y141.988 E6.40692
G1 X187.238 Y143.611 E6.44965
G1 X185.099 Y145.291 E6.49229
G1 X182.983 Y147.052 E6.53544
G1 X180.923 Y148.867 E6.57848
G1 X178.932 Y150.725 E6.62117
G1 X176.959 Y152.673 E6.66463
G1 X175.096 Y154.62 E6.70687
G1 X173.235 Y156.678 E6.75036
G1 X171.46 Y158.755 E6.79319
G1 X169.758 Y160.866 E6.8357
G1 X168.11 Y163.033 E6.87837
G1 F2700 E0.37837
G1 F600 Z2.25
;MESH:EXTRUDER_ONE.STL
G0 F1800 X163.058 Y163.252 Z2.25
;TYPE:WALL-OUTER
G1 F600 Z0.25
G1 F2700 E6.87837
G1 F1171 X163.058 Y157.46 E6.97121
G1 F1186.9 X163.058 Y151.668 E7.06291
G1 F1206.6 X163.058 Y145.876 E7.15325
G1 F1223.5 X163.058 Y140.084 E7.24245
G1 F1240.8 X163.058 Y134.292 E7.33052
G1 F1262.2 X163.059 Y128.5 E7.41722
G1 F1269.5 X163.389 Y128.503 E7.42214
G1 F1262.2 X163.389 Y140.213 E7.59744
G1 F1240.8 X163.389 Y151.923 E7.77549
G1 F1223.5 X163.388 Y163.633 E7.95584
G1 X151.678 Y163.632 E8.13619
G1 F1240.8 X139.968 Y163.632 E8.31424
G1 F1262.2 X128.258 Y163.633 E8.48954
G1 F1269.5 X128.259 Y163.633 E8.48955
G1 X128.259 Y163.303 E8.49447
G1 F1262.2 X162.882 Y163.302 E9.01278
G1 F1206.6 X163.058 Y163.252 E9.01563
G0 F1800 X162.882 Y163.302
G0 X162.865 Y163.302
G1 F2700 E2.51563
G1 F600 Z2.25
G0 F1800 X154.089 Y141.515 Z2.25
;TYPE:WALL-INNER
G1 F600 Z0.25
G1 F2700 E9.01563
G1 F1180.5 X154.064 Y141.558 E9.01642
G1 X153.989 Y141.515 E9.0178
G1 X154.063 Y141.472 E9.01916
G0 F1800 X154.174 Y141.067
;TYPE:WALL-OUTER
G1 F975.4 X154.092 Y140.076 E9.03794
G1 F1045.6 X154.087 Y137.674 E9.08058
G1 F1050.7 X153.686 Y137.674 E9.08767
G1 F1045.6 X153.689 Y140.097 E9.13068
G1 F975.4 X153.716 Y141.091 E9.14947
G1 F1043 X153.661 Y141.515 E9.15707
G1 F1122.4 X153.686 Y142.04 E9.16583
G1 F1053.3 X153.686 Y142.59 E9.17553
G1 X154.086 Y142.59 E9.18258
G1 X154.086 Y142.04 E9.19228
G1 F1122.4 X154.225 Y141.844 E9.19628
G1 F968.7 X154.585 Y141.797 E9.20318
G1 X154.446 Y141.457 E9.21016
G1 F1043 X154.174 Y141.067 E9.21862
G0 F1800 X154.158 Y140.868
G1 F2700 E2.71862
G1 F600 Z2.25
G0 F1800 X155.851 Y142.349 Z2.25
G1 F600 Z0.25
G1 F2700 E9.21862
G1 F1220.1 X155.358 Y142.263 E9.22635
G1 F984.6 X154.636 Y141.853 E9.2419
G1 F955.4 X154.732 Y142.209 E9.249
G1 F1161.6 X154.971 Y142.455 E9.25454
G1 F1203.3 X155.356 Y142.615 E9.26106
G1 F1200 X155.973 Y142.702 E9.27082
G1 F1149.2 X156.563 Y142.591 E9.28061
G1 F1071.9 X157.073 Y142.289 E9.2909
G1 F1043 X157.327 Y141.983 E9.29798
G1 F923.5 X157.592 Y141.414 E9.31042
G1 F819.5 X157.733 Y141.401 E9.31354
G1 F788.8 X157.996 Y141.552 E9.32045
G1 F824.5 X157.78 Y141.18 E9.32987
G1 F940.2 X157.69 Y140.495 E9.34335
G1 F1017.9 X157.661 Y139.748 E9.35695
G1 F1050.7 X157.662 Y137.674 E9.3936
G1 F1053.3 X157.262 Y137.674 E9.40066
G1 F1050.7 X157.26 Y139.773 E9.43775
G1 F923.5 X157.27 Y141.131 E9.46468
G1 F940.2 X157.038 Y141.699 E9.47666
G1 F1116.5 X156.576 Y142.168 E9.48767
G1 F1167.8 X156.22 Y142.31 E9.49383
G1 F1210 X155.851 Y142.349 E9.4996
G0 F1800 X155.654 Y142.315
G1 F2700 E2.9996
G1 F600 Z2.25
G0 F1800 X157.996 Y141.552 Z2.25
G1 F600 Z0.25
G1 F2700 E9.4996
G1 F716.8 X158.229 Y141.942 E9.51084
G1 F2700 E3.01084
G1 F600 Z2.25
G0 F1800 X160.018 Y142.246 Z2.25
G1 F600 Z0.25
G1 F2700 E9.51084
G1 F1158.5 X159.549 Y142.347 E9.5186
G1 F1247.9 X159.018 Y142.282 E9.5267
G1 F1334.5 X158.609 Y142.09 E9.53312
G1 F915.3 X158.229 Y141.942 E9.54127
G1 F913.3 X158.437 Y142.352 E9.55048
G1 F1314.8 X159.054 Y142.647 E9.56034
G1 F1233.8 X159.545 Y142.702 E9.56789
G1 F1155.4 X160.192 Y142.578 E9.57858
G1 F1113.6 X160.628 Y142.317 E9.5871
G1 F1085.5 X160.872 Y142.047 E9.59335
G1 F1077.3 X161.122 Y141.514 E9.60353
G1 F1066.5 X161.229 Y140.694 E9.61795
G1 F1053.3 X161.234 Y137.674 E9.6712
G1 F1055.9 X160.834 Y137.674 E9.67824
G1 F1053.3 X160.828 Y140.662 E9.73094
G1 F1066.5 X160.743 Y141.413 E9.74412
G1 F1105.1 X160.645 Y141.672 E9.74879
G1 F1113.6 X160.37 Y142.033 E9.7564
G1 F1116.5 X160.018 Y142.246 E9.76329
G0 F1800 X159.823 Y142.288
G1 F2700 E3.26329
G1 F600 Z2.25
G0 F1800 X154.092 Y131.008 Z2.25
G1 F600 Z0.25
G1 F2700 E9.76329
G1 F1291.8 X151.764 Y131.008 E9.79741
G1 X151.764 Y130.684 E9.80216
G1 X154.092 Y130.684 E9.83628
G1 X154.092 Y131.008 E9.84103
G0 F1800 X154.092 Y130.808
G1 F2700 E3.34103
G1 F600 Z2.25
G0 F1800 X144.471 Y141.472 Z2.25
;TYPE:WALL-INNER
G1 F600 Z0.25
G1 F2700 E9.84103
G1 F1180.5 X144.397 Y141.515 E9.84239
G1 X144.472 Y141.558 E9.84377
G1 X144.497 Y141.515 E9.84456
G0 F1800 X144.555 Y140.807
;TYPE:WALL-OUTER
G1 F991.6 X144.5 Y140.091 E9.85792
G1 F1045.6 X144.495 Y137.674 E9.90083
G1 F1050.7 X144.094 Y137.674 E9.90792
G1 F1045.6 X144.097 Y140.111 E9.95118
G1 F991.6 X144.116 Y140.845 E9.96485
G1 F1030.3 X144.062 Y141.376 E9.97445
G1 F1088.2 X144.094 Y142.04 E9.98583
G1 F1053.3 X144.094 Y142.59 E9.99553
G1 X144.494 Y142.59 E10.00259
G1 X144.494 Y142.04 E10.01229
G1 F1122.4 X144.633 Y141.844 E10.01629
G1 F1200 X144.767 Y141.804 E10.01848
G1 F968.7 X145.049 Y141.859 E10.02394
G1 X144.747 Y141.283 E10.0363
G1 F1061.2 X144.555 Y140.807 E10.04529
G0 F1800 X144.54 Y140.608
G1 F2700 E3.54529
G1 F600 Z2.25
G0 F1800 X146.816 Y142.251 Z2.25
G1 F600 Z0.25
G1 F2700 E10.04529
G1 F1193.4 X146.263 Y142.349 E10.05414
G1 F1220.1 X145.766 Y142.264 E10.06193
G1 F970.9 X145.065 Y141.883 E10.07706
G1 F927.6 X145.143 Y142.206 E10.08362
G1 F1140.1 X145.379 Y142.456 E10.08927
G1 F1206.6 X145.76 Y142.615 E10.09571
G1 F1193.4 X146.387 Y142.701 E10.10568
G1 F1152.3 X146.697 Y142.667 E10.11075
G1 F1113.6 X147.238 Y142.47 E10.12041
G1 F1077.3 X147.475 Y142.301 E10.12544
G1 F1069.2 X147.739 Y141.989 E10.13255
G1 F1107.9 X147.864 Y141.615 E10.13919
G1 F962 X148.001 Y141.415 E10.14383
G1 F819.5 X148.203 Y141.409 E10.14828
G1 F788.8 X148.398 Y141.549 E10.15375
G1 F796.7 X148.226 Y141.258 E10.16138
G1 F887.6 X148.1 Y140.703 E10.17306
G1 F1001 X148.069 Y139.745 E10.19075
G1 F1050.7 X148.066 Y137.674 E10.22736
G1 X147.666 Y137.674 E10.23443
G1 F1030.3 X147.675 Y140.429 E10.28398
G1 F911.2 X147.683 Y141.158 E10.29861
G1 F942.4 X147.4 Y141.786 E10.31203
G1 F1091 X147.053 Y142.132 E10.3204
G1 F1131.2 X146.816 Y142.251 E10.32479
G0 F1800 X146.62 Y142.285
G0 X147.34 Y142.152
G0 X147.784 Y141.257
G0 X148.398 Y141.549
G1 F727.5 X148.598 Y141.902 E10.33469
G1 F2700 E3.83469
G1 F600 Z2.25
G0 F1800 X150.491 Y142.219 Z2.25
G1 F600 Z0.25
G1 F2700 E10.33469
G1 F1161.6 X150.036 Y142.337 E10.34228
G1 F1247.9 X149.426 Y142.285 E10.35154
G1 F1322.6 X148.976 Y142.061 E10.35875
G1 F925.5 X148.598 Y141.902 E10.36687
G1 X148.763 Y142.281 E10.37505
G1 F1310.9 X149.222 Y142.56 E10.38281
G1 F1223.5 X149.731 Y142.69 E10.39091
G1 F1149.2 X150.353 Y142.652 E10.40106
G1 F1119.4 X150.658 Y142.555 E10.40641
G1 F1102.2 X151.084 Y142.276 E10.41503
G1 F1066.5 X151.275 Y142.053 E10.42015
G1 F1055.9 X151.485 Y141.646 E10.42821
G1 F1053.3 X151.594 Y141.168 E10.43685
G1 F1045.6 X151.641 Y140.604 E10.4469
G1 F1050.7 X151.642 Y137.674 E10.49869
G1 F1053.3 X151.242 Y137.674 E10.50574
G1 F1050.7 X151.238 Y140.595 E10.55737
G1 F1058.6 X151.175 Y141.331 E10.57033
G1 F1077.3 X150.884 Y141.944 E10.58206
G1 F1099.4 X150.491 Y142.219 E10.5902
G0 F1800 X150.298 Y142.269
G1 F2700 E4.0902
G1 F600 Z2.25
G0 F1800 X140.14 Y144.072 Z2.25
G1 F600 Z0.25
G1 F2700 E10.5902
G1 F1020.4 X140.142 Y137.674 E10.70629
G1 F1053.3 X140.542 Y137.674 E10.71334
G1 F1020.4 X140.541 Y144.442 E10.83614
G1 F1077.3 X139.962 Y144.492 E10.84619
G1 F1183.7 X139.362 Y144.493 E10.85571
G1 F1186.9 X139.164 Y144.139 E10.86213
G1 F1183.7 X139.932 Y144.137 E10.87432
G1 F1077.3 X140.14 Y144.072 E10.87809
G0 F1800 X139.95 Y144.131
G1 F2700 E4.37809
G1 F600 Z2.25
G0 F1800 X136.143 Y138.021 Z2.25
;TYPE:WALL-INNER
G1 F600 Z0.25
G1 F2700 E10.87809
G1 F872.5 X136.11 Y138.078 E10.87946
G1 X136.011 Y138.021 E10.88184
G1 X136.109 Y137.964 E10.88421
G0 F1800 X136.222 Y138.457
;TYPE:WALL-OUTER
G1 F1200 X136.491 Y138.293 E10.88914
G1 X136.609 Y138.058 E10.89327
G1 X136.532 Y137.783 E10.89774
G1 X136.376 Y137.642 E10.90104
G1 X136.063 Y137.564 E10.9061
G1 X135.725 Y137.716 E10.9119
G1 X135.617 Y137.942 E10.91583
G1 X135.677 Y138.257 E10.92086
G1 X135.873 Y138.428 E10.92493
G1 X136.222 Y138.457 E10.93042
G0 F1800 X136.392 Y138.353
G1 F2700 E4.43042
G1 F600 Z2.25
G0 F1800 X131.587 Y144.327 Z2.25
G1 F600 Z0.25
G1 F2700 E10.93042
G1 F1190.2 X132.074 Y144.242 E10.93823
G1 F1161.6 X132.705 Y143.881 E10.94997
G1 F1122.4 X133.103 Y143.361 E10.96088
G1 F1080 X133.357 Y142.746 E10.97235
G1 F1063.9 X133.522 Y141.891 E10.98757
G1 F1061.2 X133.557 Y141.324 E10.99752
G1 F1058.6 X133.55 Y140.688 E11.00869
G1 F1061.2 X133.469 Y139.879 E11.02293
G1 F1066.5 X133.287 Y139.198 E11.03522
G1 F1074.6 X132.975 Y138.555 E11.0476
G1 F1125.3 X132.672 Y138.24 E11.05486
G1 F1167.8 X132.23 Y137.953 E11.06333
G1 F1174.1 X131.631 Y137.822 E11.07313
G1 F1183.7 X130.922 Y137.983 E11.08467
G1 F1152.3 X130.524 Y138.253 E11.0925
G1 F1116.5 X130.158 Y138.726 E11.1025
G1 F1093.8 X129.927 Y139.255 E11.11234
G1 F1077.3 X129.799 Y139.879 E11.12335
G1 F1066.5 X129.744 Y140.466 E11.13363
G1 F1063.9 X129.725 Y141.317 E11.14851
G1 F1080 X129.789 Y142.284 E11.16522
G1 F1074.6 X129.929 Y142.886 E11.17593
G1 F1069.2 X130.212 Y143.513 E11.1879
G1 F1091 X130.477 Y143.853 E11.19526
G1 F1131.2 X130.981 Y144.192 E11.20531
G1 F1183.7 X131.587 Y144.327 E11.21516
G0 F1800 X131.392 Y144.284
G1 F2700 E4.71516
G1 F600 Z2.25
G0 F1800 X133.877 Y142.235 Z2.25
G1 F600 Z0.25
G1 F2700 E11.21516
G1 F1027.8 X133.67 Y143.149 E11.23206
G1 F1043 X133.279 Y143.797 E11.24552
G1 F1085.5 X132.868 Y144.226 E11.25572
G1 F1116.5 X132.316 Y144.537 E11.26632
G1 F1149.2 X131.849 Y144.659 E11.27419
G1 F1131.2 X131.216 Y144.663 E11.28466
G1 F1093.8 X130.604 Y144.418 E11.2959
G1 F1102.2 X130.208 Y144.125 E11.30423
G1 F1085.5 X129.849 Y143.669 E11.3142
G1 F1063.9 X129.549 Y143.002 E11.32698
G1 F1066.5 X129.39 Y142.24 E11.34055
G1 F1061.2 X129.342 Y141.671 E11.35056
G1 F1045.6 X129.325 Y140.814 E11.36577
G1 X129.369 Y140.116 E11.37819
G1 F1053.3 X129.467 Y139.492 E11.38933
G1 F1061.2 X129.6 Y139 E11.39826
G1 F1066.5 X129.936 Y138.349 E11.41103
G1 F1085.5 X130.386 Y137.866 E11.42236
G1 F1091 X131.125 Y137.504 E11.43642
G1 F1125.3 X131.736 Y137.475 E11.44659
G1 F1167.8 X132.38 Y137.624 E11.45721
G1 F1140.1 X132.671 Y137.78 E11.46263
G1 F1110.8 X133.201 Y138.234 E11.47436
G1 F1074.6 X133.418 Y138.55 E11.481
G1 F1037.9 X133.813 Y139.443 E11.49845
G1 F1032.8 X133.939 Y140.5 E11.51756
G1 F1043 X133.96 Y141.058 E11.52749
G1 F1048.1 X133.938 Y141.726 E11.53933
G1 F1040.4 X133.877 Y142.235 E11.54847
G0 F1800 X133.9 Y142.037
G1 F2700 E5.04847
G1 F600 Z2.25
G0 F1800 X132.677 Y154.973 Z2.25
G1 F600 Z0.25
G1 F2700 E11.54847
G1 F1299.4 X132.355 Y154.973 E11.55317
G1 X132.355 Y152.639 E11.58719
G1 X132.677 Y152.639 E11.59189
G1 X132.677 Y154.973 E11.62591
G0 F1800 X132.677 Y154.773
G1 F2700 E5.12591
G1 F600 Z2.25
G0 F1800 X133.552 Y174.693 Z2.25
G1 F600 Z0.25
G1 F2700 E11.62591
G1 F1137.1 X133.552 Y176.716 E11.65921
G1 F1291.8 X133.228 Y176.716 E11.66396
G1 F1137.1 X133.228 Y174.693 E11.69725
G1 F1077.3 X131.241 Y174.687 E11.73159
G1 F1149.2 X131.241 Y174.321 E11.73756
G1 F1077.3 X133.228 Y174.315 E11.7719
G1 F1137.1 X133.228 Y172.292 E11.8052
G1 F1291.8 X133.552 Y172.292 E11.80995
G1 F1137.1 X133.552 Y174.315 E11.84324
G1 F1077.3 X135.539 Y174.321 E11.87758
G1 F1149.2 X135.539 Y174.687 E11.88355
G1 F1077.3 X133.552 Y174.693 E11.91789
G0 F1800 X133.752 Y174.693
G1 F2700 E5.41789
G1 F600 Z2.25
G0 F1800 X173.904 Y131.88 Z2.25
G1 F600 Z0.25
G1 F2700 E11.91789
G1 F1074.6 X173.898 Y133.866 E11.95229
G1 F1143.2 X173.53 Y133.866 E11.95832
G1 F1074.6 X173.524 Y131.88 E11.99272
G1 F1137.1 X171.5 Y131.88 E12.02603
G1 F1291.8 X171.5 Y131.556 E12.03078
G1 F1137.1 X173.524 Y131.556 E12.06409
G1 F1074.6 X173.53 Y129.57 E12.09849
G1 F1143.2 X173.898 Y129.57 E12.10452
G1 F1074.6 X173.904 Y131.556 E12.13892
G1 F1137.1 X175.928 Y131.556 E12.17224
G1 F1291.8 X175.928 Y131.88 E12.17699
G1 F1137.1 X173.904 Y131.88 E12.2103
G0 F1800 X174.104 Y131.88
M104 T1 S195
G1 F2700 E5.7103
G1 F600 Z2.25
G0 F1800 X104.824 Y209.068 Z2.25
G1 F600 Z0.25
G1 F2700 E12.2103
