;FLAVOR:Marlin
;TIME:817
;Filament used: 0.111134m, 0.105878m
;Layer height: 0.2
;MINX:88.916
;MINY:87.293
;MINZ:0.25
;MAXX:213.943
;MAXY:214.189
;MAXZ:20.001
;TARGET_MACHINE.NAME:Syncraft IDEX
;Generated with Cura_SteamEngine 5.7.2
T0
M104 S210
M105
M109 S210
M105
M109 T1 S100
M82 ;absolute extrusion mode
;Filament weight = [0.87912064453125, 0.8375399267578125]
;Nozzle diameter = 0.4
M605 S0
M900 P0.4 S80
BREAK_CLEAN P=50
G21 ; set units to millimeters
G90 ; use absolute positioning
M82 ; absolute extrusion mode
M104 T1 S150 ; set extruder temp
M140 S60 ; set bed temp
G28 Z ; home z
M109 S150
G28 XY; home XY
START_GCODE
set_temperature_layer L0=<TEMPERATURE_LAYER_ZERO_VALUE> L1=<TEMPERATURE_LAYER_ONE_VALUE>
PRIME_ROUTINE
G92 E0
T0
G92 E0
G1 F2700 E-6.5
;LAYER_COUNT:4
G0 F18000 X150 Y150
;LAYER:0
M107
M104 T1 S205
G1 F600 Z2.25
G0 F9000 X168.126 Y163.018 Z2.25
;TYPE:SKIRT
G1 F600 Z0.25
G1 F2100 E0
G1 F1920 X166.013 Y165.975 E0.05811
G1 X165.476 Y166.44 E0.06947
G1 X164.78 Y166.941 E0.08318
G1 X163.745 Y167.664 E0.10337
G1 X161.511 Y169.319 E0.14782
G1 X159.4 Y170.981 E0.19078
G1 X157.28 Y172.746 E0.23488
G1 X155.205 Y174.578 E0.27914
G1 X153.229 Y176.423 E0.32237
G1 X151.283 Y178.344 E0.36609
G1 X149.374 Y180.341 E0.41026
G1 X147.547 Y182.365 E0.45386
G1 X145.777 Y184.438 E0.49744
G1 X144.046 Y186.586 E0.54155
G1 X142.386 Y188.772 E0.58543
G1 X140.79 Y191 E0.62925
G1 X139.276 Y193.245 E0.67255
G1 X137.794 Y195.582 E0.7168
G1 X136.409 Y197.91 E0.76011
G1 X135.064 Y200.322 E0.80426
G1 X133.798 Y202.755 E0.84812
G1 X132.613 Y205.196 E0.8915
G1 X131.469 Y207.733 E0.936
G1 X130.42 Y210.25 E0.9796
G1 X129.673 Y212.138 E1.01206
G1 X129.285 Y212.688 E1.02282
G1 X128.933 Y213.048 E1.03087
G1 X128.082 Y213.579 E1.04691
G1 X127.605 Y213.738 E1.05495
G1 X126.858 Y213.839 E1.067
G1 X106.917 Y213.839 E1.38584
G1 X106.017 Y213.826 E1.40023
G1 X102.607 Y213.332 E1.45532
G1 X99.836 Y213.017 E1.49991
G1 X97.152 Y212.786 E1.54299
G1 X93.927 Y212.604 E1.59463
G1 X93.283 Y212.409 E1.60539
G1 X92.419 Y211.899 E1.62143
G1 X92.058 Y211.548 E1.62948
G1 X91.525 Y210.698 E1.64553
G1 X91.365 Y210.221 E1.65357
G1 X91.263 Y209.48 E1.66553
G1 X91.262 Y130.778 E2.92389
G1 X91.222 Y127.978 E2.96867
G1 X91.107 Y125.262 E3.01213
G1 X90.915 Y122.548 E3.05564
G1 X90.64 Y119.774 E3.10021
G1 X90.299 Y117.11 E3.14315
G1 X89.863 Y114.337 E3.18803
G1 X89.367 Y111.632 E3.232
G1 X89.595 Y108.379 E3.28414
G1 X89.708 Y105.66 E3.32765
G1 X89.745 Y102.901 E3.37177
G1 X89.704 Y100.151 E3.41574
G1 X89.588 Y97.445 E3.45905
G1 X89.268 Y93.281 E3.52583
G1 X89.377 Y92.616 E3.5366
G1 X89.768 Y91.692 E3.55264
G1 X90.22 Y91.103 E3.56451
G1 X91.172 Y90.183 E3.58568
G1 X91.751 Y89.845 E3.5964
G1 X92.22 Y89.663 E3.60444
G1 X92.886 Y89.538 E3.61528
G1 X95.955 Y89.301 E3.66449
G1 X98.675 Y89.009 E3.70823
G1 X101.361 Y88.645 E3.75157
G1 X104.089 Y88.196 E3.79578
G1 X106.954 Y87.645 E3.84243
G1 X107.77 Y87.684 E3.85549
G1 X110.459 Y88.416 E3.90005
G1 X113.127 Y89.067 E3.94396
G1 X115.822 Y89.643 E3.98802
G1 X118.493 Y90.137 E4.03145
G1 X121.174 Y90.554 E4.07483
G1 X123.914 Y90.902 E4.11899
G1 X126.651 Y91.17 E4.16297
G1 X129.369 Y91.36 E4.20653
G1 X132.082 Y91.471 E4.24994
G1 X134.773 Y91.508 E4.29297
G1 X208.559 Y91.508 E5.47274
G1 X209.595 Y91.523 E5.4893
G1 X210.246 Y91.691 E5.50005
G1 X211.13 Y92.164 E5.51608
G1 X211.823 Y92.89 E5.53213
G1 X212.254 Y93.796 E5.54817
G1 X212.377 Y94.518 E5.55988
G1 X212.451 Y95.897 E5.58196
G1 X212.644 Y98.648 E5.62606
G1 X212.917 Y101.403 E5.67032
G1 X213.262 Y104.111 E5.71397
G1 X213.551 Y106.049 E5.7453
G1 X213.592 Y106.735 E5.75629
G1 X213.593 Y126.409 E6.07086
G1 X213.578 Y127.475 E6.0879
G1 X213.41 Y128.127 E6.09867
G1 X212.938 Y129.012 E6.1147
G1 X212.212 Y129.705 E6.13075
G1 X211.556 Y130.052 E6.14262
G1 X211.085 Y130.234 E6.15069
G1 X208.54 Y131.26 E6.19456
G1 X206.055 Y132.345 E6.23792
G1 X203.557 Y133.519 E6.28205
G1 X201.109 Y134.758 E6.32592
G1 X198.711 Y136.056 E6.36952
G1 X196.319 Y137.441 E6.41371
G1 X194.021 Y138.858 E6.45688
G1 X191.71 Y140.374 E6.50107
G1 X189.481 Y141.931 E6.54454
G1 X187.251 Y143.584 E6.58893
G1 X185.129 Y145.251 E6.63207
G1 X182.998 Y147.027 E6.67643
G1 X180.952 Y148.829 E6.72002
G1 X178.959 Y150.689 E6.76361
G1 X177.005 Y152.619 E6.80752
G1 X175.106 Y154.604 E6.85144
G1 X173.279 Y156.626 E6.89501
G1 X171.485 Y158.727 E6.93919
G1 X169.786 Y160.835 E6.98248
G1 X168.126 Y163.018 E7.02633
G1 F2700 E0.52633
G1 F600 Z2.25
;MESH:EXTRUDER_ONE.STL
G0 F9000 X163.437 Y163.684 Z2.25
;TYPE:WALL-OUTER
G1 F600 Z0.25
G1 F2100 E7.02633
G1 F1920 X163.437 Y151.934 E7.24403
G1 X163.437 Y140.184 E7.45843
G1 X163.438 Y128.434 E7.66951
G1 X163.058 Y128.434 E7.6763
G1 X163.058 Y140.057 E7.88509
G1 X163.058 Y151.68 E8.09717
G1 X163.057 Y163.303 E8.31252
G1 X151.434 Y163.302 E8.52788
G1 X139.811 Y163.302 E8.7405
G1 X128.188 Y163.302 E8.95039
G1 X128.187 Y163.685 E8.95727
G1 X139.937 Y163.685 E9.16946
G1 X151.687 Y163.685 E9.3844
G1 X163.437 Y163.684 E9.60211
G0 F9000 X163.437 Y163.484
G1 F2700 E3.10211
G1 F600 Z2.25
G0 F9000 X159.57 Y142.713 Z2.25
G1 F600 Z0.25
G1 F2100 E9.60211
G1 F1920 X160.272 Y142.563 E9.61619
G1 X160.709 Y142.27 E9.6271
G1 X160.91 Y142.057 E9.63324
G1 X161.166 Y141.501 E9.64588
G1 X161.273 Y140.676 E9.66333
G1 X161.278 Y137.621 E9.72826
G1 X160.829 Y137.621 E9.73776
G1 X160.825 Y140.564 E9.80004
G1 X160.743 Y141.376 E9.81712
G1 X160.549 Y141.803 E9.8268
G1 X160.048 Y142.198 E9.83986
G1 X159.6 Y142.306 E9.84889
G1 X159.057 Y142.248 E9.85899
G1 X158.668 Y142.067 E9.86641
G1 X158.371 Y141.785 E9.87321
G1 X158.002 Y141.555 E9.88266
G1 X158.088 Y141.985 E9.89218
G1 X158.289 Y142.228 E9.89749
G1 X158.753 Y142.537 E9.90727
G1 X159.088 Y142.654 E9.91375
G1 X159.57 Y142.713 E9.92288
G0 F9000 X159.765 Y142.672
G1 F2700 E3.42288
G1 F600 Z2.25
G0 F9000 X155.982 Y142.71 Z2.25
G1 F600 Z0.25
G1 F2100 E9.92288
G1 F1920 X156.583 Y142.598 E9.9349
G1 X157.113 Y142.29 E9.94752
G1 X157.275 Y142.117 E9.95251
G1 X157.493 Y141.607 E9.96383
G1 X157.643 Y141.519 E9.96692
G1 X157.987 Y141.527 E9.97432
G1 X157.888 Y140.988 E9.9861
G1 X157.727 Y140.453 E9.99679
G1 X157.698 Y139.724 E10.01268
G1 X157.698 Y137.622 E10.05736
G1 X157.246 Y137.622 E10.06696
G1 X157.246 Y139.749 E10.11217
G1 X157.255 Y140.451 E10.12746
G1 X157.055 Y141.597 E10.15175
G1 X156.832 Y141.942 E10.16006
G1 X156.223 Y142.267 E10.17385
G1 X155.886 Y142.306 E10.18025
G1 X155.365 Y142.215 E10.19005
G1 X154.846 Y141.866 E10.20055
G1 X154.459 Y141.378 E10.21027
G1 X154.161 Y140.674 E10.22509
G1 X154.121 Y140.035 E10.23921
G1 X154.118 Y137.622 E10.29072
G1 X153.666 Y137.622 E10.30035
G1 X153.667 Y140.054 E10.35228
G1 X153.682 Y140.715 E10.36686
G1 X153.61 Y141.502 E10.38217
G1 X153.666 Y142.02 E10.39187
G1 X153.666 Y142.598 E10.40416
G1 X154.118 Y142.598 E10.41377
G1 X154.118 Y142.02 E10.42605
G1 X154.257 Y141.873 E10.42982
G1 X154.388 Y141.842 E10.43196
G1 X154.533 Y141.921 E10.43439
G1 X154.698 Y142.219 E10.43966
G1 X154.965 Y142.458 E10.44613
G1 X155.354 Y142.622 E10.45405
G1 X155.982 Y142.71 E10.46604
G0 F9000 X156.178 Y142.674
G1 F2700 E3.96604
G1 F600 Z2.25
G0 F9000 X154.105 Y141.502 Z2.25
;TYPE:WALL-INNER
G1 F600 Z0.25
G1 F2100 E10.46604
G1 F1920 X154.072 Y141.558 E10.46763
G1 X153.975 Y141.502 E10.47037
G1 X154.072 Y141.446 E10.47311
G1 F2700 E3.97311
G1 F600 Z2.25
G0 F9000 X157.559 Y141.1 Z2.25
G1 F600 Z0.25
G1 F2100 E10.47311
G1 F1920 X157.477 Y141.147 E10.47506
G1 X157.559 Y141.194 E10.47702
G1 X157.587 Y141.147 E10.47815
G1 F2700 E3.97815
G1 F600 Z2.25
G0 F9000 X151.739 Y130.993 Z2.25
;TYPE:WALL-OUTER
G1 F600 Z0.25
G1 F2100 E10.47815
G1 F1920 X154.125 Y130.993 E10.52012
G1 X154.125 Y130.619 E10.52669
G1 X151.739 Y130.619 E10.56866
G1 X151.739 Y130.993 E10.57524
G0 F9000 X151.939 Y130.993
G1 F2700 E4.07524
G1 F600 Z2.25
G0 F9000 X150.076 Y142.708 Z2.25
G1 F600 Z0.25
G1 F2100 E10.57524
G1 F1920 X150.611 Y142.586 E10.58597
G1 X150.835 Y142.471 E10.59106
G1 X151.256 Y142.102 E10.60265
G1 X151.519 Y141.634 E10.61373
G1 X151.664 Y140.612 E10.63523
G1 X151.667 Y137.621 E10.69867
G1 X151.217 Y137.621 E10.70819
G1 X151.213 Y140.577 E10.77089
G1 X151.137 Y141.431 E10.78895
G1 X150.812 Y141.937 E10.80122
G1 X150.472 Y142.184 E10.8096
G1 X150.017 Y142.304 E10.81881
G1 X149.404 Y142.238 E10.83017
G1 X148.787 Y141.885 E10.84274
G1 X148.384 Y141.548 E10.85426
G1 X148.577 Y142.107 E10.86722
G1 X148.785 Y142.315 E10.87242
G1 X149.205 Y142.566 E10.88114
G1 X149.73 Y142.7 E10.89123
G1 X150.076 Y142.708 E10.89788
G0 F9000 X150.27 Y142.664
G1 F2700 E4.39788
G1 F600 Z2.25
G0 F9000 X146.37 Y142.711 Z2.25
G1 F600 Z0.25
G1 F2100 E10.89788
G1 F1920 X146.974 Y142.595 E10.91003
G1 X147.293 Y142.442 E10.91727
G1 X147.651 Y142.136 E10.92708
G1 X147.88 Y141.598 E10.93915
G1 X148.23 Y141.453 E10.94735
G1 X148.335 Y141.484 E10.95004
G1 X148.32 Y141.115 E10.95784
G1 X148.113 Y140.619 E10.96818
G1 X148.086 Y139.724 E10.98776
G1 X148.086 Y137.622 E11.03244
G1 X147.634 Y137.622 E11.04205
G1 X147.637 Y140.617 E11.10754
G1 X147.546 Y141.254 E11.12067
G1 X147.295 Y141.861 E11.13362
G1 X147.022 Y142.098 E11.14113
G1 X146.563 Y142.278 E11.15084
G1 X146.216 Y142.302 E11.15732
G1 X145.721 Y142.203 E11.16656
G1 X145.288 Y141.925 E11.17541
G1 X144.901 Y141.479 E11.18491
G1 X144.509 Y140.432 E11.20441
G1 X144.506 Y137.622 E11.26097
G1 X144.054 Y137.622 E11.2706
G1 X144.056 Y140.086 E11.32321
G1 X144.068 Y140.576 E11.334
G1 X143.964 Y141.166 E11.34634
G1 X144.054 Y142.02 E11.36346
G1 X144.054 Y142.598 E11.37574
G1 X144.506 Y142.598 E11.38535
G1 X144.506 Y142.02 E11.39764
G1 X144.649 Y141.871 E11.40148
G1 X144.794 Y141.845 E11.40379
G1 X144.914 Y141.912 E11.40578
G1 X145.083 Y142.221 E11.41121
G1 X145.352 Y142.459 E11.41765
G1 X145.742 Y142.622 E11.42556
G1 X146.37 Y142.711 E11.43755
G0 F9000 X146.566 Y142.674
G1 F2700 E4.93755
G1 F600 Z2.25
G0 F9000 X147.981 Y141.151 Z2.25
;TYPE:WALL-INNER
G1 F600 Z0.25
G1 F2100 E11.43755
G1 F1920 X147.954 Y141.197 E11.43864
G1 X147.873 Y141.151 E11.44055
G1 X147.953 Y141.105 E11.44245
G1 F2700 E4.94245
G1 F600 Z2.25
G0 F9000 X144.436 Y141.488 Z2.25
G1 F600 Z0.25
G1 F2100 E11.44245
G1 F1920 X144.343 Y140.974 E11.45338
G1 F2700 E4.95338
G1 F600 Z2.25
G0 F9000 X139.938 Y144.505 Z2.25
;TYPE:WALL-OUTER
G1 F600 Z0.25
G1 F2100 E11.45338
G1 F1920 X140.545 Y144.455 E11.46604
G1 X140.546 Y137.622 E11.61513
G1 X140.094 Y137.622 E11.62474
G1 X140.093 Y144.046 E11.76492
G1 X139.903 Y144.101 E11.76903
G1 X139.097 Y144.102 E11.78438
G1 X139.323 Y144.506 E11.79317
G1 X139.938 Y144.505 E11.80489
G0 F9000 X140.137 Y144.489
G1 F2700 E5.30489
G1 F600 Z2.25
G0 F9000 X136.207 Y138.483 Z2.25
G1 F600 Z0.25
G1 F2100 E11.80489
G1 F1920 X136.502 Y138.307 E11.81038
G1 X136.636 Y138.043 E11.81511
G1 X136.548 Y137.723 E11.82042
G1 X136.374 Y137.564 E11.82419
G1 X136.031 Y137.48 E11.82983
G1 X135.793 Y137.537 E11.83375
G1 X135.648 Y137.653 E11.83671
G1 X135.526 Y137.905 E11.84119
G1 X135.6 Y138.264 E11.84705
G1 X135.816 Y138.454 E11.85165
G1 X136.207 Y138.483 E11.85792
G0 F9000 X136.378 Y138.381
G0 X136.096 Y138.16
;TYPE:WALL-INNER
G1 F1920 X136.298 Y137.972 E11.86218
G1 X136.213 Y137.869 E11.86424
G1 X136.03 Y137.824 E11.86714
G1 X135.916 Y137.867 E11.86902
G1 X135.858 Y138.002 E11.87129
G1 X135.971 Y138.145 E11.8741
G1 X136.096 Y138.16 E11.87604
G1 F2700 E5.37604
G1 F600 Z2.25
G0 F9000 X131.514 Y144.287 Z2.25
;TYPE:WALL-OUTER
G1 F600 Z0.25
G1 F2100 E11.87604
G1 F1920 X131.188 Y144.242 E11.88222
G1 X130.677 Y144.002 E11.8931
G1 X130.338 Y143.69 E11.9024
G1 X129.95 Y143.041 E11.91783
G1 X129.773 Y142.263 E11.93415
G1 X129.706 Y141.31 E11.95396
G1 X129.724 Y140.448 E11.97205
G1 X129.814 Y139.502 E11.99184
G1 X130.145 Y138.694 E12.00987
G1 X130.509 Y138.229 E12.02198
G1 X130.873 Y137.981 E12.03082
G1 X131.307 Y137.839 E12.03963
G1 X131.747 Y137.835 E12.04782
G1 X132.279 Y138.005 E12.0583
G1 X132.747 Y138.335 E12.06953
G1 X133.13 Y138.932 E12.08417
G1 X133.384 Y139.656 E12.1003
G1 X133.489 Y140.649 E12.12143
G1 X133.492 Y141.611 E12.14166
G1 X133.362 Y142.607 E12.16239
G1 X132.968 Y143.457 E12.18156
G1 X132.621 Y143.863 E12.19233
G1 X132.025 Y144.208 E12.20584
G1 X131.514 Y144.287 E12.21568
G0 F9000 X131.316 Y144.26
G0 X131.888 Y144.663
G1 F1920 X132.357 Y144.523 E12.2254
G1 X132.781 Y144.28 E12.23535
G1 X133.224 Y143.854 E12.24801
G1 X133.643 Y143.176 E12.26469
G1 X133.92 Y142.015 E12.29
G1 X133.949 Y141.036 E12.31087
G1 X133.931 Y140.463 E12.32313
G1 X133.818 Y139.491 E12.34421
G1 X133.531 Y138.736 E12.36141
G1 X133.187 Y138.18 E12.37525
G1 X132.659 Y137.737 E12.38948
G1 X132.004 Y137.468 E12.40343
G1 X131.354 Y137.416 E12.41613
G1 X130.682 Y137.601 E12.42986
G1 X130.222 Y137.904 E12.44092
G1 X129.783 Y138.443 E12.45517
G1 X129.407 Y139.29 E12.47461
G1 X129.3 Y140.104 E12.49206
G1 X129.256 Y140.793 E12.50677
G1 X129.274 Y141.654 E12.52512
G1 X129.324 Y142.235 E12.5374
G1 X129.498 Y143.072 E12.55541
G1 X129.855 Y143.803 E12.57282
G1 X130.313 Y144.27 E12.58654
G1 X130.738 Y144.522 E12.59658
G1 X131.357 Y144.686 E12.60922
G1 X131.888 Y144.663 E12.6195
G0 F9000 X132.079 Y144.606
G1 F2700 E6.1195
G1 F600 Z2.25
G0 F9000 X132.665 Y155.005 Z2.25
G1 F600 Z0.25
G1 F2100 E12.6195
G1 F1920 X132.665 Y152.619 E12.66146
G1 X132.291 Y152.619 E12.66804
G1 X132.291 Y155.005 E12.71
G1 X132.665 Y155.005 E12.71658
G0 F9000 X132.665 Y154.805
G1 F2700 E6.21658
G1 F600 Z2.25
G0 F9000 X133.541 Y176.793 Z2.25
G1 F600 Z0.25
G1 F2100 E12.71658
G1 F1920 X133.541 Y175.776 E12.73667
G1 X133.541 Y174.759 E12.76125
G1 X134.536 Y174.759 E12.78582
G1 X135.531 Y174.759 E12.80701
G1 X135.531 Y174.341 E12.81523
G1 X134.536 Y174.341 E12.83643
G1 X133.541 Y174.341 E12.86099
G1 X133.541 Y173.324 E12.88557
G1 X133.541 Y172.307 E12.90566
G1 X133.167 Y172.307 E12.91224
G1 X133.167 Y173.324 E12.93232
G1 X133.167 Y174.341 E12.95691
G1 X132.172 Y174.341 E12.98147
G1 X131.177 Y174.341 E13.00267
G1 X131.177 Y174.759 E13.01089
G1 X132.172 Y174.759 E13.03208
G1 X133.167 Y174.759 E13.05665
G1 X133.167 Y175.776 E13.08123
G1 X133.167 Y176.793 E13.10132
G1 X133.541 Y176.793 E13.10789
G0 F9000 X133.541 Y176.593
G1 F2700 E6.60789
G1 F600 Z2.25
G0 F9000 X173.549 Y133.859 Z2.25
G1 F600 Z0.25
G1 F2100 E13.10789
G1 F1920 X173.967 Y133.859 E13.11611
G1 X173.967 Y132.862 E13.13735
G1 X173.967 Y131.865 E13.16192
G1 X174.985 Y131.866 E13.18648
G1 X176.003 Y131.866 E13.20654
G1 X176.002 Y131.494 E13.21304
G1 X174.984 Y131.494 E13.2331
G1 X173.966 Y131.494 E13.25766
G1 X173.967 Y130.497 E13.28223
G1 X173.967 Y129.5 E13.30347
G1 X173.549 Y129.501 E13.31168
G1 X173.549 Y130.498 E13.33292
G1 X173.549 Y131.495 E13.35749
G1 X172.531 Y131.494 E13.38205
G1 X171.513 Y131.494 E13.40211
G1 X171.514 Y131.866 E13.40862
G1 X172.532 Y131.866 E13.42868
G1 X173.55 Y131.866 E13.45323
G1 X173.549 Y132.863 E13.4778
G1 X173.549 Y133.86 E13.49904
G0 F9000 X173.749 Y133.859
G1 F2700 E6.99904
G1 F600 Z2.25
G0 F9000 X182.286 Y109.986 Z2.25
G1 F600 Z0.25
G1 F2100 E13.49904
G1 F1920 X182.286 Y95.335 E13.88763
G1 F2700 E7.38763
G1 F600 Z2.25
G0 F9000 X94.712 Y205.739 Z2.25
G1 F600 Z0.25
G1 F2100 E13.88763
G1 F1920 X94.857 Y205.476 E13.89476
G1 X95.067 Y205.376 E13.90028
G1 X94.857 Y205.276 E13.90581
G1 X94.855 Y203.475 E13.94206
G1 X94.852 Y201.674 E13.97475
G1 X95.072 Y201.57 E13.98006
G1 X94.859 Y201.468 E13.98568
G1 X94.852 Y197.868 E14.06152
G1 X95.072 Y197.762 E14.06733
G1 X94.859 Y197.66 E14.07295
G1 X94.852 Y194.06 E14.1488
G1 X95.072 Y193.954 E14.15461
G1 X94.859 Y193.852 E14.16023
G1 X94.857 Y190.248 E14.23633
G1 X95.067 Y190.148 E14.24185
G1 X94.857 Y190.048 E14.24737
G1 X94.857 Y186.44 E14.32373
G1 X95.067 Y186.34 E14.32925
G1 X94.857 Y186.24 E14.33477
G1 X94.857 Y182.632 E14.41113
G1 X95.067 Y182.532 E14.41665
G1 X94.857 Y182.432 E14.42217
G1 X94.857 Y178.824 E14.49852
G1 X95.067 Y178.724 E14.50405
G1 X94.857 Y178.624 E14.50957
G1 X94.857 Y175.016 E14.58592
G1 X95.067 Y174.916 E14.59145
G1 X94.857 Y174.816 E14.59697
G1 X94.857 Y171.208 E14.67332
G1 X95.067 Y171.108 E14.67885
G1 X94.857 Y171.008 E14.68437
G1 X94.857 Y167.4 E14.76072
G1 X95.067 Y167.3 E14.76625
G1 X94.857 Y167.2 E14.77177
G1 X94.852 Y163.599 E14.84781
G1 X95.072 Y163.494 E14.85361
