;FLAVOR:Marlin
;TIME:613
;Filament used: 0.183026m, 0.049919m
;Layer height: 0.2
;MINX:124.023
;MINY:118.616
;MINZ:0.25
;MAXX:197.696
;MAXY:192.289
;MAXZ:20.001
;TARGET_MACHINE.NAME:Syncraft IDEX
;Generated with Cura_SteamEngine 5.7.2
T0
M104 S210
M105
M109 S210
M105
M109 T1 S100
M82 ;absolute extrusion mode
;Filament weight = [1.44781685546875, 0.39488161010742184]
;Nozzle diameter = 0.8
M605 S0
M900 P0.8 S55
BREAK_CLEAN P=50
G21 ; set units to millimeters
G90 ; use absolute positioning
M82 ; absolute extrusion mode
M104 T1 S150 ; set extruder temp
M140 S60 ; set bed temp
G28 Z ; home z
M109 S150
G28 XY; home XY
START_GCODE
set_temperature_layer L0=<TEMPERATURE_LAYER_ZERO_VALUE> L1=<TEMPERATURE_LAYER_ONE_VALUE>
PRIME_ROUTINE
G92 E0
T0
G92 E0
G1 F2700 E-6.5
;LAYER_COUNT:4
G0 F18000 X150 Y150
;LAYER:0
M107
G1 F600 Z2.25
G0 F9000 X165.686 Y165.23 Z2.25
;TYPE:SKIRT
G1 F600 Z0.25
G1 F2100 E0
G1 F1920 X163.86 Y167.248 E0.04351
G1 X162.088 Y169.321 E0.08712
G1 X160.365 Y171.457 E0.131
G1 X158.686 Y173.664 E0.17534
G1 X157.108 Y175.864 E0.21862
G1 X155.581 Y178.126 E0.26226
G1 X154.098 Y180.461 E0.30649
G1 X152.694 Y182.818 E0.35035
G1 X151.374 Y185.183 E0.39366
G1 X150.109 Y187.606 E0.43736
G1 X148.806 Y190.28 E0.48492
G1 X148.376 Y190.798 E0.49569
G1 X147.572 Y191.398 E0.51173
G1 X146.885 Y191.69 E0.52366
G1 X146.078 Y191.769 E0.53663
G1 X128.379 Y191.769 E0.81962
G1 X127.346 Y191.756 E0.83613
G1 X126.693 Y191.588 E0.84691
G1 X126.231 Y191.388 E0.85496
G1 X125.432 Y190.782 E0.871
G1 X125.114 Y190.392 E0.87904
G1 X124.681 Y189.486 E0.8951
G1 X124.578 Y188.994 E0.90314
G1 X124.544 Y188.343 E0.91356
G1 X124.543 Y122.937 E1.95933
G1 X124.557 Y121.936 E1.97534
G1 X124.724 Y121.284 E1.9861
G1 X124.925 Y120.822 E1.99416
G1 X125.532 Y120.023 E2.0102
G1 X126.358 Y119.454 E2.02624
G1 X127.32 Y119.171 E2.04227
G1 X127.954 Y119.137 E2.05242
G1 X193.344 Y119.136 E3.09794
G1 X194.38 Y119.151 E3.11451
G1 X195.031 Y119.319 E3.12526
G1 X195.915 Y119.792 E3.14129
G1 X196.608 Y120.518 E3.15734
G1 X197.039 Y121.424 E3.17338
G1 X197.142 Y121.917 E3.18143
G1 X197.175 Y122.547 E3.19152
G1 X197.176 Y140.01 E3.47073
G1 X197.161 Y141.076 E3.48778
G1 X196.993 Y141.728 E3.49854
G1 X196.521 Y142.613 E3.51458
G1 X196.186 Y142.988 E3.52262
G1 X195.674 Y143.405 E3.53318
G1 X194.148 Y144.149 E3.56032
G1 X191.712 Y145.379 E3.60396
G1 X189.299 Y146.684 E3.64782
G1 X186.924 Y148.059 E3.6917
G1 X184.602 Y149.491 E3.73532
G1 X182.306 Y150.998 E3.77923
G1 X180.05 Y152.572 E3.82321
G1 X177.853 Y154.198 E3.86691
G1 X175.715 Y155.877 E3.91038
G1 X173.582 Y157.652 E3.95475
G1 X171.559 Y159.435 E3.99786
G1 X169.527 Y161.329 E4.04228
G1 X167.598 Y163.232 E4.0856
G1 X165.686 Y165.23 E4.12982
G1 F2700 E-2.37018
G1 F600 Z2.25
;MESH:EXTRUDER_ONE.STL
G0 F9000 X145.938 Y188.426 Z2.25
;TYPE:WALL-OUTER
G1 F600 Z0.25
G1 F2100 E4.12982
G1 F1920 X145.938 Y140.685 E4.89315
G1 X146.093 Y140.53 E4.89665
G1 X193.834 Y140.53 E5.65998
G1 X193.834 Y122.474 E5.94868
G1 X127.882 Y122.474 E7.00318
G1 X127.882 Y188.426 E8.05769
G1 X145.938 Y188.426 E8.34639
G0 F9000 X145.938 Y188.226
G0 X145.598 Y188.086
;TYPE:WALL-INNER
G1 F1920 X145.599 Y140.547 E9.10649
G1 X145.803 Y140.29 E9.11173
G1 X146.065 Y140.191 E9.11621
G1 X193.494 Y140.19 E9.87455
G1 X193.494 Y122.814 E10.15238
G1 X128.222 Y122.814 E11.19601
G1 X128.222 Y188.086 E12.23964
G1 X145.598 Y188.086 E12.51747
G0 F9000 X145.258 Y187.746
G1 F1920 X145.26 Y140.629 E13.27082
G1 X145.327 Y140.362 E13.27522
G1 X145.653 Y139.981 E13.28324
G1 X146.037 Y139.852 E13.28971
G1 X193.154 Y139.85 E14.04307
G1 X193.154 Y123.154 E14.31002
G1 X128.562 Y123.154 E15.34278
G1 X128.562 Y187.746 E16.37554
G1 X145.258 Y187.746 E16.64249
G0 F9000 X144.998 Y187.486
;TYPE:SKIN
G1 F1920 X145 Y140.596 E17.2985
G1 X145.211 Y140.04 E17.30682
G1 X145.444 Y139.809 E17.31141
G1 X146.02 Y139.59 E17.32003
G1 X192.894 Y139.59 E17.97581
G1 X192.894 Y123.414 E18.20212
G1 X128.822 Y123.414 E19.09851
G1 X128.822 Y187.486 E19.9949
G1 X144.998 Y187.486 E20.22121
G0 F9000 X144.998 Y187.756
G0 X128.541 Y187.771
G0 X128.541 Y123.134
G0 X193.178 Y123.134
G0 X193.164 Y123.965
G0 X192.724 Y123.965
G1 F1920 X192.344 Y123.585 E20.22873
G0 F9000 X191.863 Y123.585
G1 F1920 X192.724 Y124.446 E20.24576
G0 F9000 X192.724 Y124.927
G1 F1920 X191.382 Y123.585 E20.27231
G0 F9000 X190.901 Y123.585
G1 F1920 X192.724 Y125.408 E20.30838
G0 F9000 X192.724 Y125.888
G1 F1920 X190.42 Y123.585 E20.35396
G0 F9000 X189.939 Y123.585
G1 F1920 X192.724 Y126.369 E20.40905
G0 F9000 X192.724 Y126.85
G1 F1920 X189.459 Y123.585 E20.47365
G0 F9000 X188.978 Y123.585
G1 F1920 X192.724 Y127.331 E20.54776
G0 F9000 X192.724 Y127.812
G1 F1920 X188.497 Y123.585 E20.6314
G0 F9000 X188.016 Y123.585
G1 F1920 X192.724 Y128.293 E20.72455
G0 F9000 X192.724 Y128.773
G1 F1920 X187.535 Y123.585 E20.8272
G0 F9000 X187.054 Y123.585
G1 F1920 X192.724 Y129.254 E20.93938
G0 F9000 X192.724 Y129.735
G1 F1920 X186.574 Y123.585 E21.06106
G0 F9000 X186.093 Y123.585
G1 F1920 X192.724 Y130.216 E21.19225
G0 F9000 X192.724 Y130.697
G1 F1920 X185.612 Y123.585 E21.33297
G0 F9000 X185.131 Y123.585
G1 F1920 X192.724 Y131.178 E21.4832
G0 F9000 X192.724 Y131.658
G1 F1920 X184.65 Y123.585 E21.64293
G0 F9000 X184.169 Y123.585
G1 F1920 X192.724 Y132.139 E21.81219
G0 F9000 X192.724 Y132.62
G1 F1920 X183.689 Y123.585 E21.99095
G0 F9000 X183.208 Y123.585
G1 F1920 X192.724 Y133.101 E22.17922
G0 F9000 X192.724 Y133.582
G1 F1920 X182.727 Y123.585 E22.37702
G0 F9000 X182.246 Y123.585
G1 F1920 X192.724 Y134.062 E22.58432
G0 F9000 X192.724 Y134.543
G1 F1920 X181.765 Y123.585 E22.80114
G0 F9000 X181.285 Y123.585
G1 F1920 X192.724 Y135.024 E23.02746
G0 F9000 X192.724 Y135.505
G1 F1920 X180.804 Y123.585 E23.2633
G0 F9000 X180.323 Y123.585
G1 F1920 X192.724 Y135.986 E23.50866
G0 F9000 X192.724 Y136.467
G1 F1920 X179.842 Y123.585 E23.76354
G0 F9000 X179.361 Y123.585
G1 F1920 X192.724 Y136.947 E24.02792
G0 F9000 X192.724 Y137.428
G1 F1920 X178.88 Y123.585 E24.30182
G0 F9000 X178.4 Y123.585
G1 F1920 X192.724 Y137.909 E24.58522
G0 F9000 X192.724 Y138.39
G1 F1920 X177.919 Y123.585 E24.87814
G0 F9000 X177.438 Y123.585
G1 F1920 X192.724 Y138.871 E25.18058
G0 F9000 X192.724 Y139.352
G1 F1920 X176.957 Y123.585 E25.49254
G0 F9000 X176.476 Y123.585
G1 F1920 X192.311 Y139.42 E25.80584
G0 F9000 X191.83 Y139.42
G1 F1920 X175.995 Y123.585 E26.11914
G0 F9000 X175.515 Y123.585
G1 F1920 X191.349 Y139.42 E26.43243
G0 F9000 X190.869 Y139.42
G1 F1920 X175.034 Y123.585 E26.74573
G0 F9000 X174.553 Y123.585
G1 F1920 X190.388 Y139.42 E27.05903
G0 F9000 X189.907 Y139.42
G1 F1920 X174.072 Y123.585 E27.37233
G0 F9000 X173.591 Y123.585
G1 F1920 X189.426 Y139.42 E27.68563
G0 F9000 X188.945 Y139.42
G1 F1920 X173.11 Y123.585 E27.99893
G0 F9000 X172.63 Y123.585
G1 F1920 X188.464 Y139.42 E28.31223
G0 F9000 X187.984 Y139.42
G1 F1920 X172.149 Y123.585 E28.62553
G0 F9000 X171.668 Y123.585
G1 F1920 X187.503 Y139.42 E28.93883
G0 F9000 X187.022 Y139.42
G1 F1920 X171.187 Y123.585 E29.25213
G0 F9000 X170.706 Y123.585
G1 F1920 X186.541 Y139.42 E29.56543
G0 F9000 X186.06 Y139.42
G1 F1920 X170.225 Y123.585 E29.87873
G0 F9000 X169.745 Y123.585
G1 F1920 X185.579 Y139.42 E30.19202
G0 F9000 X185.099 Y139.42
G1 F1920 X169.264 Y123.585 E30.50532
G0 F9000 X168.783 Y123.585
G1 F1920 X184.618 Y139.42 E30.81862
G0 F9000 X184.137 Y139.42
G1 F1920 X168.302 Y123.585 E31.13192
G0 F9000 X167.821 Y123.585
G1 F1920 X183.656 Y139.42 E31.44523
G0 F9000 X183.175 Y139.42
G1 F1920 X167.34 Y123.585 E31.75853
G0 F9000 X166.86 Y123.585
G1 F1920 X182.694 Y139.42 E32.07182
G0 F9000 X182.214 Y139.42
G1 F1920 X166.379 Y123.585 E32.38512
G0 F9000 X165.898 Y123.585
G1 F1920 X181.733 Y139.42 E32.69842
G0 F9000 X181.252 Y139.42
G1 F1920 X165.417 Y123.585 E33.01172
G0 F9000 X164.936 Y123.585
G1 F1920 X180.771 Y139.42 E33.32502
G0 F9000 X180.29 Y139.42
G1 F1920 X164.455 Y123.585 E33.63832
G0 F9000 X163.975 Y123.585
G1 F1920 X179.809 Y139.42 E33.95161
G0 F9000 X179.329 Y139.42
G1 F1920 X163.494 Y123.585 E34.26491
G0 F9000 X163.013 Y123.585
G1 F1920 X178.848 Y139.42 E34.57822
G0 F9000 X178.367 Y139.42
G1 F1920 X162.532 Y123.585 E34.89152
G0 F9000 X162.051 Y123.585
G1 F1920 X177.886 Y139.42 E35.20482
G0 F9000 X177.405 Y139.42
G1 F1920 X161.57 Y123.585 E35.51812
G0 F9000 X161.09 Y123.585
G1 F1920 X176.924 Y139.42 E35.83141
G0 F9000 X176.444 Y139.42
G1 F1920 X160.609 Y123.585 E36.14471
G0 F9000 X160.128 Y123.585
G1 F1920 X175.963 Y139.42 E36.45801
G0 F9000 X175.482 Y139.42
G1 F1920 X159.647 Y123.585 E36.77131
G0 F9000 X159.166 Y123.585
G1 F1920 X175.001 Y139.42 E37.08461
G0 F9000 X174.52 Y139.42
G1 F1920 X158.685 Y123.585 E37.39791
G0 F9000 X158.205 Y123.585
G1 F1920 X174.039 Y139.42 E37.7112
G0 F9000 X173.559 Y139.42
G1 F1920 X157.724 Y123.585 E38.02451
G0 F9000 X157.243 Y123.585
G1 F1920 X173.078 Y139.42 E38.33781
G0 F9000 X172.597 Y139.42
G1 F1920 X156.762 Y123.585 E38.65111
G0 F9000 X156.281 Y123.585
G1 F1920 X172.116 Y139.42 E38.96441
G0 F9000 X171.635 Y139.42
G1 F1920 X155.8 Y123.585 E39.27771
G0 F9000 X155.32 Y123.585
G1 F1920 X171.154 Y139.42 E39.591
G0 F9000 X170.674 Y139.42
G1 F1920 X154.839 Y123.585 E39.9043
G0 F9000 X154.358 Y123.585
G1 F1920 X170.193 Y139.42 E40.2176
G0 F9000 X169.712 Y139.42
G1 F1920 X153.877 Y123.585 E40.5309
G0 F9000 X153.396 Y123.585
G1 F1920 X169.232 Y139.42 E40.84421
G0 F9000 X168.751 Y139.42
G1 F1920 X152.915 Y123.585 E41.15752
G0 F9000 X152.435 Y123.585
G1 F1920 X168.27 Y139.42 E41.47083
G0 F9000 X167.789 Y139.42
G1 F1920 X151.954 Y123.585 E41.78413
G0 F9000 X151.473 Y123.585
G1 F1920 X167.309 Y139.42 E42.09744
G0 F9000 X166.828 Y139.42
G1 F1920 X150.992 Y123.585 E42.41075
G0 F9000 X150.511 Y123.585
G1 F1920 X166.347 Y139.42 E42.72406
G0 F9000 X165.866 Y139.42
G1 F1920 X150.03 Y123.585 E43.03737
G0 F9000 X149.55 Y123.585
G1 F1920 X165.385 Y139.42 E43.35067
G0 F9000 X164.904 Y139.42
G1 F1920 X149.069 Y123.585 E43.66397
G0 F9000 X148.588 Y123.585
G1 F1920 X164.424 Y139.42 E43.97728
G0 F9000 X163.943 Y139.42
G1 F1920 X148.107 Y123.585 E44.29059
G0 F9000 X147.626 Y123.585
G1 F1920 X163.462 Y139.42 E44.6039
G0 F9000 X162.981 Y139.42
G1 F1920 X147.145 Y123.585 E44.91722
G0 F9000 X146.665 Y123.585
G1 F1920 X162.5 Y139.42 E45.23052
G0 F9000 X162.019 Y139.42
G1 F1920 X146.184 Y123.585 E45.54382
G0 F9000 X145.703 Y123.585
G1 F1920 X161.539 Y139.42 E45.85713
G0 F9000 X161.058 Y139.42
G1 F1920 X145.222 Y123.585 E46.17044
G0 F9000 X144.741 Y123.585
G1 F1920 X160.577 Y139.42 E46.48375
G0 F9000 X160.096 Y139.42
G1 F1920 X144.26 Y123.585 E46.79706
G0 F9000 X143.78 Y123.585
G1 F1920 X159.615 Y139.42 E47.11036
G0 F9000 X159.134 Y139.42
G1 F1920 X143.299 Y123.585 E47.42366
G0 F9000 X142.818 Y123.585
G1 F1920 X158.654 Y139.42 E47.73697
G0 F9000 X158.173 Y139.42
G1 F1920 X142.337 Y123.585 E48.05028
G0 F9000 X141.856 Y123.585
G1 F1920 X157.692 Y139.42 E48.36359
G0 F9000 X157.211 Y139.42
G1 F1920 X141.375 Y123.585 E48.67691
G0 F9000 X140.895 Y123.585
G1 F1920 X156.73 Y139.42 E48.99021
G0 F9000 X156.249 Y139.42
G1 F1920 X140.414 Y123.585 E49.30351
G0 F9000 X139.933 Y123.585
G1 F1920 X155.769 Y139.42 E49.61682
G0 F9000 X155.288 Y139.42
G1 F1920 X139.452 Y123.585 E49.93013
G0 F9000 X138.971 Y123.585
G1 F1920 X154.807 Y139.42 E50.24344
G0 F9000 X154.326 Y139.42
G1 F1920 X138.49 Y123.585 E50.55675
G0 F9000 X138.01 Y123.585
G1 F1920 X153.845 Y139.42 E50.87005
G0 F9000 X153.364 Y139.42
G1 F1920 X137.529 Y123.585 E51.18335
G0 F9000 X137.048 Y123.585
G1 F1920 X152.884 Y139.42 E51.49666
G0 F9000 X152.403 Y139.42
G1 F1920 X136.567 Y123.585 E51.80997
G0 F9000 X136.086 Y123.585
G1 F1920 X151.922 Y139.42 E52.12328
G0 F9000 X151.441 Y139.42
G1 F1920 X135.605 Y123.585 E52.4366
G0 F9000 X135.125 Y123.585
G1 F1920 X150.96 Y139.42 E52.7499
G0 F9000 X150.479 Y139.42
G1 F1920 X134.644 Y123.585 E53.0632
G0 F9000 X134.163 Y123.585
G1 F1920 X149.999 Y139.42 E53.37651
G0 F9000 X149.518 Y139.42
G1 F1920 X133.682 Y123.585 E53.68982
G0 F9000 X133.201 Y123.585
G1 F1920 X149.037 Y139.42 E54.00313
G0 F9000 X148.556 Y139.42
G1 F1920 X132.72 Y123.585 E54.31644
G0 F9000 X132.24 Y123.585
G1 F1920 X148.075 Y139.42 E54.62974
G0 F9000 X147.594 Y139.42
G1 F1920 X131.759 Y123.585 E54.94304
G0 F9000 X131.278 Y123.585
G1 F1920 X147.114 Y139.42 E55.25635
G0 F9000 X146.633 Y139.42
G1 F1920 X130.797 Y123.585 E55.56966
G0 F9000 X130.316 Y123.585
G1 F1920 X146.152 Y139.42 E55.88298
G0 F9000 X145.755 Y139.504
G1 F1920 X129.835 Y123.585 E56.19795
G0 F9000 X129.355 Y123.585
G1 F1920 X145.407 Y139.637 E56.51554
G0 F9000 X145.16 Y139.871
G1 F1920 X128.992 Y123.703 E56.83543
G0 F9000 X128.992 Y124.184
G1 F1920 X144.98 Y140.172 E57.15176
G0 F9000 X144.847 Y140.519
G1 F1920 X128.992 Y124.664 E57.46546
G0 F9000 X128.992 Y125.145
G1 F1920 X144.829 Y140.982 E57.7788
G0 F9000 X144.829 Y141.463
G1 F1920 X128.992 Y125.626 E58.09214
G0 F9000 X128.992 Y126.107
G1 F1920 X144.829 Y141.944 E58.40548
G0 F9000 X144.829 Y142.425
G1 F1920 X128.992 Y126.588 E58.71882
G0 F9000 X128.992 Y127.069
G1 F1920 X144.829 Y142.906 E59.03216
G0 F9000 X144.829 Y143.386
G1 F1920 X128.992 Y127.549 E59.3455
G0 F9000 X128.992 Y128.03
G1 F1920 X144.829 Y143.867 E59.65884
G0 F9000 X144.829 Y144.348
G1 F1920 X128.992 Y128.511 E59.97218
G0 F9000 X128.992 Y128.992
G1 F1920 X144.829 Y144.829 E60.28552
G0 F9000 X144.829 Y145.31
G1 F1920 X128.992 Y129.473 E60.59886
G0 F9000 X128.992 Y129.953
M104 T1 S200
G1 F1920 X144.829 Y145.791 E60.91221
G0 F9000 X144.829 Y146.271
G1 F1920 X128.992 Y130.434 E61.22555
G0 F9000 X128.992 Y130.915
G1 F1920 X144.829 Y146.752 E61.53889
G0 F9000 X144.829 Y147.233
G1 F1920 X128.992 Y131.396 E61.85223
G0 F9000 X128.992 Y131.877
G1 F1920 X144.829 Y147.714 E62.16557
G0 F9000 X144.829 Y148.195
G1 F1920 X128.992 Y132.358 E62.47891
G0 F9000 X128.992 Y132.838
G1 F1920 X144.829 Y148.676 E62.79226
G0 F9000 X144.829 Y149.156
G1 F1920 X128.992 Y133.319 E63.10561
G0 F9000 X128.992 Y133.8
G1 F1920 X144.829 Y149.637 E63.41895
G0 F9000 X144.829 Y150.118
G1 F1920 X128.992 Y134.281 E63.73229
G0 F9000 X128.992 Y134.762
G1 F1920 X144.829 Y150.599 E64.04563
G0 F9000 X144.829 Y151.08
G1 F1920 X128.992 Y135.243 E64.35897
G0 F9000 X128.992 Y135.723
G1 F1920 X144.829 Y151.561 E64.67232
G0 F9000 X144.829 Y152.041
G1 F1920 X128.992 Y136.204 E64.98566
G0 F9000 X128.992 Y136.685
G1 F1920 X144.829 Y152.522 E65.299
G0 F9000 X144.829 Y153.003
G1 F1920 X128.992 Y137.166 E65.61234
G0 F9000 X128.992 Y137.647
G1 F1920 X144.829 Y153.484 E65.92568
G0 F9000 X144.829 Y153.965
G1 F1920 X128.992 Y138.128 E66.23902
G0 F9000 X128.992 Y138.608
G1 F1920 X144.829 Y154.446 E66.55237
G0 F9000 X144.829 Y154.926
G1 F1920 X128.992 Y139.089 E66.86571
G0 F9000 X128.992 Y139.57
G1 F1920 X144.829 Y155.407 E67.17905
G0 F9000 X144.829 Y155.888
G1 F1920 X128.992 Y140.051 E67.49239
G0 F9000 X128.992 Y140.532
G1 F1920 X144.829 Y156.369 E67.80573
G0 F9000 X144.829 Y156.85
G1 F1920 X128.992 Y141.013 E68.11907
G0 F9000 X128.992 Y141.493
G1 F1920 X144.829 Y157.331 E68.43242
G0 F9000 X144.829 Y157.811
G1 F1920 X128.992 Y141.974 E68.74576
G0 F9000 X128.992 Y142.455
G1 F1920 X144.829 Y158.292 E69.0591
G0 F9000 X144.829 Y158.773
G1 F1920 X128.992 Y142.936 E69.37245
G0 F9000 X128.992 Y143.417
G1 F1920 X144.829 Y159.254 E69.68579
G0 F9000 X144.829 Y159.735
G1 F1920 X128.992 Y143.898 E69.99913
G0 F9000 X128.992 Y144.378
G1 F1920 X144.829 Y160.216 E70.31248
G0 F9000 X144.829 Y160.696
G1 F1920 X128.992 Y144.859 E70.62582
G0 F9000 X128.992 Y145.34
G1 F1920 X144.829 Y161.177 E70.93916
G0 F9000 X144.829 Y161.658
G1 F1920 X128.992 Y145.821 E71.2525
G0 F9000 X128.992 Y146.302
G1 F1920 X144.829 Y162.139 E71.56584
G0 F9000 X144.829 Y162.62
G1 F1920 X128.992 Y146.783 E71.87918
G0 F9000 X128.992 Y147.263
G1 F1920 X144.829 Y163.101 E72.19253
G0 F9000 X144.829 Y163.581
G1 F1920 X128.992 Y147.744 E72.50587
G0 F9000 X128.992 Y148.225
G1 F1920 X144.828 Y164.062 E72.8192
G0 F9000 X144.828 Y164.542
G1 F1920 X128.992 Y148.706 E73.13252
G0 F9000 X128.992 Y149.187
G1 F1920 X144.828 Y165.023 E73.44584
G0 F9000 X144.828 Y165.504
G1 F1920 X128.992 Y149.668 E73.75916
G0 F9000 X128.992 Y150.148
G1 F1920 X144.828 Y165.985 E74.07249
G0 F9000 X144.828 Y166.466
