;FLAVOR:Marlin
;TIME:800
;Filament used: 0.0975791m, 0.0892754m
;Layer height: 0.2
;MINX:88.98
;MINY:87.357
;MINZ:0.16
;MAXX:213.879
;MAXY:214.125
;MAXZ:20.001
;TARGET_MACHINE.NAME:Syncraft IDEX
;Generated with Cura_SteamEngine 5.7.2
T0
M104 S210
M105
M109 S210
M105
M109 T1 S100
M82 ;absolute extrusion mode
;Filament weight = [0.7718947021484376, 0.7062083813476562]
;Nozzle diameter = 0.25
M605 S0
M900 P0.25 S75
BREAK_CLEAN P=50
G21 ; set units to millimeters
G90 ; use absolute positioning
M82 ; absolute extrusion mode
M104 T1 S150 ; set extruder temp
M140 S60 ; set bed temp
G28 Z ; home z
M109 S150
G28 XY; home XY
START_GCODE
set_temperature_layer L0=<TEMPERATURE_LAYER_ZERO_VALUE> L1=<TEMPERATURE_LAYER_ONE_VALUE>
PRIME_ROUTINE
G92 E0
T0
G92 E0
G1 F2700 E-6.5
;LAYER_COUNT:4
G0 F18000 X150 Y150
;LAYER:0
M107
G1 F600 Z2.16
G0 F9000 X168.126 Y163.018 Z2.16
M104 T1 S195
;TYPE:SKIRT
G1 F600 Z0.16
G1 F2100 E0
G1 F1920 X166.013 Y165.975 E0.03719
G1 X165.476 Y166.44 E0.04446
G1 X164.78 Y166.941 E0.05323
G1 X163.745 Y167.664 E0.06615
G1 X161.511 Y169.319 E0.0946
G1 X159.4 Y170.981 E0.1221
G1 X157.28 Y172.746 E0.15033
G1 X155.205 Y174.578 E0.17865
G1 X153.229 Y176.423 E0.20631
G1 X151.283 Y178.344 E0.2343
G1 X149.374 Y180.341 E0.26257
G1 X147.547 Y182.365 E0.29047
G1 X145.777 Y184.438 E0.31836
G1 X144.046 Y186.586 E0.34659
G1 X142.386 Y188.772 E0.37468
G1 X140.79 Y191 E0.40272
G1 X139.276 Y193.245 E0.43043
G1 X137.794 Y195.582 E0.45875
G1 X136.409 Y197.91 E0.48647
G1 X135.064 Y200.322 E0.51473
G1 X133.798 Y202.755 E0.54279
G1 X132.613 Y205.196 E0.57056
G1 X131.469 Y207.733 E0.59904
G1 X130.42 Y210.25 E0.62694
G1 X129.673 Y212.138 E0.64772
G1 X129.285 Y212.688 E0.65461
G1 X128.933 Y213.048 E0.65976
G1 X128.082 Y213.579 E0.67002
G1 X127.605 Y213.738 E0.67517
G1 X126.858 Y213.839 E0.68288
G1 X106.917 Y213.839 E0.88694
G1 X106.017 Y213.826 E0.89615
G1 X102.607 Y213.332 E0.93141
G1 X99.836 Y213.017 E0.95994
G1 X97.152 Y212.786 E0.98751
G1 X93.927 Y212.604 E1.02057
G1 X93.283 Y212.409 E1.02745
G1 X92.419 Y211.899 E1.03772
G1 X92.058 Y211.548 E1.04287
G1 X91.525 Y210.698 E1.05314
G1 X91.365 Y210.221 E1.05829
G1 X91.263 Y209.48 E1.06594
G1 X91.262 Y130.778 E1.87129
G1 X91.222 Y127.978 E1.89995
G1 X91.107 Y125.262 E1.92776
G1 X90.915 Y122.548 E1.95561
G1 X90.64 Y119.774 E1.98413
G1 X90.299 Y117.11 E2.01161
G1 X89.863 Y114.337 E2.04034
G1 X89.367 Y111.632 E2.06848
G1 X89.595 Y108.379 E2.10185
G1 X89.708 Y105.66 E2.1297
G1 X89.745 Y102.901 E2.15793
G1 X89.704 Y100.151 E2.18608
G1 X89.588 Y97.445 E2.21379
G1 X89.268 Y93.281 E2.25653
G1 X89.377 Y92.616 E2.26342
G1 X89.768 Y91.692 E2.27369
G1 X90.22 Y91.103 E2.28129
G1 X91.172 Y90.183 E2.29484
G1 X91.751 Y89.845 E2.3017
G1 X92.22 Y89.663 E2.30684
G1 X92.886 Y89.538 E2.31378
G1 X95.955 Y89.301 E2.34528
G1 X98.675 Y89.009 E2.37327
G1 X101.361 Y88.645 E2.40101
G1 X104.089 Y88.196 E2.4293
G1 X106.954 Y87.645 E2.45915
G1 X107.77 Y87.684 E2.46751
G1 X110.459 Y88.416 E2.49603
G1 X113.127 Y89.067 E2.52413
G1 X115.822 Y89.643 E2.55233
G1 X118.493 Y90.137 E2.58013
G1 X121.174 Y90.554 E2.60789
G1 X123.914 Y90.902 E2.63616
G1 X126.651 Y91.17 E2.6643
G1 X129.369 Y91.36 E2.69218
G1 X132.082 Y91.471 E2.71996
G1 X134.773 Y91.508 E2.7475
G1 X208.559 Y91.508 E3.50255
G1 X209.595 Y91.523 E3.51315
G1 X210.246 Y91.691 E3.52003
G1 X211.13 Y92.164 E3.53029
G1 X211.823 Y92.89 E3.54056
G1 X212.254 Y93.796 E3.55083
G1 X212.377 Y94.518 E3.55833
G1 X212.451 Y95.897 E3.57246
G1 X212.644 Y98.648 E3.60068
G1 X212.917 Y101.403 E3.62901
G1 X213.262 Y104.111 E3.65694
G1 X213.551 Y106.049 E3.67699
G1 X213.592 Y106.735 E3.68402
G1 X213.593 Y126.409 E3.88535
G1 X213.578 Y127.475 E3.89626
G1 X213.41 Y128.127 E3.90315
G1 X212.938 Y129.012 E3.91341
G1 X212.212 Y129.705 E3.92368
G1 X211.556 Y130.052 E3.93127
G1 X211.085 Y130.234 E3.93644
G1 X208.54 Y131.26 E3.96452
G1 X206.055 Y132.345 E3.99227
G1 X203.557 Y133.519 E4.02051
G1 X201.109 Y134.758 E4.04859
G1 X198.711 Y136.056 E4.07649
G1 X196.319 Y137.441 E4.10478
G1 X194.021 Y138.858 E4.1324
G1 X191.71 Y140.374 E4.16068
G1 X189.481 Y141.931 E4.18851
G1 X187.251 Y143.584 E4.21691
G1 X185.129 Y145.251 E4.24453
G1 X182.998 Y147.027 E4.27291
G1 X180.952 Y148.829 E4.30081
G1 X178.959 Y150.689 E4.32871
G1 X177.005 Y152.619 E4.35681
G1 X175.106 Y154.604 E4.38492
G1 X173.279 Y156.626 E4.41281
G1 X171.485 Y158.727 E4.44108
G1 X169.786 Y160.835 E4.46878
G1 X168.126 Y163.018 E4.49685
G1 F2700 E-2.00315
G1 F600 Z2.16
;MESH:EXTRUDER_ONE.STL
G0 F9000 X163.437 Y163.684 Z2.16
;TYPE:WALL-OUTER
G1 F600 Z0.16
G1 F2100 E4.49685
G1 F1920 X163.437 Y151.934 E4.63618
G1 X163.437 Y140.184 E4.77339
G1 X163.438 Y128.434 E4.90848
G1 X163.058 Y128.434 E4.91283
G1 X163.058 Y140.057 E5.04646
G1 X163.058 Y151.68 E5.18219
G1 X163.057 Y163.303 E5.32002
G1 X151.434 Y163.302 E5.45784
G1 X139.811 Y163.302 E5.59392
G1 X128.188 Y163.302 E5.72825
G1 X128.187 Y163.685 E5.73265
G1 X139.937 Y163.685 E5.86845
G1 X151.687 Y163.685 E6.00602
G1 X163.437 Y163.684 E6.14535
G0 F9000 X163.437 Y163.484
G1 F2700 E-0.35465
G1 F600 Z2.16
G0 F9000 X155.892 Y142.713 Z2.16
G1 F600 Z0.16
G1 F2100 E6.14535
G1 F1920 X156.239 Y142.692 E6.14962
G1 X156.784 Y142.511 E6.1569
G1 X157.274 Y142.116 E6.16523
G1 X157.495 Y141.607 E6.17246
G1 X157.738 Y141.511 E6.17543
G1 X157.876 Y141.616 E6.17708
G1 X158.288 Y142.23 E6.18438
G1 X158.754 Y142.538 E6.19062
G1 X159.085 Y142.659 E6.19471
G1 X159.708 Y142.704 E6.20236
G1 X160.022 Y142.651 E6.20641
G1 X160.443 Y142.466 E6.21243
G1 X160.839 Y142.141 E6.21927
G1 X161.01 Y141.889 E6.22334
G1 X161.203 Y141.333 E6.23126
G1 X161.278 Y140.429 E6.24352
G1 X161.279 Y137.621 E6.28163
G1 X160.829 Y137.621 E6.28773
G1 X160.827 Y140.77 E6.3299
G1 X160.725 Y141.419 E6.3385
G1 X160.522 Y141.831 E6.34453
G1 X159.999 Y142.228 E6.35315
G1 X159.456 Y142.308 E6.35994
G1 X159.059 Y142.252 E6.36461
G1 X158.636 Y142.05 E6.36978
G1 X158.224 Y141.641 E6.37553
G1 X157.93 Y141.134 E6.38123
G1 X157.725 Y140.595 E6.38833
G1 X157.698 Y139.724 E6.40052
G1 X157.698 Y137.622 E6.42912
G1 X157.246 Y137.622 E6.43527
G1 X157.249 Y140.593 E6.47685
G1 X157.101 Y141.481 E6.48893
G1 X156.85 Y141.925 E6.49552
G1 X156.595 Y142.124 E6.49977
G1 X156.15 Y142.289 E6.50577
G1 X155.872 Y142.309 E6.50919
G1 X155.37 Y142.221 E6.51534
G1 X154.846 Y141.866 E6.52223
G1 X154.459 Y141.378 E6.52846
G1 X154.161 Y140.635 E6.53749
G1 X154.118 Y139.91 E6.54691
G1 X154.118 Y137.622 E6.57804
G1 X153.666 Y137.622 E6.58419
G1 X153.667 Y139.928 E6.61556
G1 X153.682 Y140.682 E6.62616
G1 X153.662 Y140.787 E6.62765
G1 X153.61 Y141.502 E6.6361
G1 X153.666 Y142.02 E6.64231
G1 X153.666 Y142.598 E6.65018
G1 X154.118 Y142.598 E6.65633
G1 X154.118 Y142.02 E6.66419
G1 X154.257 Y141.873 E6.6666
G1 X154.388 Y141.842 E6.66797
G1 X154.533 Y141.921 E6.66952
G1 X154.698 Y142.219 E6.6729
G1 X154.964 Y142.458 E6.67703
G1 X155.368 Y142.627 E6.68229
G1 X155.892 Y142.713 E6.68871
G0 F9000 X156.091 Y142.701
G1 F2700 E0.18871
G1 F600 Z2.16
G0 F9000 X154.105 Y141.502 Z2.16
;TYPE:WALL-INNER
G1 F600 Z0.16
G1 F2100 E6.68871
G1 F1920 X154.072 Y141.558 E6.68973
G1 X153.975 Y141.502 E6.69148
G1 X154.072 Y141.446 E6.69324
G1 F2700 E0.19324
G1 F600 Z2.16
G0 F9000 X157.562 Y141.104 Z2.16
G1 F600 Z0.16
G1 F2100 E6.69324
G1 F1920 X157.483 Y141.149 E6.69441
G1 X157.562 Y141.194 E6.69559
G1 X157.589 Y141.149 E6.69627
G1 F2700 E0.19627
G1 F600 Z2.16
G0 F9000 X151.739 Y130.993 Z2.16
;TYPE:WALL-OUTER
G1 F600 Z0.16
G1 F2100 E6.69627
G1 F1920 X154.125 Y130.993 E6.72313
G1 X154.125 Y130.619 E6.72734
G1 X151.739 Y130.619 E6.75419
G1 X151.739 Y130.993 E6.7584
G0 F9000 X151.939 Y130.993
G1 F2700 E0.2584
G1 F600 Z2.16
G0 F9000 X149.951 Y142.711 Z2.16
G1 F600 Z0.16
G1 F2100 E6.7584
G1 F1920 X150.494 Y142.631 E6.76524
G1 X150.83 Y142.468 E6.77013
G1 X151.261 Y142.1 E6.7777
G1 X151.515 Y141.634 E6.78469
G1 X151.618 Y141.169 E6.79099
G1 X151.662 Y140.573 E6.79905
G1 X151.666 Y137.621 E6.83903
G1 X151.217 Y137.621 E6.84511
G1 X151.213 Y140.559 E6.8849
G1 X151.157 Y141.377 E6.89588
G1 X150.924 Y141.815 E6.90244
G1 X150.364 Y142.229 E6.91145
G1 X149.837 Y142.309 E6.918
G1 X149.393 Y142.232 E6.92329
G1 X148.832 Y141.909 E6.93057
G1 X148.503 Y141.464 E6.93604
G1 X148.087 Y140.496 E6.94666
G1 X148.087 Y139.059 E6.96383
G1 X148.086 Y137.622 E6.98256
G1 X147.634 Y137.622 E6.98871
G1 X147.635 Y140.522 E7.02877
G1 X147.54 Y141.237 E7.03778
G1 X147.417 Y141.659 E7.04304
G1 X147.183 Y141.972 E7.04816
G1 X146.865 Y142.173 E7.05296
G1 X146.266 Y142.309 E7.06048
G1 X145.759 Y142.22 E7.06671
G1 X145.055 Y141.868 E7.07825
G1 X145.116 Y142.199 E7.08338
G1 X145.353 Y142.457 E7.08781
G1 X145.756 Y142.627 E7.09308
G1 X146.28 Y142.713 E7.0995
G1 X146.622 Y142.683 E7.10381
G1 X147.298 Y142.439 E7.11318
G1 X147.651 Y142.13 E7.11949
G1 X147.876 Y141.627 E7.1267
G1 X148.125 Y141.524 E7.12974
G1 X148.252 Y141.603 E7.13116
G1 X148.37 Y141.843 E7.13362
G1 X148.699 Y142.264 E7.1392
G1 X149.207 Y142.569 E7.14598
G1 X149.951 Y142.711 E7.155
G0 F9000 X150.148 Y142.682
G1 F2700 E0.655
G1 F600 Z2.16
G0 F9000 X144.506 Y142.598 Z2.16
G1 F600 Z0.16
G1 F2100 E7.155
G1 F1920 X144.506 Y142.02 E7.16287
G1 X144.645 Y141.873 E7.16528
G1 X145.037 Y141.84 E7.17068
G1 X144.506 Y140.582 E7.19127
G1 X144.506 Y137.622 E7.23055
G1 X144.054 Y137.622 E7.2367
G1 X144.051 Y140.841 E7.2802
G1 X143.998 Y141.502 E7.28805
G1 X144.054 Y142.02 E7.29426
G1 X144.054 Y142.598 E7.30212
G1 X144.506 Y142.598 E7.30827
G0 F9000 X144.506 Y142.398
G0 X144.493 Y141.502
;TYPE:WALL-INNER
G1 F1920 X144.46 Y141.558 E7.30929
G1 X144.363 Y141.502 E7.31104
G1 X144.46 Y141.446 E7.31279
G1 F2700 E0.81279
G1 F600 Z2.16
G0 F9000 X147.9 Y140.897 Z2.16
G1 F600 Z0.16
G1 F2100 E7.31279
G1 F1920 X147.936 Y141.147 E7.31583
G1 F2700 E0.81583
G1 F600 Z2.16
G0 F9000 X139.938 Y144.505 Z2.16
;TYPE:WALL-OUTER
G1 F600 Z0.16
G1 F2100 E7.31583
G1 F1920 X140.545 Y144.455 E7.32393
G1 X140.546 Y137.622 E7.41936
G1 X140.094 Y137.622 E7.42551
G1 X140.093 Y144.046 E7.51522
G1 X139.903 Y144.101 E7.51785
G1 X139.097 Y144.102 E7.52767
G1 X139.323 Y144.506 E7.5333
G1 X139.938 Y144.505 E7.5408
G0 F9000 X140.137 Y144.489
G1 F2700 E1.0408
G1 F600 Z2.16
G0 F9000 X136.038 Y138.502 Z2.16
G1 F600 Z0.16
G1 F2100 E7.5408
G1 F1920 X136.32 Y138.444 E7.54374
G1 X136.501 Y138.309 E7.54605
G1 X136.626 Y138.09 E7.54863
G1 X136.626 Y137.887 E7.55071
G1 X136.361 Y137.553 E7.55507
G1 X136.185 Y137.488 E7.55699
G1 X135.878 Y137.501 E7.56014
G1 X135.717 Y137.586 E7.562
G1 X135.563 Y137.786 E7.56458
G1 X135.523 Y137.974 E7.56655
G1 X135.603 Y138.266 E7.56965
G1 X135.816 Y138.455 E7.57256
G1 X136.038 Y138.502 E7.57489
G0 F9000 X136.233 Y138.462
G0 X136.181 Y138.133
;TYPE:WALL-INNER
G1 F1920 X136.294 Y138.002 E7.57657
G1 X136.133 Y137.822 E7.57893
G1 X135.967 Y137.831 E7.58056
G1 X135.875 Y137.929 E7.58189
G1 X135.971 Y138.147 E7.58425
G1 X136.181 Y138.133 E7.58631
G1 F2700 E1.08631
G1 F600 Z2.16
G0 F9000 X131.585 Y144.284 Z2.16
;TYPE:WALL-OUTER
G1 F600 Z0.16
G1 F2100 E7.58631
G1 F1920 X131.188 Y144.242 E7.59111
G1 X130.673 Y144.002 E7.5981
G1 X130.301 Y143.655 E7.60469
G1 X129.955 Y143.001 E7.61451
G1 X129.782 Y142.257 E7.62471
G1 X129.723 Y141.629 E7.63322
G1 X129.711 Y141.057 E7.64097
G1 X129.732 Y140.293 E7.65129
G1 X129.858 Y139.425 E7.66304
G1 X130.114 Y138.742 E7.67272
G1 X130.477 Y138.256 E7.68077
G1 X130.883 Y137.97 E7.68722
G1 X131.548 Y137.815 E7.69568
G1 X131.986 Y137.884 E7.70101
G1 X132.693 Y138.308 E7.71101
G1 X133.077 Y138.792 E7.71878
G1 X133.331 Y139.494 E7.72873
G1 X133.482 Y140.506 E7.74281
G1 X133.494 Y141.737 E7.75952
G1 X133.295 Y142.739 E7.77341
G1 X133.135 Y143.149 E7.77935
G1 X132.668 Y143.826 E7.79007
G1 X132.14 Y144.161 E7.79786
G1 X131.585 Y144.284 E7.80472
G0 F9000 X131.387 Y144.263
G0 X131.874 Y144.661
G1 F1920 X132.542 Y144.43 E7.81372
G1 X132.968 Y144.132 E7.82041
G1 X133.342 Y143.682 E7.8282
G1 X133.704 Y142.98 E7.83913
G1 X133.864 Y142.243 E7.84962
G1 X133.932 Y141.693 E7.85712
G1 X133.949 Y141.04 E7.86591
G1 X133.933 Y140.463 E7.8738
G1 X133.803 Y139.458 E7.88786
G1 X133.54 Y138.75 E7.89825
G1 X133.224 Y138.252 E7.90608
G1 X132.65 Y137.741 E7.91614
G1 X131.932 Y137.453 E7.92594
G1 X131.552 Y137.411 E7.93061
G1 X130.789 Y137.53 E7.94007
G1 X130.105 Y137.992 E7.95078
G1 X129.706 Y138.574 E7.96025
G1 X129.406 Y139.401 E7.97201
G1 X129.301 Y140.089 E7.98143
G1 X129.264 Y140.692 E7.98967
G1 X129.264 Y141.527 E8.00108
G1 X129.327 Y142.239 E8.0108
G1 X129.501 Y143.063 E8.02228
G1 X129.856 Y143.802 E8.03358
G1 X130.313 Y144.271 E8.04237
G1 X130.738 Y144.522 E8.04878
G1 X131.357 Y144.686 E8.05687
G1 X131.874 Y144.661 E8.06331
G0 F9000 X132.062 Y144.596
G1 F2700 E1.56331
G1 F600 Z2.16
G0 F9000 X132.665 Y155.005 Z2.16
G1 F600 Z0.16
G1 F2100 E8.06331
G1 F1920 X132.665 Y152.619 E8.09016
G1 X132.291 Y152.619 E8.09437
G1 X132.291 Y155.005 E8.12123
G1 X132.665 Y155.005 E8.12544
G0 F9000 X132.665 Y154.805
G1 F2700 E1.62544
G1 F600 Z2.16
G0 F9000 X133.541 Y176.793 Z2.16
G1 F600 Z0.16
G1 F2100 E8.12544
G1 F1920 X133.541 Y175.776 E8.1383
G1 X133.541 Y174.759 E8.15403
G1 X134.536 Y174.759 E8.16975
G1 X135.531 Y174.759 E8.18332
G1 X135.531 Y174.341 E8.18857
G1 X134.536 Y174.341 E8.20214
G1 X133.541 Y174.341 E8.21786
G1 X133.541 Y173.324 E8.23359
G1 X133.541 Y172.307 E8.24645
G1 X133.167 Y172.307 E8.25066
G1 X133.167 Y173.324 E8.26352
G1 X133.167 Y174.341 E8.27925
G1 X132.172 Y174.341 E8.29497
G1 X131.177 Y174.341 E8.30854
G1 X131.177 Y174.759 E8.31379
G1 X132.172 Y174.759 E8.32736
G1 X133.167 Y174.759 E8.34308
G1 X133.167 Y175.776 E8.35882
G1 X133.167 Y176.793 E8.37167
G1 X133.541 Y176.793 E8.37588
G0 F9000 X133.541 Y176.593
G1 F2700 E1.87588
G1 F600 Z2.16
G0 F9000 X173.549 Y133.859 Z2.16
G1 F600 Z0.16
G1 F2100 E8.37588
G1 F1920 X173.967 Y133.859 E8.38114
G1 X173.967 Y132.862 E8.39473
G1 X173.967 Y131.865 E8.41046
G1 X174.985 Y131.866 E8.42617
G1 X176.003 Y131.866 E8.43901
G1 X176.002 Y131.494 E8.44318
G1 X174.984 Y131.494 E8.45601
G1 X173.966 Y131.494 E8.47173
G1 X173.967 Y130.497 E8.48745
G1 X173.967 Y129.5 E8.50105
G1 X173.549 Y129.501 E8.50631
G1 X173.549 Y130.498 E8.5199
G1 X173.549 Y131.495 E8.53562
G1 X172.531 Y131.494 E8.55134
G1 X171.513 Y131.494 E8.56418
G1 X171.514 Y131.866 E8.56834
G1 X172.532 Y131.866 E8.58118
G1 X173.55 Y131.866 E8.5969
G1 X173.549 Y132.863 E8.61262
G1 X173.549 Y133.86 E8.62621
G0 F9000 X173.749 Y133.859
G1 F2700 E2.12621
G1 F600 Z2.16
G0 F9000 X182.286 Y109.986 Z2.16
G1 F600 Z0.16
G1 F2100 E8.62621
G1 F1920 X182.286 Y95.335 E8.87491
G1 F2700 E2.37491
G1 F600 Z2.16
G0 F9000 X94.712 Y205.739 Z2.16
G1 F600 Z0.16
G1 F2100 E8.87491
G1 F1920 X94.857 Y205.476 E8.87947
G1 X95.067 Y205.376 E8.88301
G1 X94.857 Y205.276 E8.88655
G1 X94.855 Y203.475 E8.90974
G1 X94.852 Y201.674 E8.93067
G1 X95.072 Y201.57 E8.93407
G1 X94.859 Y201.468 E8.93766
G1 X94.852 Y197.868 E8.9862
G1 X95.072 Y197.762 E8.98992
G1 X94.859 Y197.66 E8.99352
G1 X94.852 Y194.06 E9.04206
G1 X95.072 Y193.954 E9.04578
G1 X94.859 Y193.852 E9.04937
G1 X94.857 Y190.248 E9.09808
G1 X95.067 Y190.148 E9.10161
G1 X94.857 Y190.048 E9.10515
G1 X94.857 Y186.44 E9.15401
G1 X95.067 Y186.34 E9.15755
G1 X94.857 Y186.24 E9.16108
G1 X94.857 Y182.632 E9.20995
G1 X95.067 Y182.532 E9.21348
G1 X94.857 Y182.432 E9.21702
G1 X94.857 Y178.824 E9.26588
G1 X95.067 Y178.724 E9.26942
G1 X94.857 Y178.624 E9.27295
G1 X94.857 Y175.016 E9.32182
G1 X95.067 Y174.916 E9.32535
G1 X94.857 Y174.816 E9.32889
G1 X94.857 Y171.208 E9.37776
G1 X95.067 Y171.108 E9.38129
G1 X94.857 Y171.008 E9.38483
G1 X94.857 Y167.4 E9.43369
G1 X95.067 Y167.3 E9.43723
G1 X94.857 Y167.2 E9.44076
G1 X94.852 Y163.599 E9.48942
G1 X95.072 Y163.494 E9.49314
G1 X94.859 Y163.392 E9.49673
G1 X94.852 Y159.792 E9.54527
G1 X95.072 Y159.686 E9.54899
G1 X94.859 Y159.584 E9.55259
G1 X94.857 Y155.98 E9.60129
G1 X95.067 Y155.88 E9.60483
G1 X94.857 Y155.78 E9.60836
G1 X94.857 Y152.172 E9.65723
G1 X95.067 Y152.072 E9.66076
G1 X94.857 Y151.972 E9.6643
G1 X94.857 Y148.364 E9.71316
G1 X95.067 Y148.264 E9.7167
G1 X94.857 Y148.164 E9.72023
G1 X94.857 Y144.556 E9.7691
G1 X95.067 Y144.456 E9.77263
G1 X94.857 Y144.356 E9.77617
G1 X94.857 Y140.748 E9.82503
G1 X95.067 Y140.648 E9.82857
G1 X94.857 Y140.548 E9.8321
