;FLAVOR:Marlin
;TIME:402
;Filament used: 0.154807m, 0.0587999m
;Layer height: 0.2
;MINX:123.77
;MINY:118.363
;MINZ:0.37
;MAXX:197.95
;MAXY:192.543
;MAXZ:20.001
;TARGET_MACHINE.NAME:Syncraft IDEX
;Generated with Cura_SteamEngine 5.7.2
T0
M104 S205
M105
M109 S205
M105
M109 T1 S100
M82 ;absolute extrusion mode
;Filament weight = [1.2245943774414063, 0.46513358154296874]
;Nozzle diameter = 0.8
M605 S0
M900 P0.8 S60
BREAK_CLEAN P=50
G21 ; set units to millimeters
G90 ; use absolute positioning
M82 ; absolute extrusion mode
M104 T1 S150 ; set extruder temp
M140 S60 ; set bed temp
G28 Z ; home z
M109 S150
G28 XY; home XY
START_GCODE
set_temperature_layer L0=<TEMPERATURE_LAYER_ZERO_VALUE> L1=<TEMPERATURE_LAYER_ONE_VALUE>
PRIME_ROUTINE
G92 E0
T0
G92 E0
G1 F2700 E-6.5
;LAYER_COUNT:3
G0 F7200 X150 Y150
;LAYER:0
M107
G1 F600 Z2.37
G0 F1920 X165.782 Y165.316 Z2.37
;TYPE:SKIRT
G1 F600 Z0.37
G1 F1200 E0
G1 X163.959 Y167.33 E0.09453
G1 X162.161 Y169.435 E0.19087
G1 X160.475 Y171.524 E0.28429
G1 X158.796 Y173.732 E0.38082
G1 X157.211 Y175.943 E0.47549
G1 X155.677 Y178.214 E0.57086
G1 X154.209 Y180.527 E0.66619
G1 X152.816 Y182.863 E0.76084
G1 X151.476 Y185.266 E0.85659
G1 X150.215 Y187.682 E0.95143
G1 X148.949 Y190.278 E1.05194
G1 X148.513 Y190.809 E1.07585
G1 X147.697 Y191.429 E1.11151
G1 X146.732 Y191.768 E1.1471
G1 X146.122 Y191.833 E1.16845
G1 X128.444 Y191.833 E1.78364
G1 X127.405 Y191.82 E1.8198
G1 X126.737 Y191.652 E1.84377
G1 X125.829 Y191.179 E1.87939
G1 X125.11 Y190.451 E1.915
G1 X124.648 Y189.537 E1.95064
G1 X124.481 Y188.515 E1.98668
G1 X124.48 Y123.002 E4.2665
G1 X124.494 Y121.993 E4.30161
G1 X124.662 Y121.328 E4.32548
G1 X125.135 Y120.421 E4.36108
G1 X125.864 Y119.702 E4.39671
G1 X126.778 Y119.241 E4.43234
G1 X127.794 Y119.074 E4.46817
G1 X193.28 Y119.073 E6.74705
G1 X194.32 Y119.088 E6.78324
G1 X195.292 Y119.334 E6.81814
G1 X196.282 Y120.067 E6.861
G1 X196.879 Y120.899 E6.89664
G1 X197.073 Y121.375 E6.91453
G1 X197.239 Y122.388 E6.95025
G1 X197.24 Y140.042 E7.5646
G1 X197.225 Y141.116 E7.60198
G1 X196.98 Y142.087 E7.63683
G1 X196.247 Y143.077 E7.67969
G1 X195.71 Y143.531 E7.70416
G1 X194.241 Y144.247 E7.76103
G1 X191.727 Y145.517 E7.85905
G1 X189.376 Y146.789 E7.95207
G1 X186.98 Y148.175 E8.04839
G1 X184.664 Y149.603 E8.14308
G1 X182.367 Y151.111 E8.2387
G1 X180.126 Y152.675 E8.3338
G1 X177.94 Y154.294 E8.42846
G1 X175.779 Y155.991 E8.52408
G1 X173.653 Y157.76 E8.62033
G1 X171.638 Y159.536 E8.7138
G1 X169.628 Y161.41 E8.80943
G1 X167.688 Y163.325 E8.90429
G1 X165.782 Y165.316 E9.00021
G1 F2700 E2.50021
G1 F600 Z2.37
;MESH:EXTRUDER_ONE.STL
G0 F1920 X145.344 Y140.31 Z2.37
;TYPE:WALL-INNER
G1 F600 Z0.37
G1 F1200 E9.00021
G1 X145.782 Y139.905 E9.02097
G1 X146.065 Y139.835 E9.03111
G1 X193.04 Y139.832 E10.66582
G1 X193.04 Y123.272 E11.2421
G1 X128.68 Y123.272 E13.4818
G1 X128.68 Y187.632 E15.7215
G1 X145.24 Y187.632 E16.29778
G1 X145.243 Y140.657 E17.93248
G1 X145.344 Y140.31 E17.94506
G0 F1920 X145.844 Y140.68
;TYPE:WALL-OUTER
G1 F1200 X146.049 Y140.433 E17.95623
G1 X193.64 Y140.432 E19.61238
G1 X193.64 Y122.672 E20.23042
G1 X128.08 Y122.672 E22.51187
G1 X128.08 Y188.232 E24.79333
G1 X145.84 Y188.232 E25.41137
G1 X145.844 Y140.68 E27.06616
G0 F1920 X146.035 Y140.45
G0 X144.899 Y140.133
;TYPE:SKIN
G1 F1200 X144.768 Y140.592 E27.08227
G1 X144.76 Y187.152 E28.65393
G1 X129.16 Y187.152 E29.18051
G1 X129.161 Y123.753 E31.32058
G1 X192.56 Y123.752 E33.46065
G1 X192.56 Y139.352 E33.98724
G1 X146.027 Y139.357 E35.55798
G1 X145.39 Y139.562 E35.58057
G1 X144.899 Y140.133 E35.60599
G0 F1920 X144.84 Y140.133
G0 X146.152 Y128.545
G0 X191.935 Y124.053
G1 F1200 X192.26 Y124.378 E35.62151
G0 F1920 X192.26 Y125.226
G1 F1200 X191.086 Y124.053 E35.67753
G0 F1920 X190.238 Y124.053
G1 F1200 X192.26 Y126.075 E35.77405
G0 F1920 X192.26 Y126.924
G1 F1200 X189.389 Y124.053 E35.91111
G0 F1920 X188.541 Y124.053
G1 F1200 X192.26 Y127.772 E36.08864
G0 F1920 X192.26 Y128.621
G1 F1200 X187.692 Y124.053 E36.30671
G0 F1920 X186.844 Y124.053
G1 F1200 X192.26 Y129.469 E36.56525
G0 F1920 X192.26 Y130.318
G1 F1200 X185.995 Y124.053 E36.86433
G0 F1920 X185.147 Y124.053
G1 F1200 X192.26 Y131.166 E37.20389
G0 F1920 X192.26 Y132.015
G1 F1200 X184.298 Y124.053 E37.58397
G0 F1920 X183.45 Y124.053
G1 F1200 X192.26 Y132.863 E38.00454
G0 F1920 X192.26 Y133.712
G1 F1200 X182.601 Y124.053 E38.46564
G0 F1920 X181.753 Y124.053
G1 F1200 X192.26 Y134.56 E38.96722
G0 F1920 X192.26 Y135.409
G1 F1200 X180.904 Y124.053 E39.50932
G0 F1920 X180.056 Y124.053
G1 F1200 X192.26 Y136.257 E40.09191
G0 F1920 X192.26 Y137.106
G1 F1200 X179.207 Y124.053 E40.71503
G0 F1920 X178.358 Y124.053
G1 F1200 X192.26 Y137.954 E41.37865
G0 F1920 X192.26 Y138.803
G1 F1200 X177.51 Y124.053 E42.08278
G0 F1920 X176.661 Y124.053
G1 F1200 X191.661 Y139.052 E42.79882
G0 F1920 X190.812 Y139.052
G1 F1200 X175.813 Y124.053 E43.51484
G0 F1920 X174.964 Y124.053
G1 F1200 X189.964 Y139.052 E44.23088
G0 F1920 X189.115 Y139.052
G1 F1200 X174.116 Y124.053 E44.94689
G0 F1920 X173.267 Y124.053
G1 F1200 X188.266 Y139.052 E45.66291
G0 F1920 X187.419 Y139.053
G1 F1200 X172.419 Y124.053 E46.37897
G0 F1920 X171.57 Y124.053
G1 F1200 X186.57 Y139.053 E47.09503
G0 F1920 X185.722 Y139.053
G1 F1200 X170.722 Y124.053 E47.8111
G0 F1920 X169.873 Y124.053
G1 F1200 X184.873 Y139.053 E48.52716
G0 F1920 X184.025 Y139.053
G1 F1200 X169.025 Y124.053 E49.24322
G0 F1920 X168.176 Y124.053
G1 F1200 X183.176 Y139.053 E49.95929
G0 F1920 X182.328 Y139.053
G1 F1200 X167.328 Y124.053 E50.67535
G0 F1920 X166.479 Y124.053
G1 F1200 X181.48 Y139.053 E51.39144
G0 F1920 X180.631 Y139.053
G1 F1200 X165.631 Y124.053 E52.1075
G0 F1920 X164.782 Y124.053
G1 F1200 X179.783 Y139.053 E52.82359
G0 F1920 X178.934 Y139.053
G1 F1200 X163.934 Y124.053 E53.53965
G0 F1920 X163.085 Y124.053
G1 F1200 X178.086 Y139.054 E54.25576
G0 F1920 X177.238 Y139.054
G1 F1200 X162.236 Y124.053 E54.9719
G0 F1920 X161.388 Y124.053
G1 F1200 X176.389 Y139.054 E55.68801
G0 F1920 X175.541 Y139.054
G1 F1200 X160.539 Y124.053 E56.40414
G0 F1920 X159.691 Y124.053
G1 F1200 X174.692 Y139.054 E57.12025
G0 F1920 X173.844 Y139.054
G1 F1200 X158.842 Y124.053 E57.83639
G0 F1920 X157.994 Y124.053
G1 F1200 X172.996 Y139.055 E58.55255
G0 F1920 X172.147 Y139.055
G1 F1200 X157.145 Y124.053 E59.26871
G0 F1920 X156.297 Y124.053
G1 F1200 X171.299 Y139.055 E59.98486
G0 F1920 X170.45 Y139.055
G1 F1200 X155.448 Y124.053 E60.70102
G0 F1920 X154.6 Y124.053
G1 F1200 X169.602 Y139.055 E61.41718
G0 F1920 X168.754 Y139.055
G1 F1200 X153.751 Y124.053 E62.13336
G0 F1920 X152.903 Y124.053
G1 F1200 X167.905 Y139.055 E62.84952
G0 F1920 X167.057 Y139.055
G1 F1200 X152.054 Y124.053 E63.56571
G0 F1920 X151.206 Y124.053
G1 F1200 X166.208 Y139.055 E64.28186
G0 F1920 X165.36 Y139.055
G1 F1200 X150.357 Y124.053 E64.99805
G0 F1920 X149.509 Y124.053
G1 F1200 X164.511 Y139.055 E65.71421
G0 F1920 X163.663 Y139.056
G1 F1200 X148.66 Y124.053 E66.43041
G0 F1920 X147.811 Y124.053
G1 F1200 X162.815 Y139.056 E67.14664
G0 F1920 X161.966 Y139.056
G1 F1200 X146.963 Y124.053 E67.86285
G0 F1920 X146.114 Y124.053
G1 F1200 X161.118 Y139.056 E68.57908
G0 F1920 X160.269 Y139.056
G1 F1200 X145.266 Y124.053 E69.29529
G0 F1920 X144.417 Y124.053
G1 F1200 X159.421 Y139.057 E70.01154
G0 F1920 X158.573 Y139.057
G1 F1200 X143.569 Y124.053 E70.72779
G0 F1920 X142.72 Y124.053
G1 F1200 X157.724 Y139.057 E71.44405
G0 F1920 X156.876 Y139.057
G1 F1200 X141.872 Y124.053 E72.1603
G0 F1920 X141.023 Y124.053
G1 F1200 X156.027 Y139.057 E72.87656
G0 F1920 X155.18 Y139.057
G1 F1200 X140.175 Y124.053 E73.59283
G0 F1920 X139.326 Y124.053
G1 F1200 X154.331 Y139.057 E74.30911
G0 F1920 X153.482 Y139.057
G1 F1200 X138.478 Y124.053 E75.02537
G0 F1920 X137.629 Y124.053
G1 F1200 X152.634 Y139.057 E75.74164
G0 F1920 X151.785 Y139.057
G1 F1200 X136.781 Y124.053 E76.4579
G0 F1920 X135.932 Y124.053
G1 F1200 X150.937 Y139.057 E77.17418
G0 F1920 X150.089 Y139.058
G1 F1200 X135.084 Y124.053 E77.89048
G0 F1920 X134.235 Y124.053
G1 F1200 X149.241 Y139.058 E78.6068
G0 F1920 X148.392 Y139.058
G1 F1200 X133.387 Y124.053 E79.32311
G0 F1920 X132.538 Y124.053
G1 F1200 X147.543 Y139.058 E80.03941
G0 F1920 X146.695 Y139.058
G1 F1200 X131.689 Y124.053 E80.75573
G0 F1920 X130.841 Y124.053
M104 T1 S200
G1 F1200 X145.875 Y139.087 E81.47342
G0 F1920 X145.238 Y139.299
G1 F1200 X129.992 Y124.053 E82.20123
G0 F1920 X129.46 Y124.369
G1 F1200 X144.837 Y139.746 E82.93529
G0 F1920 X144.549 Y140.306
G1 F1200 X129.46 Y125.217 E83.6556
G0 F1920 X129.46 Y126.066
G1 F1200 X144.468 Y141.073 E84.37202
G0 F1920 X144.468 Y141.922
G1 F1200 X129.46 Y126.914 E85.08847
G0 F1920 X129.46 Y127.763
G1 F1200 X144.468 Y142.771 E85.80491
G0 F1920 X144.468 Y143.619
G1 F1200 X129.46 Y128.611 E86.52136
G0 F1920 X129.46 Y129.46
G1 F1200 X144.468 Y144.468 E87.2378
G0 F1920 X144.467 Y145.315
G1 F1200 X129.46 Y130.308 E87.9542
G0 F1920 X129.46 Y131.157
G1 F1200 X144.467 Y146.164 E88.6706
G0 F1920 X144.467 Y147.012
G1 F1200 X129.46 Y132.006 E89.38697
G0 F1920 X129.46 Y132.854
G1 F1200 X144.467 Y147.861 E90.10337
G0 F1920 X144.467 Y148.71
G1 F1200 X129.46 Y133.703 E90.81976
G0 F1920 X129.46 Y134.551
G1 F1200 X144.466 Y149.557 E91.53611
G0 F1920 X144.466 Y150.406
G1 F1200 X129.46 Y135.4 E92.25246
G0 F1920 X129.46 Y136.248
G1 F1200 X144.466 Y151.254 E92.96881
G0 F1920 X144.466 Y152.103
G1 F1200 X129.46 Y137.097 E93.68516
G0 F1920 X129.46 Y137.945
G1 F1200 X144.466 Y152.951 E94.40151
G0 F1920 X144.465 Y153.799
G1 F1200 X129.46 Y138.794 E95.11781
G0 F1920 X129.46 Y139.642
G1 F1200 X144.465 Y154.648 E95.83414
G0 F1920 X144.465 Y155.496
G1 F1200 X129.46 Y140.491 E96.55044
G0 F1920 X129.46 Y141.339
G1 F1200 X144.465 Y156.345 E97.26677
G0 F1920 X144.465 Y157.193
G1 F1200 X129.46 Y142.188 E97.98307
G0 F1920 X129.46 Y143.036
G1 F1200 X144.465 Y158.041 E98.69937
G0 F1920 X144.465 Y158.89
G1 F1200 X129.46 Y143.885 E99.41567
G0 F1920 X129.46 Y144.733
G1 F1200 X144.465 Y159.738 E100.13198
G0 F1920 X144.465 Y160.587
G1 F1200 X129.46 Y145.582 E100.84828
G0 F1920 X129.46 Y146.431
G1 F1200 X144.465 Y161.435 E101.56456
G0 F1920 X144.464 Y162.283
G1 F1200 X129.46 Y147.279 E102.28081
G0 F1920 X129.46 Y148.128
G1 F1200 X144.464 Y163.132 E102.99706
G0 F1920 X144.464 Y163.98
G1 F1200 X129.46 Y148.976 E103.71332
G0 F1920 X129.46 Y149.825
G1 F1200 X144.464 Y164.829 E104.42957
G0 F1920 X144.464 Y165.677
G1 F1200 X129.46 Y150.673 E105.14583
G0 F1920 X129.46 Y151.522
G1 F1200 X144.463 Y166.525 E105.86203
G0 F1920 X144.463 Y167.374
G1 F1200 X129.46 Y152.37 E106.57826
G0 F1920 X129.46 Y153.219
G1 F1200 X144.463 Y168.222 E107.29447
G0 F1920 X144.463 Y169.071
G1 F1200 X129.46 Y154.067 E108.0107
G0 F1920 X129.46 Y154.916
G1 F1200 X144.463 Y169.919 E108.72691
G0 F1920 X144.463 Y170.767
G1 F1200 X129.46 Y155.764 E109.44311
G0 F1920 X129.46 Y156.613
G1 F1200 X144.463 Y171.616 E110.15932
G0 F1920 X144.463 Y172.464
G1 F1200 X129.46 Y157.461 E110.87553
G0 F1920 X129.46 Y158.31
G1 F1200 X144.463 Y173.313 E111.59173
G0 F1920 X144.463 Y174.161
G1 F1200 X129.46 Y159.158 E112.30794
G0 F1920 X129.46 Y160.007
G1 F1200 X144.462 Y175.009 E113.0241
G0 F1920 X144.462 Y175.857
G1 F1200 X129.46 Y160.855 E113.74026
G0 F1920 X129.46 Y161.704
G1 F1200 X144.462 Y176.706 E114.45641
G0 F1920 X144.462 Y177.555
G1 F1200 X129.46 Y162.553 E115.17257
G0 F1920 X129.46 Y163.401
G1 F1200 X144.462 Y178.403 E115.88873
G0 F1920 X144.461 Y179.251
G1 F1200 X129.46 Y164.25 E116.60484
G0 F1920 X129.46 Y165.098
G1 F1200 X144.461 Y180.099 E117.32095
G0 F1920 X144.461 Y180.948
G1 F1200 X129.46 Y165.947 E118.03706
G0 F1920 X129.46 Y166.795
G1 F1200 X144.461 Y181.796 E118.75318
G0 F1920 X144.461 Y182.645
G1 F1200 X129.46 Y167.644 E119.46929
G0 F1920 X129.46 Y168.492
G1 F1200 X144.461 Y183.493 E120.1854
G0 F1920 X144.461 Y184.341
G1 F1200 X129.46 Y169.341 E120.90148
G0 F1920 X129.46 Y170.189
G1 F1200 X144.461 Y185.19 E121.6176
G0 F1920 X144.461 Y186.038
G1 F1200 X129.46 Y171.038 E122.33368
G0 F1920 X129.46 Y171.886
M104 S190
G1 F1200 X144.425 Y186.852 E123.0481
G0 F1920 X143.577 Y186.852
G1 F1200 X129.46 Y172.735 E123.72201
G0 F1920 X129.46 Y173.583
G1 F1200 X142.728 Y186.852 E124.35542
G0 F1920 X141.88 Y186.852
G1 F1200 X129.46 Y174.432 E124.94832
G0 F1920 X129.46 Y175.28
G1 F1200 X141.031 Y186.852 E125.50071
G0 F1920 X140.183 Y186.852
G1 F1200 X129.46 Y176.129 E126.0126
G0 F1920 X129.46 Y176.978
G1 F1200 X139.334 Y186.852 E126.48396
G0 F1920 X138.485 Y186.852
G1 F1200 X129.46 Y177.826 E126.91482
G0 F1920 X129.46 Y178.675
G1 F1200 X137.637 Y186.852 E127.30517
G0 F1920 X136.788 Y186.852
G1 F1200 X129.46 Y179.523 E127.65501
G0 F1920 X129.46 Y180.372
G1 F1200 X135.94 Y186.852 E127.96435
G0 F1920 X135.091 Y186.852
G1 F1200 X129.46 Y181.22 E128.23318
G0 F1920 X129.46 Y182.069
G1 F1200 X134.243 Y186.852 E128.46151
G0 F1920 X133.394 Y186.852
G1 F1200 X129.46 Y182.917 E128.64934
G0 F1920 X129.46 Y183.766
G1 F1200 X132.546 Y186.852 E128.79665
G0 F1920 X131.697 Y186.852
G1 F1200 X129.46 Y184.614 E128.90347
G0 F1920 X129.46 Y185.463
G1 F1200 X130.849 Y186.852 E128.96977
G0 F1920 X130 Y186.852
G1 F1200 X129.46 Y186.311 E128.99558
G0 F1920 X129.58 Y186.311
G1 F1200 E103.99558
G1 F600 Z2.37
G92 E0
T1
G92 E0
T1
M105
M109 S200
M104 T0 S161.9
G1 F2700 E-6.5
;MESH:NONMESH
G0 F2400 X150 Y150 Z2.37
G1 F600 Z2.37
G0 F2400 X166.309 Y165.792
M104 S210
;TYPE:SKIRT
G1 F600 Z0.37
G1 F1200 E0
G1 X164.492 Y167.799 E0.12562
G1 X162.706 Y169.89 E0.25321
G1 X161.04 Y171.954 E0.37629
G1 X159.373 Y174.146 E0.50406
G1 X157.793 Y176.35 E0.62989
G1 X156.277 Y178.594 E0.75554
G1 X154.819 Y180.891 E0.88178
G1 X153.431 Y183.218 E1.0075
G1 X152.106 Y185.594 E1.13373
G1 X150.854 Y187.993 E1.25929
G1 X149.552 Y190.664 E1.39716
G1 X149.01 Y191.323 E1.43675
G1 X148.039 Y192.061 E1.49334
G1 X146.887 Y192.465 E1.54999
G1 X146.197 Y192.539 E1.58218
G1 X128.435 Y192.543 E2.40633
G1 X127.31 Y192.529 E2.45853
G1 X126.484 Y192.321 E2.49806
G1 X125.401 Y191.757 E2.55471
G1 X124.527 Y190.872 E2.61242
G1 X123.964 Y189.759 E2.6703
G1 X123.771 Y188.575 E2.72596
G1 X123.77 Y122.992 E5.76897
G1 X123.785 Y121.897 E5.81978
G1 X123.993 Y121.075 E5.85913
G1 X124.557 Y119.993 E5.91574
G1 X125.443 Y119.119 E5.97349
G1 X126.556 Y118.558 E6.03132
G1 X127.734 Y118.364 E6.08671
G1 X193.29 Y118.363 E9.12847
G1 X194.416 Y118.379 E9.18072
G1 X195.599 Y118.679 E9.23735
G1 X196.796 Y119.565 E9.30645
G1 X197.503 Y120.551 E9.36274
G1 X197.762 Y121.185 E9.39452
G1 X197.949 Y122.328 E9.44826
G1 X197.95 Y140.052 E10.27064
G1 X197.934 Y141.212 E10.32447
G1 X197.636 Y142.393 E10.38099
G1 X196.767 Y143.567 E10.44876
G1 X196.097 Y144.133 E10.48945
G1 X194.556 Y144.884 E10.56899
G1 X192.065 Y146.142 E10.69848
G1 X189.708 Y147.417 E10.82282
G1 X187.353 Y148.779 E10.94905
G1 X185.037 Y150.207 E11.07529
G1 X182.757 Y151.704 E11.20185
G1 X180.541 Y153.251 E11.32725
G1 X178.372 Y154.858 E11.4525
G1 X176.226 Y156.543 E11.5791
G1 X174.115 Y158.299 E11.7065
G1 X172.116 Y160.062 E11.83018
G1 X170.12 Y161.923 E11.9568
G1 X168.185 Y163.833 E12.08295
G1 X166.309 Y165.792 E12.20881
;TIME_ELAPSED:219.507034
;LAYER:1
M106 S63.8
G0 F4800 X166.309 Y165.792 Z0.57
;TYPE:SKIRT
G1 F1200 X164.492 Y167.799 E12.27671
G1 X162.706 Y169.89 E12.34568
G1 X161.04 Y171.954 E12.4122
G1 X159.373 Y174.146 E12.48127
G1 X157.793 Y176.35 E12.54929
G1 X156.277 Y178.594 E12.61721
G1 X154.819 Y180.891 E12.68544
G1 X153.431 Y183.218 E12.7534
G1 X152.106 Y185.594 E12.82163
G1 X150.854 Y187.993 E12.8895
G1 X149.552 Y190.664 E12.96403
G1 X149.01 Y191.323 E12.98543
G1 X148.039 Y192.061 E13.01602
G1 X146.887 Y192.465 E13.04664
G1 X146.197 Y192.539 E13.06404
G1 X128.435 Y192.543 E13.50952
G1 X127.31 Y192.529 E13.53774
G1 X126.484 Y192.321 E13.55911
G1 X125.401 Y191.757 E13.58973
G1 X124.527 Y190.872 E13.62093
G1 X123.964 Y189.759 E13.65221
G1 X123.771 Y188.575 E13.6823
G1 X123.77 Y122.992 E15.32717
G1 X123.785 Y121.897 E15.35463
G1 X123.993 Y121.075 E15.3759
G1 X124.557 Y119.993 E15.4065
G1 X125.443 Y119.119 E15.43772
G1 X126.556 Y118.558 E15.46898
G1 X127.734 Y118.364 E15.49892
G1 X193.29 Y118.363 E17.14311
G1 X194.416 Y118.379 E17.17136
G1 X195.599 Y118.679 E17.20197
G1 X196.796 Y119.565 E17.23932
