;FLAVOR:Marlin
;TIME:914
;Filament used: 0.1139m, 0.101601m
;Layer height: 0.2
;MINX:88.742
;MINY:87.124
;MINZ:0.25
;MAXX:214.116
;MAXY:214.36
;MAXZ:20.001
;TARGET_MACHINE.NAME:Syncraft IDEX
;Generated with Cura_SteamEngine 5.7.2
T0
M104 S205
M105
M109 S205
M105
M109 T1 S100
M82 ;absolute extrusion mode
;Filament weight = [0.900998046875, 0.8037114794921876]
;Nozzle diameter = 0.4
M605 S0
M900 P0.4 S80
BREAK_CLEAN P=50
G21 ; set units to millimeters
G90 ; use absolute positioning
M82 ; absolute extrusion mode
M104 T1 S150 ; set extruder temp
M140 S60 ; set bed temp
G28 Z ; home z
M109 S150
G28 XY; home XY
START_GCODE
set_temperature_layer L0=<TEMPERATURE_LAYER_ZERO_VALUE> L1=<TEMPERATURE_LAYER_ONE_VALUE>
PRIME_ROUTINE
G92 E0
T0
G92 E0
G1 F2700 E-6.5
;LAYER_COUNT:4
G0 F7200 X150 Y150
;LAYER:0
M107
G1 F600 Z2.25
G0 F1920 X168.172 Y163.118 Z2.25
;TYPE:SKIRT
G1 F600 Z0.25
G1 F1200 E0
G1 X166.281 Y165.764 E0.07647
G1 X165.825 Y166.307 E0.09314
G1 X164.837 Y167.017 E0.12175
G1 X163.927 Y167.651 E0.14783
G1 X161.709 Y169.292 E0.2127
G1 X159.592 Y170.954 E0.27599
G1 X157.444 Y172.739 E0.34166
G1 X155.423 Y174.518 E0.40497
G1 X153.416 Y176.388 E0.46947
G1 X151.466 Y178.311 E0.53386
G1 X149.568 Y180.293 E0.59839
G1 X147.748 Y182.302 E0.66213
G1 X145.935 Y184.424 E0.72775
G1 X144.259 Y186.499 E0.79047
G1 X142.578 Y188.706 E0.8557
G1 X141.003 Y190.9 E0.91921
G1 X139.445 Y193.204 E0.9846
G1 X138.004 Y195.472 E1.04779
G1 X136.589 Y197.847 E1.11279
G1 X135.253 Y200.238 E1.17719
G1 X134 Y202.636 E1.24081
G1 X132.789 Y205.124 E1.30587
G1 X131.667 Y207.606 E1.36992
G1 X130.613 Y210.123 E1.43408
G1 X129.836 Y212.087 E1.48374
G1 X129.437 Y212.649 E1.49995
G1 X128.669 Y213.325 E1.524
G1 X127.73 Y213.734 E1.54809
G1 X126.917 Y213.85 E1.5674
G1 X107.002 Y213.85 E2.03566
G1 X106.078 Y213.836 E2.05739
G1 X102.637 Y213.337 E2.13915
G1 X99.921 Y213.029 E2.20342
G1 X97.209 Y212.797 E2.26742
G1 X94.026 Y212.617 E2.34238
G1 X93.065 Y212.329 E2.36597
G1 X92.108 Y211.555 E2.39491
G1 X91.547 Y210.699 E2.41897
G1 X91.276 Y209.712 E2.44304
G1 X91.247 Y209.098 E2.45749
G1 X91.246 Y130.84 E4.29759
G1 X91.206 Y128.045 E4.36332
G1 X91.091 Y125.334 E4.42712
G1 X90.897 Y122.591 E4.49178
G1 X90.627 Y119.863 E4.55623
G1 X90.282 Y117.172 E4.62002
G1 X89.856 Y114.462 E4.68453
G1 X89.428 Y112.126 E4.74037
G1 X89.366 Y111.528 E4.75451
G1 X89.583 Y108.434 E4.82743
G1 X89.695 Y105.727 E4.89114
G1 X89.731 Y102.972 E4.95592
G1 X89.69 Y100.231 E5.02038
G1 X89.571 Y97.505 E5.08454
G1 X89.255 Y93.396 E5.18144
G1 X89.363 Y92.722 E5.19749
G1 X89.752 Y91.776 E5.22154
G1 X90.234 Y91.14 E5.2403
G1 X91.184 Y90.215 E5.27148
G1 X92.023 Y89.713 E5.29447
G1 X92.988 Y89.527 E5.31758
G1 X96.029 Y89.291 E5.3893
G1 X98.735 Y89.002 E5.45328
G1 X101.454 Y88.633 E5.5178
G1 X104.141 Y88.191 E5.58183
G1 X107.034 Y87.636 E5.6511
G1 X107.877 Y87.674 E5.67094
G1 X110.561 Y88.405 E5.73635
G1 X113.231 Y89.056 E5.80097
G1 X115.918 Y89.63 E5.86557
G1 X118.58 Y90.121 E5.92922
G1 X121.285 Y90.541 E5.99358
G1 X124.022 Y90.888 E6.05845
G1 X126.715 Y91.151 E6.12208
G1 X129.458 Y91.342 E6.18673
G1 X132.171 Y91.454 E6.25058
G1 X134.836 Y91.49 E6.31324
G1 X208.446 Y91.49 E8.04405
G1 X209.486 Y91.505 E8.06851
G1 X210.458 Y91.751 E8.09208
G1 X211.448 Y92.484 E8.12105
G1 X212.165 Y93.484 E8.14998
G1 X212.379 Y94.378 E8.17159
G1 X212.481 Y96.254 E8.21577
G1 X212.679 Y98.979 E8.28001
G1 X212.953 Y101.683 E8.34392
G1 X213.312 Y104.451 E8.40955
G1 X213.562 Y106.119 E8.4492
G1 X213.606 Y106.92 E8.46807
G1 X213.606 Y126.459 E8.92749
G1 X213.591 Y127.533 E8.95275
G1 X213.346 Y128.503 E8.97627
G1 X212.487 Y129.663 E9.01021
G1 X211.717 Y130.129 E9.03137
G1 X208.562 Y131.393 E9.11129
G1 X206.03 Y132.498 E9.17625
G1 X203.566 Y133.656 E9.24026
G1 X201.11 Y134.897 E9.30497
G1 X198.745 Y136.177 E9.3682
G1 X196.374 Y137.548 E9.4326
G1 X193.987 Y139.02 E9.49854
G1 X191.759 Y140.483 E9.56121
G1 X189.497 Y142.063 E9.62608
G1 X187.305 Y143.686 E9.69022
G1 X185.154 Y145.376 E9.75454
G1 X183.042 Y147.133 E9.81913
G1 X180.986 Y148.945 E9.88357
G1 X178.999 Y150.798 E9.94746
G1 X177.049 Y152.724 E10.0119
G1 X175.154 Y154.704 E10.07634
G1 X173.314 Y156.739 E10.14085
G1 X171.543 Y158.812 E10.20496
G1 X169.845 Y160.919 E10.26859
G1 X168.172 Y163.118 E10.33356
G1 F2700 E3.83356
G1 F600 Z2.25
;MESH:EXTRUDER_ONE.STL
G0 F1920 X128.424 Y163.468 Z2.25
;TYPE:WALL-OUTER
G1 F600 Z0.25
G1 F1200 E10.33356
G1 F919.4 X145.667 Y163.467 E10.84846
G1 F913.9 X162.91 Y163.466 E11.36607
G1 F835.4 X163.159 Y163.403 E11.37442
G1 F837.7 X163.222 Y163.154 E11.38274
G1 F919.4 X163.224 Y128.668 E12.41255
G1 F2700 E5.91255
G1 F600 Z2.25
G0 F1920 X157.149 Y141.893 Z2.25
G1 F600 Z0.25
G1 F1200 E12.41255
G1 F769.9 X156.951 Y142.143 E12.42368
G1 F818.4 X156.281 Y142.475 E12.44841
G1 F865.1 X155.407 Y142.445 E12.47596
G1 F862.6 X155.071 Y142.305 E12.48746
G1 F992.4 X154.652 Y141.897 E12.50378
G0 F1920 X153.886 Y142.39
G1 F760 X153.886 Y142.152 E12.51217
G0 F1920 X154.198 Y141.871
G1 F919.4 X153.886 Y142.152 E12.52471
G1 X153.749 Y141.591 E12.54195
G1 F964.9 X153.854 Y141.325 E12.55014
G1 F733.4 X153.945 Y141.091 E12.55927
G1 X154.097 Y141.256 E12.56742
G1 F964.9 X154.327 Y141.428 E12.57564
G1 F1157.4 X154.652 Y141.897 E12.5895
G1 X154.198 Y141.871 E12.60055
G0 F1920 X154.497 Y141.888
G0 X153.945 Y141.091
G1 F699.9 X153.891 Y140.093 E12.63839
G1 F753.2 X153.887 Y137.875 E12.71723
G0 F1920 X157.462 Y137.874
G1 F758 X157.46 Y139.748 E12.78347
G1 F735.3 X157.479 Y140.49 E12.8104
G0 F1920 X157.802 Y141.15
G1 F1229.2 X158.017 Y141.593 E12.82173
G1 F1211.1 X157.744 Y141.458 E12.82883
G1 F1264.6 X157.399 Y141.642 E12.8376
G1 F1284.3 X157.189 Y141.531 E12.84285
G1 X157.245 Y141.188 E12.85053
G1 F927.6 X157.479 Y140.49 E12.87234
G1 X157.802 Y141.15 E12.89411
G0 F1920 X157.671 Y140.881
G0 X158.017 Y141.593
G1 F1119.4 X158.209 Y141.924 E12.90369
G1 F1009.8 X158.974 Y142.433 E12.92893
G1 F908.6 X159.534 Y142.525 E12.94606
G1 F811.8 X160.127 Y142.378 E12.96641
G1 F779 X160.503 Y142.17 E12.98124
G1 F790.3 X160.94 Y141.452 E13.0099
G1 F770.9 X161.027 Y140.697 E13.03638
G1 F758 X161.034 Y137.874 E13.13617
G1 F2700 E6.63617
G1 F600 Z2.25
G0 F1920 X151.926 Y130.846 Z2.25
G1 F600 Z0.25
G1 F1200 E13.13617
G1 F938.8 X153.93 Y130.846 E13.19491
G1 F2700 E6.69491
G1 F600 Z2.25
G0 F1920 X144.294 Y142.39 Z2.25
G1 F600 Z0.25
G1 F1200 E13.19491
G1 F760 X144.294 Y142.152 E13.20331
G0 F1920 X144.606 Y141.872
G1 F919.4 X144.294 Y142.152 E13.21582
G1 X144.156 Y141.592 E13.23305
M104 T1 S195
G1 F972.4 X144.257 Y141.324 E13.24118
G1 F745.6 X144.347 Y141.078 E13.25058
G1 F851.8 X144.731 Y141.423 E13.26706
G1 F1157.4 X145.025 Y141.871 E13.28008
G1 X144.606 Y141.872 E13.29026
G0 F1920 X144.906 Y141.872
G0 X144.347 Y141.078
G1 F705.9 X144.299 Y140.122 E13.32624
G1 F753.2 X144.295 Y137.875 E13.40611
G0 F1920 X147.866 Y137.874
G1 F756.1 X147.868 Y139.769 E13.47324
G1 F739 X147.883 Y140.462 E13.49828
G1 F637.9 X147.924 Y141.199 E13.52851
G1 F660.3 X147.575 Y141.864 E13.55839
G1 F775.9 X147.107 Y142.3 E13.58054
G1 F783.1 X146.528 Y142.518 E13.60181
G1 F834.2 X145.814 Y142.448 E13.62514
G1 F871.2 X145.478 Y142.307 E13.63655
G1 F997.1 X145.025 Y141.871 E13.65402
G0 F1920 X148.42 Y141.59
G1 F1129.2 X148.618 Y141.928 E13.66375
G1 F986.1 X149.288 Y142.41 E13.68691
G1 F882.5 X149.751 Y142.51 E13.70158
G1 F831.9 X150.29 Y142.473 E13.71919
G1 F806.3 X150.943 Y142.132 E13.74388
G1 F780 X151.319 Y141.531 E13.76832
G1 F759 X151.44 Y140.601 E13.80144
G1 F758 X151.442 Y137.874 E13.89783
G1 F2700 E7.39783
G1 F600 Z2.25
G0 F1920 X139.466 Y144.316 Z2.25
G1 F600 Z0.25
G1 F1200 E13.89783
G1 F780 X140.339 Y144.204 E13.92819
G1 F723.5 X140.34 Y141.039 E14.04465
G1 F747.5 X140.342 Y137.874 E14.15789
G0 F1920 X136.212 Y138.345
G1 F1098.5 X135.903 Y138.319 E14.16579
G1 F1094.7 X135.788 Y138.217 E14.16972
G1 X135.732 Y137.929 E14.17722
G1 X135.899 Y137.705 E14.18435
G1 X136.062 Y137.667 E14.18863
G1 F1098.5 X136.426 Y137.822 E14.19871
G1 F1102.2 X136.492 Y138.071 E14.20525
G1 X136.212 Y138.345 E14.2152
G0 F1920 X136.426 Y138.136
G1 F2700 E7.7152
G1 F600 Z2.25
G0 F1920 X129.598 Y142.21 Z2.25
G1 F600 Z0.25
G1 F1200 E14.2152
G1 F758 X129.536 Y141.519 E14.23972
G1 F754.2 X129.53 Y140.823 E14.26443
G1 F765.9 X129.561 Y140.089 E14.29017
G1 F764.9 X129.711 Y139.246 E14.3202
G1 F749.4 X130.042 Y138.526 E14.3485
G1 F775.9 X130.501 Y138.025 E14.37203
G1 F804.2 X131.063 Y137.736 E14.39326
G1 F829.6 X131.74 Y137.657 E14.41554
G1 F811.8 X132.447 Y137.853 E14.43997
G1 F764.9 X133.161 Y138.449 E14.47259
G1 F730.7 X133.581 Y139.444 E14.512
G1 X133.739 Y140.512 E14.55139
G1 F760 X133.755 Y141.815 E14.59735
G1 F759 X133.571 Y142.782 E14.6321
G1 F755.1 X133.191 Y143.601 E14.66413
G1 F781 X132.754 Y144.071 E14.68623
G1 F811.8 X132.248 Y144.365 E14.70573
G1 F835.4 X131.841 Y144.477 E14.71944
G1 F831.9 X131.101 Y144.424 E14.74363
G1 F805.2 X130.343 Y143.99 E14.77293
G1 F776.9 X130.024 Y143.559 E14.79148
G1 F751.3 X129.75 Y142.942 E14.81553
G1 F748.4 X129.598 Y142.21 E14.84225
G1 F2700 E8.34225
G1 F600 Z2.25
G0 F1920 X132.516 Y154.812 Z2.25
G1 F600 Z0.25
G1 F1200 E14.84225
G1 F944.5 X132.516 Y152.8 E14.90092
G1 F2700 E8.40092
G1 F600 Z2.25
G0 F1920 X135.356 Y174.504 Z2.25
G1 F600 Z0.25
G1 F1200 E14.90092
G1 F831.9 X133.764 Y174.504 E14.95282
G1 F692.3 X133.39 Y174.504 E14.96711
G1 F728.9 X133.39 Y174.92 E14.98232
G1 F938.8 X133.39 Y176.554 E15.03022
G0 F1920 X131.424 Y174.504
G1 F831.9 X133.016 Y174.504 E15.08213
G1 F692.3 X133.39 Y174.504 E15.09642
G1 F682.4 X133.39 Y174.296 E15.10446
G1 F867.5 X133.39 Y172.454 E15.16236
G1 F2700 E8.66236
G1 F600 Z2.25
G0 F1920 X173.714 Y133.682 Z2.25
G1 F600 Z0.25
G1 F1200 E15.16236
G1 F827.4 X173.714 Y132.092 E15.21445
G1 F689 X173.714 Y131.718 E15.2288
G1 F727.1 X174.132 Y131.718 E15.24411
G1 F938.8 X175.766 Y131.718 E15.29201
G0 F1920 X173.714 Y129.754
G1 F825.1 X173.714 Y131.38 E15.34541
G1 F687.3 X173.714 Y131.718 E15.3584
G1 F727.1 X173.296 Y131.718 E15.37372
G1 F938.8 X171.662 Y131.718 E15.42162
G1 F2700 E8.92162
G1 F600 Z2.25
G0 F1920 X104.824 Y209.068 Z2.25
G1 F600 Z0.25
G1 F1200 E15.42162
G1 F1279.3 X99.825 Y209.068 E15.5325
G1 F1250.2 X94.826 Y209.068 E15.64573
G1 F1264.6 X94.824 Y205.548 E15.72463
G1 F1137.1 X94.894 Y205.268 E15.73176
G0 F1920 X94.894 Y201.468
G1 F1137.1 X94.824 Y201.748 E15.73889
G1 F1289.3 X94.826 Y205.036 E15.8113
G1 F1133.2 X94.894 Y205.268 E15.81729
G1 F1027.8 X96.313 Y205.268 E15.85566
G1 F1062.1 X97.732 Y205.268 E15.89292
G1 F1098.5 X99.151 Y205.268 E15.92906
G1 F1137.1 X100.57 Y205.268 E15.96409
G1 F1178.4 X101.989 Y205.268 E15.99802
G1 F1222.4 X103.408 Y205.268 E16.03083
G1 F1269.5 X104.827 Y205.268 E16.06252
G1 F2700 E9.56252
G1 F600 Z2.25
G0 F1920 X109.824 Y201.468 Z2.25
G1 F600 Z0.25
G1 F1200 E16.06252
G1 F1279.3 X108.467 Y201.468 E16.09262
G1 F1247.9 X107.11 Y201.468 E16.12341
G1 F1220.1 X105.753 Y201.468 E16.15484
G1 F1191.3 X104.396 Y201.468 E16.18696
G1 F1163.6 X103.039 Y201.468 E16.21977
G1 F1137.1 X101.682 Y201.468 E16.25328
G1 F1113.6 X100.325 Y201.468 E16.28742
G1 F1089.2 X98.968 Y201.468 E16.32225
G1 F1065.6 X97.611 Y201.468 E16.35777
G1 F1044.7 X96.254 Y201.468 E16.39393
G1 F1022.9 X94.897 Y201.468 E16.43079
G1 F1133.2 X94.826 Y201.236 E16.4368
G1 F1289.3 X94.824 Y197.948 E16.50921
G1 F1137.1 X94.894 Y197.668 E16.51634
G0 F1920 X94.894 Y193.868
G1 F1137.1 X94.824 Y194.148 E16.52346
G1 F1289.3 X94.826 Y197.436 E16.59588
G1 F1133.2 X94.894 Y197.668 E16.60186
G1 F1027.8 X96.313 Y197.668 E16.64023
G1 F1062.1 X97.732 Y197.668 E16.67749
G1 F1098.5 X99.151 Y197.668 E16.71364
G1 F1137.1 X100.57 Y197.668 E16.74867
G1 F1178.4 X101.989 Y197.668 E16.78259
G1 F1222.4 X103.408 Y197.668 E16.8154
G1 F1269.5 X104.827 Y197.668 E16.8471
G0 F1920 X104.824 Y193.868
G1 F1269.5 X103.405 Y193.868 E16.8788
G1 F1222.4 X101.986 Y193.868 E16.91161
G1 F1178.4 X100.567 Y193.868 E16.94553
G1 F1137.1 X99.148 Y193.868 E16.98056
G1 F1098.5 X97.729 Y193.868 E17.01671
G1 F1062.1 X96.31 Y193.868 E17.05396
G1 F1027.8 X94.891 Y193.868 E17.09233
G1 F1133.2 X94.826 Y193.636 E17.0983
G1 F1289.3 X94.824 Y190.348 E17.17072
G1 F1137.1 X94.894 Y190.068 E17.17784
G0 F1920 X94.894 Y186.268
G1 F1137.1 X94.824 Y186.548 E17.18497
G1 F1289.3 X94.826 Y189.836 E17.25738
G1 F1133.2 X94.894 Y190.068 E17.26337
G1 F1027.8 X96.313 Y190.068 E17.30174
G1 F1062.1 X97.732 Y190.068 E17.339
G1 F1098.5 X99.151 Y190.068 E17.37514
G1 F1137.1 X100.57 Y190.068 E17.41018
G1 F1178.4 X101.989 Y190.068 E17.4441
G1 F1222.4 X103.408 Y190.068 E17.47691
G1 F1269.5 X104.827 Y190.068 E17.5086
G0 F1920 X104.824 Y186.268
G1 F1269.5 X103.405 Y186.268 E17.5403
G1 F1222.4 X101.986 Y186.268 E17.57311
G1 F1178.4 X100.567 Y186.268 E17.60703
G1 F1137.1 X99.148 Y186.268 E17.64207
G1 F1098.5 X97.729 Y186.268 E17.67821
G1 F1062.1 X96.31 Y186.268 E17.71547
G1 F1027.8 X94.891 Y186.268 E17.75384
G1 F1133.2 X94.826 Y186.036 E17.75981
G1 F1289.3 X94.824 Y182.748 E17.83222
G1 F1137.1 X94.894 Y182.468 E17.83935
G0 F1920 X94.894 Y178.668
G1 F1137.1 X94.824 Y178.948 E17.84647
G1 F1289.3 X94.826 Y182.236 E17.91889
G1 F1133.2 X94.894 Y182.468 E17.92488
G1 F1022.9 X96.251 Y182.468 E17.96173
G1 F1044.7 X97.608 Y182.468 E17.99789
G1 F1065.6 X98.965 Y182.468 E18.03341
G1 F1089.2 X100.322 Y182.468 E18.06825
G1 F1113.6 X101.679 Y182.468 E18.10239
G1 F1137.1 X103.036 Y182.468 E18.13589
G1 F1163.6 X104.393 Y182.468 E18.1687
G1 F1191.3 X105.75 Y182.468 E18.20082
G1 F1220.1 X107.107 Y182.468 E18.23225
G1 F1247.9 X108.464 Y182.468 E18.26304
G1 F1279.3 X109.821 Y182.468 E18.29314
G1 F2700 E11.79314
G1 F600 Z2.25
G0 F1920 X104.824 Y178.668 Z2.25
G1 F600 Z0.25
G1 F1200 E18.29314
G1 F1269.5 X103.405 Y178.668 E18.32484
G1 F1222.4 X101.986 Y178.668 E18.35765
G1 F1178.4 X100.567 Y178.668 E18.39157
G1 F1137.1 X99.148 Y178.668 E18.4266
G1 F1098.5 X97.729 Y178.668 E18.46275
G1 F1062.1 X96.31 Y178.668 E18.5
G1 F1027.8 X94.891 Y178.668 E18.53837
G1 F1133.2 X94.826 Y178.436 E18.54434
G1 F1289.3 X94.824 Y175.148 E18.61676
G1 F1137.1 X94.894 Y174.868 E18.62388
G0 F1920 X94.894 Y171.068
G1 F1137.1 X94.824 Y171.348 E18.63101
G1 F1289.3 X94.826 Y174.636 E18.70342
G1 F1133.2 X94.894 Y174.868 E18.70941
G1 F1027.8 X96.313 Y174.868 E18.74778
G1 F1062.1 X97.732 Y174.868 E18.78504
G1 F1098.5 X99.151 Y174.868 E18.82118
G1 F1137.1 X100.57 Y174.868 E18.85622
G1 F1178.4 X101.989 Y174.868 E18.89014
G1 F1222.4 X103.408 Y174.868 E18.92295
G1 F1269.5 X104.827 Y174.868 E18.95464
G0 F1920 X104.824 Y171.068
G1 F1269.5 X103.405 Y171.068 E18.98634
G1 F1222.4 X101.986 Y171.068 E19.01915
G1 F1178.4 X100.567 Y171.068 E19.05307
G1 F1137.1 X99.148 Y171.068 E19.08811
G1 F1098.5 X97.729 Y171.068 E19.12425
G1 F1062.1 X96.31 Y171.068 E19.16151
G1 F1027.8 X94.891 Y171.068 E19.19988
G1 F1133.2 X94.826 Y170.836 E19.20585
G1 F1289.3 X94.824 Y167.548 E19.27826
G1 F1137.1 X94.894 Y167.268 E19.28539
G0 F1920 X94.894 Y163.468
G1 F1137.1 X94.824 Y163.748 E19.29251
G1 F1289.3 X94.826 Y167.036 E19.36493
G1 F1133.2 X94.894 Y167.268 E19.37092
G1 F1027.8 X96.313 Y167.268 E19.40929
G1 F1062.1 X97.732 Y167.268 E19.44654
G1 F1098.5 X99.151 Y167.268 E19.48269
G1 F1137.1 X100.57 Y167.268 E19.51772
G1 F1178.4 X101.989 Y167.268 E19.55164
G1 F1222.4 X103.408 Y167.268 E19.58445
G1 F1269.5 X104.827 Y167.268 E19.61615
G1 F2700 E13.11615
G1 F600 Z2.25
G0 F1920 X109.824 Y163.468 Z2.25
G1 F600 Z0.25
G1 F1200 E19.61615
G1 F1279.3 X108.467 Y163.468 E19.64625
G1 F1247.9 X107.11 Y163.468 E19.67704
G1 F1220.1 X105.753 Y163.468 E19.70847
G1 F1191.3 X104.396 Y163.468 E19.74059
G1 F1163.6 X103.039 Y163.468 E19.7734
G1 F1137.1 X101.682 Y163.468 E19.8069
G1 F1113.6 X100.325 Y163.468 E19.84104
G1 F1089.2 X98.968 Y163.468 E19.87588
G1 F1065.6 X97.611 Y163.468 E19.9114
G1 F1044.7 X96.254 Y163.468 E19.94756
G1 F1022.9 X94.897 Y163.468 E19.98441
G1 F1133.2 X94.826 Y163.236 E19.99042
G1 F1289.3 X94.824 Y159.948 E20.06284
G1 F1137.1 X94.894 Y159.668 E20.06996
G0 F1920 X94.894 Y155.868
G1 F1137.1 X94.824 Y156.148 E20.07709
G1 F1289.3 X94.826 Y159.436 E20.1495
G1 F1133.2 X94.894 Y159.668 E20.15549
G1 F1027.8 X96.313 Y159.668 E20.19386
G1 F1062.1 X97.732 Y159.668 E20.23112
G1 F1098.5 X99.151 Y159.668 E20.26727
