;FLAVOR:Marlin
;TIME:838
;Filament used: 0.14642m, 0.0465584m
;Layer height: 0.2
;MINX:124.154
;MINY:118.744
;MINZ:0.16
;MAXX:197.568
;MAXY:192.161
;MAXZ:20.001
;TARGET_MACHINE.NAME:Syncraft IDEX
;Generated with Cura_SteamEngine 5.7.2
T0
M104 S210
M105
M109 S210
M105
M109 T1 S100
M82 ;absolute extrusion mode
;Filament weight = [1.1582452197265625, 0.36829808837890626]
;Nozzle diameter = 0.8
M605 S0
M900 P0.8 S55
BREAK_CLEAN P=50
G21 ; set units to millimeters
G90 ; use absolute positioning
M82 ; absolute extrusion mode
M104 T1 S150 ; set extruder temp
M140 S60 ; set bed temp
G28 Z ; home z
M109 S150
G28 XY; home XY
START_GCODE
set_temperature_layer L0=<TEMPERATURE_LAYER_ZERO_VALUE> L1=<TEMPERATURE_LAYER_ONE_VALUE>
PRIME_ROUTINE
G92 E0
T0
G92 E0
G1 F2700 E-6.5
;LAYER_COUNT:4
G0 F30000 X150 Y150
;LAYER:0
M107
G1 F600 Z2.16
G0 F15000 X165.639 Y165.187 Z2.16
;TYPE:SKIRT
G1 F600 Z0.16
G1 F1200 E0
G1 F1800 X163.826 Y167.191 E0.01897
G1 X162.019 Y169.305 E0.03849
G1 X160.31 Y171.422 E0.05758
G1 X158.642 Y173.615 E0.07692
G1 X157.051 Y175.835 E0.09609
G1 X155.521 Y178.099 E0.11527
G1 X154.047 Y180.421 E0.13457
G1 X152.64 Y182.782 E0.15386
G1 X151.319 Y185.151 E0.1729
G1 X150.044 Y187.592 E0.19223
G1 X148.749 Y190.249 E0.21297
G1 X148.323 Y190.761 E0.21765
G1 X147.524 Y191.351 E0.22462
G1 X147.065 Y191.542 E0.22811
G1 X146.093 Y191.704 E0.23502
G1 X128.38 Y191.705 E0.35934
G1 X127.351 Y191.692 E0.36657
G1 X126.704 Y191.524 E0.37126
G1 X126.248 Y191.324 E0.37475
G1 X125.461 Y190.719 E0.38172
G1 X124.904 Y189.897 E0.38869
G1 X124.636 Y188.941 E0.39566
G1 X124.608 Y188.341 E0.39987
G1 X124.607 Y122.368 E0.86291
G1 X124.663 Y121.777 E0.86708
G1 X124.788 Y121.295 E0.87057
G1 X125.26 Y120.421 E0.87754
G1 X125.983 Y119.741 E0.88451
G1 X126.885 Y119.324 E0.89149
G1 X127.517 Y119.201 E0.896
G1 X193.343 Y119.2 E1.35801
G1 X194.376 Y119.215 E1.36526
G1 X195.019 Y119.383 E1.36993
G1 X195.475 Y119.584 E1.37342
G1 X196.262 Y120.19 E1.3804
G1 X196.817 Y121.013 E1.38736
G1 X196.989 Y121.481 E1.39086
G1 X197.111 Y122.109 E1.39535
G1 X197.112 Y140.01 E1.52099
G1 X197.097 Y141.07 E1.52843
G1 X196.93 Y141.717 E1.53312
G1 X196.458 Y142.59 E1.54009
G1 X196.123 Y142.959 E1.54359
G1 X195.626 Y143.356 E1.54805
G1 X194.12 Y144.091 E1.55981
G1 X191.695 Y145.316 E1.57888
G1 X189.265 Y146.631 E1.59827
G1 X186.886 Y148.007 E1.61756
G1 X184.551 Y149.447 E1.63682
G1 X182.261 Y150.95 E1.65604
G1 X180.043 Y152.498 E1.67502
G1 X177.82 Y154.143 E1.69443
G1 X175.662 Y155.838 E1.71369
G1 X173.543 Y157.601 E1.73304
G1 X171.5 Y159.402 E1.75216
G1 X169.483 Y161.282 E1.77151
G1 X167.569 Y163.17 E1.79038
G1 X165.639 Y165.187 E1.80997
G1 F2700 E-4.69003
G1 F600 Z2.16
;MESH:EXTRUDER_ONE.STL
G0 F15000 X146.002 Y188.49 Z2.16
;TYPE:WALL-OUTER
G1 F600 Z0.16
G1 F1200 E1.80997
G1 F1800 X146.003 Y140.647 E2.11524
G1 X146.09 Y140.595 E2.11588
G1 X193.898 Y140.594 E2.42092
G1 X193.898 Y122.41 E2.53695
G1 X127.818 Y122.41 E2.95857
G1 X127.818 Y188.49 E3.3802
G1 X146.002 Y188.49 E3.49622
G0 F15000 X146.002 Y188.365
G0 X145.79 Y188.278
;TYPE:WALL-INNER
G1 F1800 X145.794 Y140.645 E3.80015
G1 X145.899 Y140.459 E3.80151
G1 X146.031 Y140.383 E3.80248
G1 X193.686 Y140.382 E4.10655
G1 X193.686 Y122.622 E4.21986
G1 X128.03 Y122.622 E4.63879
G1 X128.03 Y188.278 E5.05771
G1 X145.79 Y188.278 E5.17102
G0 F15000 X145.578 Y188.066
G1 F1800 X145.579 Y140.656 E5.47353
G1 X145.682 Y140.383 E5.47539
G1 X145.791 Y140.274 E5.47637
G1 X146.064 Y140.171 E5.47823
G1 X193.474 Y140.17 E5.78073
G1 X193.474 Y122.834 E5.89135
G1 X128.242 Y122.834 E6.30756
G1 X128.242 Y188.066 E6.72378
G1 X145.578 Y188.066 E6.83439
G0 F15000 X145.414 Y187.902
;TYPE:SKIN
G1 F1800 X145.419 Y140.637 E7.09827
G1 X145.548 Y140.29 E7.10034
G1 X145.69 Y140.145 E7.10147
G1 X146.035 Y140.013 E7.10353
G1 X193.31 Y140.006 E7.36747
G1 X193.31 Y122.994 E7.46245
G1 X128.403 Y122.995 E7.82482
G1 X128.402 Y187.902 E8.18719
G1 X145.414 Y187.902 E8.28217
G0 F15000 X145.414 Y188.049
G0 X128.241 Y188.071
G0 X128.241 Y122.834
G0 X193.478 Y122.834
G0 X193.456 Y123.348
G0 X193.204 Y123.348
G1 F1800 X192.957 Y123.101 E8.28412
G0 F15000 X192.658 Y123.101
G1 F1800 X193.204 Y123.648 E8.28844
G0 F15000 X193.204 Y123.947
G1 F1800 X192.358 Y123.101 E8.29512
G0 F15000 X192.058 Y123.101
G1 F1800 X193.204 Y124.247 E8.30416
G0 F15000 X193.204 Y124.547
G1 F1800 X191.758 Y123.101 E8.31558
G0 F15000 X191.458 Y123.101
G1 F1800 X193.204 Y124.847 E8.32937
G0 F15000 X193.204 Y125.147
G1 F1800 X191.159 Y123.101 E8.34552
G0 F15000 X190.859 Y123.101
G1 F1800 X193.204 Y125.446 E8.36403
G0 F15000 X193.204 Y125.746
G1 F1800 X190.559 Y123.101 E8.38492
G0 F15000 X190.259 Y123.101
G1 F1800 X193.204 Y126.046 E8.40817
G0 F15000 X193.204 Y126.346
G1 F1800 X189.959 Y123.101 E8.43379
G0 F15000 X189.659 Y123.101
G1 F1800 X193.204 Y126.646 E8.46178
G0 F15000 X193.204 Y126.945
G1 F1800 X189.36 Y123.101 E8.49213
G0 F15000 X189.06 Y123.101
G1 F1800 X193.204 Y127.245 E8.52485
G0 F15000 X193.204 Y127.545
G1 F1800 X188.76 Y123.101 E8.55994
G0 F15000 X188.46 Y123.101
G1 F1800 X193.204 Y127.845 E8.59739
G0 F15000 X193.204 Y128.145
G1 F1800 X188.16 Y123.101 E8.63722
G0 F15000 X187.861 Y123.101
G1 F1800 X193.204 Y128.445 E8.67941
G0 F15000 X193.204 Y128.744
G1 F1800 X187.561 Y123.101 E8.72396
G0 F15000 X187.261 Y123.101
G1 F1800 X193.204 Y129.044 E8.77088
G0 F15000 X193.204 Y129.344
G1 F1800 X186.961 Y123.101 E8.82018
G0 F15000 X186.661 Y123.101
G1 F1800 X193.204 Y129.644 E8.87184
G0 F15000 X193.204 Y129.944
G1 F1800 X186.362 Y123.101 E8.92586
G0 F15000 X186.062 Y123.101
G1 F1800 X193.204 Y130.243 E8.98225
G0 F15000 X193.204 Y130.543
G1 F1800 X185.762 Y123.101 E9.04101
G0 F15000 X185.462 Y123.101
G1 F1800 X193.204 Y130.843 E9.10214
G0 F15000 X193.204 Y131.143
G1 F1800 X185.162 Y123.101 E9.16563
G0 F15000 X184.862 Y123.101
G1 F1800 X193.204 Y131.443 E9.2315
G0 F15000 X193.204 Y131.742
G1 F1800 X184.563 Y123.101 E9.29972
G0 F15000 X184.263 Y123.101
G1 F1800 X193.204 Y132.042 E9.37032
G0 F15000 X193.204 Y132.342
G1 F1800 X183.963 Y123.101 E9.44328
G0 F15000 X183.663 Y123.101
G1 F1800 X193.204 Y132.642 E9.51861
G0 F15000 X193.204 Y132.942
G1 F1800 X183.363 Y123.101 E9.59631
G0 F15000 X183.064 Y123.101
G1 F1800 X193.204 Y133.242 E9.67637
G0 F15000 X193.204 Y133.541
G1 F1800 X182.764 Y123.101 E9.7588
G0 F15000 X182.464 Y123.101
G1 F1800 X193.204 Y133.841 E9.8436
G0 F15000 X193.204 Y134.141
G1 F1800 X182.164 Y123.101 E9.93077
G0 F15000 X181.864 Y123.101
G1 F1800 X193.204 Y134.441 E10.0203
G0 F15000 X193.204 Y134.741
G1 F1800 X181.565 Y123.101 E10.1122
G0 F15000 X181.265 Y123.101
G1 F1800 X193.204 Y135.04 E10.20647
G0 F15000 X193.204 Y135.34
G1 F1800 X180.965 Y123.101 E10.3031
G0 F15000 X180.665 Y123.101
G1 F1800 X193.204 Y135.64 E10.4021
G0 F15000 X193.204 Y135.94
G1 F1800 X180.365 Y123.101 E10.50347
G0 F15000 X180.065 Y123.101
G1 F1800 X193.204 Y136.24 E10.60721
G0 F15000 X193.204 Y136.539
G1 F1800 X179.766 Y123.101 E10.71331
G0 F15000 X179.466 Y123.101
G1 F1800 X193.204 Y136.839 E10.82178
G0 F15000 X193.204 Y137.139
G1 F1800 X179.166 Y123.101 E10.93262
G0 F15000 X178.866 Y123.101
G1 F1800 X193.204 Y137.439 E11.04582
G0 F15000 X193.204 Y137.739
G1 F1800 X178.566 Y123.101 E11.1614
G0 F15000 X178.267 Y123.101
G1 F1800 X193.204 Y138.039 E11.27934
G0 F15000 X193.204 Y138.338
G1 F1800 X177.967 Y123.101 E11.39964
G0 F15000 X177.667 Y123.101
G1 F1800 X193.204 Y138.638 E11.52231
G0 F15000 X193.204 Y138.938
G1 F1800 X177.367 Y123.101 E11.64735
G0 F15000 X177.067 Y123.101
G1 F1800 X193.204 Y139.238 E11.77476
G0 F15000 X193.204 Y139.538
G1 F1800 X176.768 Y123.101 E11.90454
G0 F15000 X176.468 Y123.101
G1 F1800 X193.204 Y139.837 E12.03668
G0 F15000 X192.967 Y139.9
G1 F1800 X176.168 Y123.101 E12.16932
G0 F15000 X175.868 Y123.101
G1 F1800 X192.667 Y139.9 E12.30195
G0 F15000 X192.367 Y139.9
G1 F1800 X175.568 Y123.101 E12.43459
G0 F15000 X175.268 Y123.101
G1 F1800 X192.067 Y139.9 E12.56723
G0 F15000 X191.767 Y139.9
G1 F1800 X174.969 Y123.101 E12.69986
G0 F15000 X174.669 Y123.101
G1 F1800 X191.468 Y139.9 E12.8325
G0 F15000 X191.168 Y139.9
G1 F1800 X174.369 Y123.101 E12.96513
G0 F15000 X174.069 Y123.101
G1 F1800 X190.868 Y139.9 E13.09777
G0 F15000 X190.568 Y139.9
G1 F1800 X173.769 Y123.101 E13.23041
G0 F15000 X173.47 Y123.101
G1 F1800 X190.268 Y139.9 E13.36304
G0 F15000 X189.968 Y139.9
G1 F1800 X173.17 Y123.101 E13.49567
G0 F15000 X172.87 Y123.101
G1 F1800 X189.669 Y139.9 E13.62831
G0 F15000 X189.369 Y139.9
G1 F1800 X172.57 Y123.101 E13.76094
G0 F15000 X172.27 Y123.101
G1 F1800 X189.069 Y139.9 E13.89358
G0 F15000 X188.769 Y139.9
G1 F1800 X171.97 Y123.101 E14.02622
G0 F15000 X171.671 Y123.101
G1 F1800 X188.469 Y139.9 E14.15885
G0 F15000 X188.17 Y139.9
G1 F1800 X171.371 Y123.101 E14.29149
G0 F15000 X171.071 Y123.101
G1 F1800 X187.87 Y139.9 E14.42412
G0 F15000 X187.57 Y139.9
G1 F1800 X170.771 Y123.101 E14.55676
G0 F15000 X170.471 Y123.101
G1 F1800 X187.27 Y139.9 E14.6894
G0 F15000 X186.97 Y139.9
G1 F1800 X170.172 Y123.101 E14.82203
G0 F15000 X169.872 Y123.101
G1 F1800 X186.671 Y139.9 E14.95467
G0 F15000 X186.371 Y139.9
G1 F1800 X169.572 Y123.101 E15.0873
G0 F15000 X169.272 Y123.101
G1 F1800 X186.071 Y139.9 E15.21994
G0 F15000 X185.771 Y139.9
G1 F1800 X168.972 Y123.101 E15.35258
G0 F15000 X168.673 Y123.101
G1 F1800 X185.471 Y139.9 E15.48521
G0 F15000 X185.172 Y139.9
G1 F1800 X168.373 Y123.101 E15.61785
G0 F15000 X168.073 Y123.101
G1 F1800 X184.872 Y139.9 E15.75048
G0 F15000 X184.573 Y139.9
G1 F1800 X167.773 Y123.101 E15.88313
G0 F15000 X167.473 Y123.101
G1 F1800 X184.273 Y139.9 E16.01577
G0 F15000 X183.973 Y139.9
G1 F1800 X167.173 Y123.101 E16.14841
G0 F15000 X166.874 Y123.101
G1 F1800 X183.673 Y139.9 E16.28104
G0 F15000 X183.373 Y139.9
G1 F1800 X166.574 Y123.101 E16.41368
G0 F15000 X166.274 Y123.101
G1 F1800 X183.073 Y139.9 E16.54632
G0 F15000 X182.774 Y139.9
G1 F1800 X165.974 Y123.101 E16.67896
G0 F15000 X165.674 Y123.101
G1 F1800 X182.474 Y139.9 E16.8116
G0 F15000 X182.174 Y139.9
G1 F1800 X165.375 Y123.101 E16.94424
G0 F15000 X165.075 Y123.101
G1 F1800 X181.874 Y139.9 E17.07687
G0 F15000 X181.574 Y139.9
G1 F1800 X164.775 Y123.101 E17.20951
G0 F15000 X164.475 Y123.101
G1 F1800 X181.275 Y139.9 E17.34215
G0 F15000 X180.975 Y139.9
G1 F1800 X164.175 Y123.101 E17.47479
G0 F15000 X163.876 Y123.101
G1 F1800 X180.675 Y139.9 E17.60743
G0 F15000 X180.375 Y139.9
G1 F1800 X163.576 Y123.101 E17.74006
G0 F15000 X163.276 Y123.101
G1 F1800 X180.075 Y139.9 E17.8727
G0 F15000 X179.776 Y139.9
G1 F1800 X162.976 Y123.101 E18.00534
G0 F15000 X162.676 Y123.101
G1 F1800 X179.476 Y139.9 E18.13798
G0 F15000 X179.176 Y139.9
G1 F1800 X162.376 Y123.101 E18.27062
G0 F15000 X162.077 Y123.101
G1 F1800 X178.876 Y139.9 E18.40326
G0 F15000 X178.576 Y139.9
G1 F1800 X161.777 Y123.101 E18.5359
G0 F15000 X161.477 Y123.101
G1 F1800 X178.276 Y139.9 E18.66853
G0 F15000 X177.977 Y139.9
G1 F1800 X161.177 Y123.101 E18.80117
G0 F15000 X160.877 Y123.101
G1 F1800 X177.677 Y139.9 E18.93381
G0 F15000 X177.378 Y139.901
G1 F1800 X160.578 Y123.101 E19.06646
G0 F15000 X160.278 Y123.101
G1 F1800 X177.078 Y139.901 E19.1991
G0 F15000 X176.778 Y139.901
G1 F1800 X159.978 Y123.101 E19.33175
G0 F15000 X159.678 Y123.101
G1 F1800 X176.478 Y139.901 E19.46439
G0 F15000 X176.178 Y139.901
G1 F1800 X159.378 Y123.101 E19.59704
G0 F15000 X159.079 Y123.101
G1 F1800 X175.879 Y139.901 E19.72968
G0 F15000 X175.579 Y139.901
G1 F1800 X158.779 Y123.101 E19.86233
G0 F15000 X158.479 Y123.101
G1 F1800 X175.279 Y139.901 E19.99497
G0 F15000 X174.979 Y139.901
G1 F1800 X158.179 Y123.101 E20.12762
G0 F15000 X157.879 Y123.101
G1 F1800 X174.679 Y139.901 E20.26026
G0 F15000 X174.38 Y139.901
G1 F1800 X157.579 Y123.101 E20.39291
G0 F15000 X157.28 Y123.101
G1 F1800 X174.08 Y139.901 E20.52555
G0 F15000 X173.78 Y139.901
G1 F1800 X156.98 Y123.101 E20.6582
G0 F15000 X156.68 Y123.101
G1 F1800 X173.48 Y139.901 E20.79084
G0 F15000 X173.18 Y139.901
G1 F1800 X156.38 Y123.101 E20.92349
G0 F15000 X156.08 Y123.101
G1 F1800 X172.881 Y139.901 E21.05614
G0 F15000 X172.581 Y139.901
G1 F1800 X155.781 Y123.101 E21.18878
G0 F15000 X155.481 Y123.101
G1 F1800 X172.281 Y139.901 E21.32143
G0 F15000 X171.981 Y139.901
G1 F1800 X155.181 Y123.101 E21.45407
G0 F15000 X154.881 Y123.101
G1 F1800 X171.681 Y139.901 E21.58672
G0 F15000 X171.381 Y139.901
G1 F1800 X154.581 Y123.101 E21.71936
G0 F15000 X154.282 Y123.101
G1 F1800 X171.082 Y139.901 E21.85201
G0 F15000 X170.782 Y139.901
G1 F1800 X153.982 Y123.101 E21.98465
G0 F15000 X153.682 Y123.101
G1 F1800 X170.482 Y139.901 E22.11729
G0 F15000 X170.182 Y139.901
G1 F1800 X153.382 Y123.101 E22.24994
G0 F15000 X153.082 Y123.101
G1 F1800 X169.882 Y139.901 E22.38258
G0 F15000 X169.583 Y139.902
G1 F1800 X152.782 Y123.101 E22.51524
G0 F15000 X152.483 Y123.101
G1 F1800 X169.283 Y139.902 E22.64789
G0 F15000 X168.984 Y139.902
G1 F1800 X152.183 Y123.101 E22.78054
G0 F15000 X151.883 Y123.101
G1 F1800 X168.684 Y139.902 E22.91319
G0 F15000 X168.384 Y139.902
G1 F1800 X151.583 Y123.101 E23.04584
G0 F15000 X151.283 Y123.101
G1 F1800 X168.084 Y139.902 E23.1785
G0 F15000 X167.784 Y139.902
G1 F1800 X150.984 Y123.101 E23.31114
G0 F15000 X150.684 Y123.101
G1 F1800 X167.485 Y139.902 E23.4438
G0 F15000 X167.185 Y139.902
G1 F1800 X150.384 Y123.101 E23.57645
G0 F15000 X150.084 Y123.101
G1 F1800 X166.885 Y139.902 E23.7091
G0 F15000 X166.585 Y139.902
G1 F1800 X149.784 Y123.101 E23.84175
G0 F15000 X149.484 Y123.101
G1 F1800 X166.285 Y139.902 E23.97441
G0 F15000 X165.986 Y139.902
G1 F1800 X149.185 Y123.101 E24.10706
G0 F15000 X148.885 Y123.101
G1 F1800 X165.686 Y139.902 E24.23971
G0 F15000 X165.386 Y139.902
G1 F1800 X148.585 Y123.101 E24.37236
G0 F15000 X148.285 Y123.101
G1 F1800 X165.086 Y139.902 E24.50502
G0 F15000 X164.786 Y139.902
G1 F1800 X147.985 Y123.101 E24.63767
G0 F15000 X147.686 Y123.101
G1 F1800 X164.486 Y139.902 E24.77032
G0 F15000 X164.187 Y139.902
G1 F1800 X147.386 Y123.101 E24.90297
G0 F15000 X147.086 Y123.101
G1 F1800 X163.887 Y139.902 E25.03562
G0 F15000 X163.587 Y139.902
G1 F1800 X146.786 Y123.101 E25.16828
G0 F15000 X146.486 Y123.101
G1 F1800 X163.287 Y139.902 E25.30093
G0 F15000 X162.987 Y139.902
G1 F1800 X146.187 Y123.101 E25.43358
G0 F15000 X145.887 Y123.101
G1 F1800 X162.688 Y139.902 E25.56623
G0 F15000 X162.388 Y139.902
G1 F1800 X145.587 Y123.101 E25.69888
G0 F15000 X145.287 Y123.101
G1 F1800 X162.088 Y139.902 E25.83154
G0 F15000 X161.788 Y139.902
G1 F1800 X144.987 Y123.101 E25.96419
G0 F15000 X144.687 Y123.101
G1 F1800 X161.489 Y139.902 E26.09684
G0 F15000 X161.189 Y139.902
G1 F1800 X144.388 Y123.101 E26.2295
G0 F15000 X144.088 Y123.101
G1 F1800 X160.889 Y139.902 E26.36215
G0 F15000 X160.59 Y139.902
G1 F1800 X143.788 Y123.101 E26.49481
G0 F15000 X143.488 Y123.101
G1 F1800 X160.29 Y139.902 E26.62746
G0 F15000 X159.99 Y139.902
G1 F1800 X143.188 Y123.101 E26.76012
G0 F15000 X142.889 Y123.101
G1 F1800 X159.69 Y139.902 E26.89277
G0 F15000 X159.39 Y139.902
G1 F1800 X142.589 Y123.101 E27.02542
G0 F15000 X142.289 Y123.101
G1 F1800 X159.091 Y139.902 E27.15808
G0 F15000 X158.791 Y139.902
G1 F1800 X141.989 Y123.101 E27.29074
G0 F15000 X141.689 Y123.101
G1 F1800 X158.491 Y139.902 E27.42339
G0 F15000 X158.191 Y139.902
G1 F1800 X141.39 Y123.101 E27.55605
G0 F15000 X141.09 Y123.101
G1 F1800 X157.891 Y139.902 E27.6887
G0 F15000 X157.591 Y139.902
G1 F1800 X140.79 Y123.101 E27.82135
G0 F15000 X140.49 Y123.101
G1 F1800 X157.292 Y139.902 E27.95401
G0 F15000 X156.992 Y139.902
G1 F1800 X140.19 Y123.101 E28.08666
G0 F15000 X139.89 Y123.101
G1 F1800 X156.692 Y139.902 E28.21932
G0 F15000 X156.392 Y139.902
G1 F1800 X139.591 Y123.101 E28.35197
G0 F15000 X139.291 Y123.101
G1 F1800 X156.092 Y139.902 E28.48463
G0 F15000 X155.793 Y139.902
G1 F1800 X138.991 Y123.101 E28.61728
G0 F15000 X138.691 Y123.101
G1 F1800 X155.493 Y139.902 E28.74994
G0 F15000 X155.193 Y139.902
G1 F1800 X138.391 Y123.101 E28.8826
G0 F15000 X138.092 Y123.101
G1 F1800 X154.893 Y139.902 E29.01525
G0 F15000 X154.593 Y139.902
G1 F1800 X137.792 Y123.101 E29.1479
G0 F15000 X137.492 Y123.101
G1 F1800 X154.294 Y139.902 E29.28056
G0 F15000 X153.994 Y139.902
G1 F1800 X137.192 Y123.101 E29.41321
G0 F15000 X136.892 Y123.101
