;FLAVOR:Marlin
;TIME:766
;Filament used: 0.0928181m, 0.0930804m
;Layer height: 0.2
;MINX:89.072
;MINY:87.42
;MINZ:0.16
;MAXX:213.815
;MAXY:214.061
;MAXZ:20.001
;TARGET_MACHINE.NAME:Syncraft IDEX
;Generated with Cura_SteamEngine 5.7.2
T0
M104 S210
M105
M109 S210
M105
M109 T1 S100
M82 ;absolute extrusion mode
;Filament weight = [0.7342332592773438, 0.7363083520507812]
;Nozzle diameter = 0.4
M605 S0
M900 P0.4 S80
BREAK_CLEAN P=50
G21 ; set units to millimeters
G90 ; use absolute positioning
M82 ; absolute extrusion mode
M104 T1 S150 ; set extruder temp
M140 S60 ; set bed temp
G28 Z ; home z
M109 S150
G28 XY; home XY
START_GCODE
set_temperature_layer L0=<TEMPERATURE_LAYER_ZERO_VALUE> L1=<TEMPERATURE_LAYER_ONE_VALUE>
PRIME_ROUTINE
G92 E0
T0
G92 E0
G1 F2700 E-6.5
;LAYER_COUNT:4
G0 F30000 X150 Y150
;LAYER:0
M107
G1 F600 Z2.16
G0 F15000 X168.07 Y162.987 Z2.16
;TYPE:SKIRT
G1 F600 Z0.16
G1 F1200 E0
G1 F1800 X166.169 Y165.647 E0.02295
G1 X165.733 Y166.176 E0.02776
G1 X164.743 Y166.889 E0.03632
G1 X163.691 Y167.624 E0.04533
G1 X161.5 Y169.248 E0.06447
G1 X159.346 Y170.942 E0.0837
G1 X157.224 Y172.71 E0.10309
G1 X155.181 Y174.513 E0.12221
G1 X153.168 Y176.393 E0.14154
G1 X151.237 Y178.3 E0.16059
G1 X149.348 Y180.276 E0.17978
G1 X147.497 Y182.325 E0.19916
G1 X145.708 Y184.421 E0.2185
G1 X144.005 Y186.533 E0.23754
G1 X142.343 Y188.722 E0.25683
G1 X140.732 Y190.97 E0.27624
G1 X139.217 Y193.218 E0.29527
G1 X137.743 Y195.542 E0.31459
G1 X136.347 Y197.889 E0.33375
G1 X135.009 Y200.289 E0.35304
G1 X133.741 Y202.726 E0.37232
G1 X132.547 Y205.184 E0.3915
G1 X131.421 Y207.682 E0.41073
G1 X130.339 Y210.278 E0.43047
G1 X129.613 Y212.114 E0.44433
G1 X129.229 Y212.655 E0.44898
G1 X128.478 Y213.304 E0.45595
G1 X127.56 Y213.683 E0.46292
G1 X126.869 Y213.774 E0.46781
G1 X106.918 Y213.775 E0.60784
G1 X106.019 Y213.762 E0.61415
G1 X102.587 Y213.265 E0.63849
G1 X99.889 Y212.958 E0.65755
G1 X97.125 Y212.721 E0.67702
G1 X93.933 Y212.54 E0.69946
G1 X93.297 Y212.345 E0.70413
G1 X92.85 Y212.125 E0.70762
G1 X92.09 Y211.487 E0.71459
G1 X91.57 Y210.641 E0.72156
G1 X91.418 Y210.166 E0.72506
G1 X91.327 Y209.475 E0.72995
G1 X91.326 Y130.777 E1.2823
G1 X91.286 Y127.975 E1.30197
G1 X91.171 Y125.255 E1.32107
G1 X90.978 Y122.533 E1.34023
G1 X90.706 Y119.793 E1.35955
G1 X90.357 Y117.061 E1.37888
G1 X89.935 Y114.376 E1.39796
G1 X89.432 Y111.631 E1.41755
G1 X89.659 Y108.386 E1.44038
G1 X89.772 Y105.662 E1.45951
G1 X89.809 Y102.901 E1.47889
G1 X89.768 Y100.147 E1.49822
G1 X89.651 Y97.438 E1.51725
G1 X89.333 Y93.278 E1.54654
G1 X89.441 Y92.621 E1.55121
G1 X89.833 Y91.708 E1.55818
G1 X90.183 Y91.255 E1.5622
G1 X91.191 Y90.246 E1.57221
G1 X91.788 Y89.898 E1.57706
G1 X92.253 Y89.72 E1.58056
G1 X92.891 Y89.602 E1.58511
G1 X95.967 Y89.364 E1.60676
G1 X98.657 Y89.076 E1.62575
G1 X101.382 Y88.707 E1.64505
G1 X104.107 Y88.258 E1.66443
G1 X106.967 Y87.707 E1.68488
G1 X107.766 Y87.749 E1.69049
G1 X110.434 Y88.476 E1.7099
G1 X113.131 Y89.134 E1.72939
G1 X115.796 Y89.703 E1.74851
G1 X118.471 Y90.198 E1.76761
G1 X121.196 Y90.622 E1.78696
G1 X123.899 Y90.965 E1.80608
G1 X126.642 Y91.234 E1.82543
G1 X129.361 Y91.424 E1.84456
G1 X132.078 Y91.535 E1.86364
G1 X134.772 Y91.572 E1.88255
G1 X208.558 Y91.572 E2.40043
G1 X209.591 Y91.587 E2.40768
G1 X210.234 Y91.755 E2.41234
G1 X210.69 Y91.956 E2.41584
G1 X211.477 Y92.562 E2.42281
G1 X212.032 Y93.385 E2.42978
G1 X212.204 Y93.853 E2.43328
G1 X212.314 Y94.521 E2.43803
G1 X212.391 Y95.952 E2.44809
G1 X212.581 Y98.66 E2.46714
G1 X212.854 Y101.414 E2.48657
G1 X213.199 Y104.13 E2.50578
G1 X213.327 Y104.946 E2.51158
G1 X213.487 Y106.058 E2.51946
G1 X213.528 Y106.737 E2.52424
G1 X213.529 Y126.409 E2.66231
G1 X213.514 Y127.469 E2.66975
G1 X213.347 Y128.116 E2.67444
G1 X212.875 Y128.989 E2.6814
G1 X212.151 Y129.669 E2.68837
G1 X211.533 Y129.992 E2.69327
G1 X208.533 Y131.194 E2.71595
G1 X206.002 Y132.299 E2.73534
G1 X203.53 Y133.462 E2.75451
G1 X201.065 Y134.708 E2.7739
G1 X198.677 Y136.001 E2.79295
G1 X196.297 Y137.379 E2.81226
G1 X193.98 Y138.808 E2.83136
G1 X191.69 Y140.311 E2.85059
G1 X189.427 Y141.891 E2.86996
G1 X187.223 Y143.525 E2.88922
G1 X185.071 Y145.215 E2.90842
G1 X182.962 Y146.973 E2.92769
G1 X180.929 Y148.764 E2.94671
G1 X178.898 Y150.658 E2.9662
G1 X176.96 Y152.574 E2.98533
G1 X175.073 Y154.545 E3.00448
G1 X173.228 Y156.587 E3.02379
G1 X171.432 Y158.69 E3.0432
G1 X169.745 Y160.784 E3.06208
G1 X168.07 Y162.987 E3.0815
;MESH:EXTRUDER_ONE.STL
G0 F15000 X163.522 Y163.77
;TYPE:WALL-OUTER
G1 F1800 X163.522 Y128.35 E3.3075
G1 X162.974 Y128.35 E3.311
G1 X162.973 Y163.131 E3.53292
G1 X162.887 Y163.217 E3.53369
G1 X128.102 Y163.218 E3.75564
G1 X128.102 Y163.77 E3.75916
G1 X163.522 Y163.77 E3.98516
G0 F15000 X163.522 Y163.645
G0 X163.299 Y163.547
;TYPE:WALL-INNER
G1 F1661.1 X163.305 Y163.385 E3.98627
G1 F1324.5 X163.248 Y163.143 E3.98836
G1 F1292.8 X163.1 Y163.347 E3.99052
G1 F1282.6 X162.868 Y163.494 E3.99289
G1 X163.299 Y163.547 E3.99665
G0 F15000 X163.248 Y163.143
M104 T1 S205
G1 F1069.3 X163.248 Y128.624 E4.34572
G0 F15000 X163.146 Y163.393
G0 X162.868 Y163.494
G1 F1054.6 X128.378 Y163.494 E4.69866
G1 F2700 E-1.80134
G1 F600 Z2.16
G0 F15000 X155.895 Y142.809 Z2.16
;TYPE:WALL-OUTER
G1 F600 Z0.16
G1 F1200 E4.69866
G1 F1800 X156.253 Y142.79 E4.70094
G1 X156.83 Y142.611 E4.7048
G1 X157.184 Y142.385 E4.70748
G1 X157.384 Y142.177 E4.70932
G1 X157.55 Y141.845 E4.71169
G1 X157.633 Y141.574 E4.7135
G1 X157.738 Y141.55 E4.71418
G1 F1472.6 X157.862 Y141.586 E4.71517
G1 X158.03 Y142.034 E4.71883
G1 F1800 X158.244 Y142.288 E4.72095
G1 X158.714 Y142.613 E4.72459
G1 X159.065 Y142.745 E4.72698
G1 X159.406 Y142.806 E4.7292
G1 X160.059 Y142.753 E4.73338
G1 X160.504 Y142.568 E4.73645
G1 X160.929 Y142.219 E4.73996
G1 X161.116 Y141.947 E4.74207
G1 X161.319 Y141.357 E4.74605
G1 X161.398 Y140.447 E4.75187
G1 X161.398 Y137.502 E4.77067
G1 X160.71 Y137.502 E4.77506
G1 X160.707 Y140.838 E4.79634
G1 X160.621 Y141.387 E4.79989
G1 X160.464 Y141.725 E4.80226
G1 X160.196 Y141.994 E4.80469
G1 X159.953 Y142.126 E4.80645
G1 X159.44 Y142.214 E4.80977
G1 X159.072 Y142.165 E4.81214
G1 X158.679 Y141.992 E4.81488
G1 F1466.1 X158.204 Y141.603 E4.81959
G1 X157.991 Y141.104 E4.82376
G1 F1800 X157.902 Y140.774 E4.82594
G1 X157.818 Y140.134 E4.83006
G1 X157.818 Y137.502 E4.84685
G1 X157.126 Y137.502 E4.85127
G1 X157.127 Y140.401 E4.86976
G1 X157.067 Y141.191 E4.87482
G1 X156.991 Y141.483 E4.87674
G1 X156.769 Y141.842 E4.87944
G1 X156.558 Y142.018 E4.88119
G1 X156.132 Y142.192 E4.88413
G1 X155.836 Y142.213 E4.88602
G1 X155.369 Y142.125 E4.88905
G1 F1621.5 X154.829 Y141.804 E4.89346
G1 X154.498 Y141.312 E4.89761
G1 F1800 X154.299 Y140.667 E4.90192
G1 X154.238 Y139.896 E4.90686
G1 X154.238 Y137.502 E4.92213
G1 X153.546 Y137.502 E4.92655
G1 X153.546 Y142.718 E4.95983
G1 X154.238 Y142.718 E4.96424
G1 X154.238 Y141.932 E4.96926
G1 X154.287 Y141.842 E4.96991
G1 F1533.3 X154.496 Y141.84 E4.97145
G1 X154.631 Y142.26 E4.97471
G1 F1800 X154.912 Y142.541 E4.97724
G1 X155.33 Y142.713 E4.98013
G1 X155.895 Y142.809 E4.98378
G0 F15000 X156.019 Y142.803
G0 X155.916 Y142.606
;TYPE:WALL-INNER
G1 F1972.6 X156.216 Y142.587 E4.98555
G1 F1828.4 X156.739 Y142.414 E4.98901
G1 F1669.2 X157.042 Y142.211 E4.9915
G1 F1583.7 X157.197 Y142.045 E4.99313
G1 F1606.2 X157.34 Y141.772 E4.99531
G1 F1763.3 X157.393 Y141.575 E4.99664
G1 F1838.1 X157.508 Y141.403 E4.99793
G1 F1800 X157.75 Y141.338 E4.99953
G1 X157.935 Y141.457 E5.00093
G1 X157.794 Y141.187 E5.00288
G1 X157.701 Y140.844 E5.00514
G1 F1669.2 X157.593 Y140.164 E5.00985
G1 F1561.7 X157.592 Y137.728 E5.02752
G1 F1569 X157.352 Y137.728 E5.02925
G1 F1561.7 X157.353 Y140.179 E5.04703
G1 F1505.8 X157.361 Y140.411 E5.04877
G1 F1613.8 X157.273 Y141.244 E5.05467
G1 F1728 X157.134 Y141.675 E5.05767
G1 F1645 X156.93 Y141.996 E5.0603
G1 F1685.6 X156.644 Y142.216 E5.06274
G1 F1828.4 X156.177 Y142.391 E5.06588
G1 F1994.9 X155.857 Y142.414 E5.06774
G1 F2064.7 X155.536 Y142.359 E5.06958
G1 F1392.1 X155.277 Y142.389 E5.07167
G1 X155.504 Y142.541 E5.07387
G1 F2041 X155.916 Y142.606 E5.07624
G0 F15000 X155.915 Y142.564
G0 X156.639 Y142.189
G0 X157.491 Y141.144
G0 X157.561 Y141.126
G1 F1374.7 X157.544 Y141.154 E5.07651
G1 X157.495 Y141.126 E5.07696
G1 X157.544 Y141.098 E5.07742
G0 F15000 X158.214 Y141.879
G1 F1346.4 X158.417 Y142.098 E5.07989
G1 F1135.9 X158.842 Y142.367 E5.08472
G1 F1047.4 X159.04 Y142.44 E5.0869
G0 F15000 X159.423 Y142.605
G1 F1918.8 X160.003 Y142.548 E5.0904
G1 F1781.5 X160.392 Y142.382 E5.09313
G1 F1685.6 X160.764 Y142.068 E5.09642
G1 F1621.5 X160.915 Y141.846 E5.09831
G1 F1606.2 X161.099 Y141.311 E5.10231
G1 F1591.1 X161.172 Y140.433 E5.10859
G1 F1576.3 X161.173 Y137.727 E5.12806
G1 F1583.7 X160.935 Y137.727 E5.12976
G1 F1621.5 X160.933 Y140.784 E5.1512
G1 F1693.9 X160.825 Y141.457 E5.1558
G1 X160.608 Y141.896 E5.1591
G1 F1702.3 X160.284 Y142.193 E5.16205
G1 F1781.5 X159.958 Y142.342 E5.16435
G1 F1918.8 X159.434 Y142.415 E5.16754
G1 F2064.7 X159.296 Y142.395 E5.16832
G1 F1410 X159.04 Y142.44 E5.17039
G1 X159.268 Y142.578 E5.17251
G1 F2064.7 X159.423 Y142.605 E5.17339
G0 F15000 X159.422 Y142.563
G0 X158.187 Y141.936
G0 X157.872 Y141.343
G0 X156.848 Y142.345
G0 X155.277 Y142.389
G1 F979.6 X155.078 Y142.292 E5.1758
G0 F15000 X154.61 Y141.715
G0 X154.074 Y141.457
G0 X153.791 Y142.492
G0 X153.772 Y142.492
G1 F1569 X154.012 Y142.492 E5.17754
G1 X154.012 Y141.932 E5.18158
G1 F1677.3 X154.174 Y141.663 E5.18372
G1 F1800 X154.321 Y141.612 E5.18471
G1 X154.5 Y141.68 E5.18593
G1 X154.296 Y141.375 E5.18827
G1 F1561.7 X154.057 Y140.676 E5.19363
G1 F1466.1 X154.012 Y139.923 E5.19942
G1 F1569 X154.012 Y137.728 E5.21528
G1 X153.772 Y137.728 E5.21701
G1 X153.773 Y139.932 E5.23293
G1 F1466.1 X153.788 Y140.686 E5.23872
G1 F1561.7 X153.758 Y141.433 E5.24414
G1 F1677.3 X153.772 Y142.492 E5.25135
G0 F15000 X153.791 Y142.492
G0 X153.984 Y141.11
G0 X154.071 Y141.433
G1 F1084.3 X154.05 Y141.468 E5.25175
G1 X153.989 Y141.433 E5.25246
G1 X154.05 Y141.398 E5.25316
G1 F2700 E-1.24684
G1 F600 Z2.16
G0 F15000 X151.658 Y131.074 Z2.16
;TYPE:WALL-OUTER
G1 F600 Z0.16
G1 F1200 E5.25316
G1 F1800 X154.206 Y131.074 E5.26942
G1 X154.206 Y130.538 E5.27284
G1 X151.658 Y130.538 E5.28909
G1 X151.658 Y131.074 E5.29251
G0 F15000 X151.783 Y131.074
G0 X151.926 Y130.806
;TYPE:WALL-INNER
G1 F1115.6 X153.938 Y130.806 E5.31213
G1 F2700 E-1.18787
G1 F600 Z2.16
G0 F15000 X149.951 Y142.808 Z2.16
;TYPE:WALL-OUTER
G1 F600 Z0.16
G1 F1200 E5.31213
G1 F1800 X150.519 Y142.733 E5.31579
G1 X150.899 Y142.567 E5.31844
G1 X151.165 Y142.372 E5.32054
G1 X151.349 Y142.173 E5.32227
G1 X151.623 Y141.673 E5.32591
G1 X151.734 Y141.195 E5.32904
G1 X151.782 Y140.545 E5.3332
G1 X151.785 Y137.502 E5.35261
G1 X151.098 Y137.502 E5.357
G1 X151.094 Y140.552 E5.37646
G1 X151.052 Y141.173 E5.38043
G1 X150.975 Y141.485 E5.38248
G1 X150.844 Y141.735 E5.38428
G1 X150.579 Y141.998 E5.38666
G1 X150.318 Y142.133 E5.38854
G1 X149.837 Y142.214 E5.39165
G1 X149.437 Y142.158 E5.39423
G1 X149.073 Y141.995 E5.39677
G1 F1621.5 X148.516 Y141.506 E5.40197
G1 X148.294 Y140.782 E5.40728
G1 F1800 X148.206 Y140.074 E5.41183
G1 X148.206 Y137.502 E5.42824
G1 X147.514 Y137.502 E5.43266
G1 X147.514 Y140.406 E5.45119
G1 X147.434 Y141.306 E5.45695
G1 X147.339 Y141.58 E5.4588
G1 X147.084 Y141.91 E5.46146
G1 X146.855 Y142.069 E5.46324
G1 X146.52 Y142.192 E5.46552
G1 X146.224 Y142.213 E5.46741
G1 X145.757 Y142.125 E5.47044
G1 F1485.7 X145.176 Y141.795 E5.47551
G1 X144.883 Y141.31 E5.47981
G1 F1800 X144.702 Y140.762 E5.48349
G1 X144.626 Y140.16 E5.48736
G1 X144.626 Y137.502 E5.50432
G1 X143.934 Y137.502 E5.50874
G1 X143.934 Y142.718 E5.54202
G1 X144.626 Y142.718 E5.54643
G1 X144.626 Y141.936 E5.55142
G1 X144.675 Y141.846 E5.55208
G1 F1540.3 X144.884 Y141.848 E5.55361
G1 X145.015 Y142.26 E5.55679
G1 F1800 X145.3 Y142.541 E5.55934
G1 X145.718 Y142.713 E5.56223
G1 X146.283 Y142.809 E5.56588
G1 X146.652 Y142.79 E5.56824
G1 X147.004 Y142.703 E5.57055
G1 X147.35 Y142.537 E5.573
G1 X147.74 Y142.216 E5.57622
G1 X147.854 Y142.042 E5.57755
G1 X147.993 Y141.6 E5.58051
G1 X148.051 Y141.555 E5.58098
G1 F1505.8 X148.248 Y141.592 E5.58248
G1 X148.383 Y141.954 E5.58537
G1 F1800 X148.585 Y142.241 E5.58761
G1 X148.729 Y142.374 E5.58886
G1 X149.179 Y142.647 E5.59222
G1 X149.446 Y142.744 E5.59403
G1 X149.951 Y142.808 E5.59728
G0 F15000 X150.074 Y142.792
G0 X149.951 Y142.602
;TYPE:WALL-INNER
G1 F1887.8 X150.462 Y142.529 E5.60044
G1 F1781.5 X150.791 Y142.378 E5.60277
G1 F1693.9 X151.169 Y142.043 E5.60617
G1 F1653 X151.415 Y141.593 E5.60971
G1 F1629.3 X151.513 Y141.161 E5.6128
G1 F1598.6 X151.556 Y140.574 E5.61698
G1 F1583.7 X151.56 Y137.727 E5.63737
G1 X151.323 Y137.727 E5.63907
G1 X151.319 Y140.567 E5.65942
G1 F1606.2 X151.276 Y141.17 E5.66369
G1 F1637.1 X151.196 Y141.522 E5.6662
G1 F1669.2 X151.015 Y141.871 E5.66889
G1 F1719.4 X150.707 Y142.172 E5.67175
G1 F1790.7 X150.396 Y142.329 E5.67398
G1 F1961.6 X149.846 Y142.412 E5.67727
G1 F2113.8 X149.675 Y142.392 E5.67821
G1 F1416 X149.414 Y142.439 E5.68031
G1 X149.652 Y142.572 E5.68247
G1 F2041 X149.951 Y142.602 E5.68418
G0 F15000 X149.414 Y142.439
G1 F1131.7 X148.942 Y142.211 E5.68923
G1 F1272.5 X148.772 Y142.078 E5.69111
G1 F1466.1 X148.562 Y141.829 E5.69361
G0 F15000 X148.542 Y141.844
G0 X148.274 Y141.352
G0 X147.707 Y141.82
G0 X146.303 Y142.564
G0 X146.304 Y142.606
G1 F1961.6 X146.621 Y142.586 E5.69548
G1 F1838.1 X146.931 Y142.501 E5.69749
G1 F1719.4 X147.232 Y142.351 E5.69973
G1 F1606.2 X147.568 Y142.062 E5.70286
G1 F1576.3 X147.854 Y141.419 E5.70793
G1 F1247.8 X147.965 Y141.286 E5.70946
G1 F1005.8 X148.138 Y141.268 E5.71131
G1 X148.014 Y140.817 E5.7163
G1 F1233.3 X147.98 Y140.06 E5.72307
G1 F1569 X147.98 Y137.728 E5.73991
G1 X147.74 Y137.728 E5.74165
G1 X147.741 Y140.116 E5.7589
G1 F1380.4 X147.768 Y141.015 E5.76618
G1 F1479.1 X147.528 Y141.676 E5.77153
G1 F1772.4 X147.206 Y142.093 E5.77494
G1 F1763.3 X146.934 Y142.268 E5.77704
G1 F1857.7 X146.58 Y142.389 E5.77936
G1 F1983.7 X146.245 Y142.414 E5.78133
G1 F2064.7 X145.924 Y142.359 E5.78316
G1 F1392.1 X145.665 Y142.389 E5.78525
G1 X145.892 Y142.541 E5.78745
G1 F2041 X146.304 Y142.606 E5.78982
G0 F15000 X145.665 Y142.389
G1 F1002.4 X145.461 Y142.297 E5.79221
G1 F1084.3 X145.235 Y142.116 E5.79511
G0 F15000 X144.4 Y142.492
G1 F1569 X144.4 Y141.936 E5.79912
G1 F1677.3 X144.562 Y141.667 E5.80126
G1 F1800 X144.709 Y141.616 E5.80225
G1 X144.886 Y141.687 E5.80347
G1 X144.724 Y141.46 E5.80525
G1 F1526.3 X144.458 Y140.794 E5.81056
G1 F1434.5 X144.4 Y140.16 E5.81554
G1 F1569 X144.4 Y137.728 E5.8331
G1 X144.16 Y137.728 E5.83484
G1 F1561.7 X144.161 Y140.218 E5.8529
G1 F1428.3 X144.18 Y140.811 E5.85756
G1 F1526.3 X144.146 Y141.438 E5.86221
G1 F1677.3 X144.16 Y142.492 E5.86938
G1 F1569 X144.4 Y142.492 E5.87111
G0 F15000 X144.382 Y142.492
G0 X144.364 Y141.107
G0 X144.458 Y141.438
G1 F1084.3 X144.437 Y141.473 E5.87152
G1 X144.376 Y141.438 E5.87222
G1 X144.437 Y141.403 E5.87293
G0 F15000 X140.666 Y144.602
;TYPE:WALL-OUTER
G1 F1800 X140.666 Y137.502 E5.91823
G1 X139.974 Y137.502 E5.92264
G1 X139.973 Y143.919 E5.96359
G1 X139.887 Y144.005 E5.96436
G1 X138.933 Y144.006 E5.97045
G1 X139.267 Y144.602 E5.97481
G1 X140.666 Y144.602 E5.98374
G0 F15000 X140.666 Y144.477
G0 X140.439 Y144.349
;TYPE:WALL-INNER
G1 F1485.7 X140.44 Y137.728 E6.03395
G1 F1569 X140.2 Y137.728 E6.03569
G1 F1561.7 X140.197 Y143.958 E6.08087
G1 F1392.1 X140.153 Y144.117 E6.0822
G1 F1547.4 X139.922 Y144.205 E6.08401
G1 F1994.9 X139.278 Y144.208 E6.08775
G1 F2006.3 X139.385 Y144.4 E6.08902
G1 F1661.1 X140.439 Y144.349 E6.09626
G1 F2700 E-0.40374
G1 F600 Z2.16
G0 F15000 X136.03 Y138.567 Z2.16
;TYPE:WALL-OUTER
G1 F600 Z0.16
G1 F1200 E6.09626
G1 F1800 X136.347 Y138.504 E6.09832
G1 X136.55 Y138.352 E6.09994
G1 X136.69 Y138.104 E6.10176
G1 X136.69 Y137.868 E6.10326
G1 X136.605 Y137.689 E6.10453
G1 X136.396 Y137.497 E6.10634
G1 X136.199 Y137.427 E6.10767
G1 X135.86 Y137.438 E6.10984
G1 X135.674 Y137.536 E6.11118
G1 X135.499 Y137.759 E6.11299
G1 X135.452 Y137.978 E6.11442
G1 X135.541 Y138.296 E6.11652
G1 X135.786 Y138.514 E6.11861
G1 X136.03 Y138.567 E6.12021
G0 F15000 X136.152 Y138.543
G0 X136.032 Y138.351
;TYPE:WALL-INNER
