;FLAVOR:Marlin
;TIME:582
;Filament used: 0.16561m, 0.0376458m
;Layer height: 0.2
;MINX:123.92
;MINY:118.51
;MINZ:0.16
;MAXX:197.802
;MAXY:192.395
;MAXZ:20.001
;TARGET_MACHINE.NAME:Syncraft IDEX
;Generated with Cura_SteamEngine 5.7.2
T0
M104 S215
M105
M109 S215
M105
M109 T1 S100
M82 ;absolute extrusion mode
;Filament weight = [1.3100507666015626, 0.2977954150390625]
;Nozzle diameter = 0.25
M605 S0
M900 P0.25 S75
BREAK_CLEAN P=50
G21 ; set units to millimeters
G90 ; use absolute positioning
M82 ; absolute extrusion mode
M104 T1 S150 ; set extruder temp
M140 S60 ; set bed temp
G28 Z ; home z
M109 S150
G28 XY; home XY
START_GCODE
set_temperature_layer L0=<TEMPERATURE_LAYER_ZERO_VALUE> L1=<TEMPERATURE_LAYER_ONE_VALUE>
PRIME_ROUTINE
G92 E0
T0
G92 E0
G1 F2700 E-6.5
;LAYER_COUNT:4
G0 F30000 X150 Y150
;LAYER:0
M107
G1 F600 Z2.16
G0 F15000 X165.815 Y165.341 Z2.16
;TYPE:SKIRT
G1 F600 Z0.16
G1 F1200 E0
G1 F1320 X163.994 Y167.353 E0.06109
G1 X162.213 Y169.437 E0.12281
G1 X160.483 Y171.582 E0.18484
G1 X158.853 Y173.724 E0.24544
G1 X157.235 Y175.98 E0.30794
G1 X155.713 Y178.235 E0.36919
G1 X154.251 Y180.536 E0.43056
G1 X152.852 Y182.884 E0.49209
G1 X151.522 Y185.268 E0.55355
G1 X150.253 Y187.697 E0.61524
G1 X148.956 Y190.36 E0.68193
G1 X148.517 Y190.897 E0.69754
G1 X147.699 Y191.523 E0.72073
G1 X146.536 Y191.939 E0.74854
G1 X128.377 Y191.939 E1.15734
G1 X127.336 Y191.926 E1.18078
G1 X126.663 Y191.758 E1.19639
G1 X125.749 Y191.285 E1.21956
G1 X125.021 Y190.555 E1.24277
G1 X124.551 Y189.639 E1.26595
G1 X124.374 Y188.586 E1.28999
G1 X124.373 Y121.922 E2.79076
G1 X124.756 Y120.779 E2.8179
G1 X125.522 Y119.734 E2.84707
G1 X126.675 Y119.143 E2.87623
G1 X127.72 Y118.967 E2.90009
G1 X193.347 Y118.966 E4.37752
G1 X194.388 Y118.981 E4.40096
G1 X195.368 Y119.227 E4.4237
G1 X196.366 Y119.961 E4.45159
G1 X196.971 Y120.795 E4.47479
G1 X197.345 Y121.931 E4.50171
G1 X197.346 Y140.013 E4.90878
G1 X197.331 Y141.088 E4.93299
G1 X197.163 Y141.757 E4.94851
G1 X196.593 Y142.858 E4.97642
G1 X195.803 Y143.531 E4.99979
G1 X194.223 Y144.302 E5.03937
G1 X191.793 Y145.529 E5.10065
G1 X189.362 Y146.844 E5.16287
G1 X187.021 Y148.198 E5.22375
G1 X184.681 Y149.641 E5.28564
G1 X182.394 Y151.143 E5.34724
G1 X180.17 Y152.695 E5.40829
G1 X177.957 Y154.332 E5.47026
G1 X175.788 Y156.036 E5.53236
G1 X173.721 Y157.757 E5.59291
G1 X171.665 Y159.568 E5.65459
G1 X169.66 Y161.437 E5.7163
G1 X167.703 Y163.368 E5.77819
G1 X165.815 Y165.341 E5.83967
G1 F2700 E-0.66033
G1 F600 Z2.16
;MESH:EXTRUDER_ONE.STL
G0 F15000 X145.768 Y188.256 Z2.16
;TYPE:WALL-OUTER
G1 F600 Z0.16
G1 F1200 E5.83967
G1 F1320 X145.769 Y140.594 E6.81511
G1 X146.052 Y140.364 E6.82258
G1 X193.664 Y140.36 E7.797
G1 X193.664 Y122.644 E8.15957
G1 X128.052 Y122.644 E9.50238
G1 X128.052 Y188.256 E10.84519
G1 X145.768 Y188.256 E11.20776
G0 F15000 X145.768 Y187.856
G0 X145.088 Y187.576
;TYPE:WALL-INNER
G1 F1320 X145.091 Y140.615 E12.16886
G1 X145.289 Y140.09 E12.18034
G1 X145.498 Y139.881 E12.18639
G1 X146.023 Y139.683 E12.19788
G1 X192.984 Y139.68 E13.15898
G1 X192.984 Y123.324 E13.49372
G1 X128.732 Y123.324 E14.80869
G1 X128.732 Y187.576 E16.12366
G1 X145.088 Y187.576 E16.4584
G0 F15000 X144.408 Y186.896
G1 F1320 X144.413 Y140.559 E17.40673
G1 X144.671 Y139.79 E17.42333
G1 X145.432 Y139.139 E17.44383
G1 X145.967 Y139.005 E17.45512
G1 X192.304 Y139 E18.40344
G1 X192.304 Y124.004 E18.71035
G1 X129.412 Y124.004 E19.99749
G1 X129.412 Y186.896 E21.28463
G1 X144.408 Y186.896 E21.59154
G0 F15000 X143.888 Y186.376
;TYPE:SKIN
G1 F1320 X143.89 Y140.533 E22.41248
G1 X144.312 Y139.373 E22.43458
G1 X145.214 Y138.666 E22.4551
G1 X145.82 Y138.485 E22.46643
G1 X191.784 Y138.48 E23.28954
G1 X191.784 Y124.524 E23.53946
G1 X129.932 Y124.524 E24.64708
G1 X129.932 Y186.376 E25.7547
G1 X143.888 Y186.376 E26.00462
G0 F15000 X144.328 Y186.376
G0 X129.341 Y186.971
G0 X129.341 Y123.934
G0 X192.378 Y123.934
G0 X191.444 Y125.089
G1 F1320 X191.219 Y124.864 E26.01032
G0 F15000 X190.258 Y124.864
G1 F1320 X191.444 Y126.051 E26.04037
G0 F15000 X191.444 Y127.013
G1 F1320 X189.296 Y124.864 E26.09478
G0 F15000 X188.334 Y124.864
G1 F1320 X191.444 Y127.974 E26.17354
G0 F15000 X191.444 Y128.936
G1 F1320 X187.373 Y124.864 E26.27666
G0 F15000 X186.411 Y124.864
G1 F1320 X191.444 Y129.898 E26.40413
G0 F15000 X191.444 Y130.859
G1 F1320 X185.449 Y124.864 E26.55595
G0 F15000 X184.488 Y124.864
G1 F1320 X191.444 Y131.821 E26.73213
G0 F15000 X191.444 Y132.783
G1 F1320 X183.526 Y124.864 E26.93267
G0 F15000 X182.564 Y124.864
G1 F1320 X191.444 Y133.744 E27.15756
G0 F15000 X191.444 Y134.706
G1 F1320 X181.603 Y124.864 E27.40679
G0 F15000 X180.641 Y124.864
G1 F1320 X191.444 Y135.668 E27.6804
G0 F15000 X191.444 Y136.629
G1 F1320 X179.679 Y124.864 E27.97835
G0 F15000 X178.718 Y124.864
G1 F1320 X191.444 Y137.591 E28.30065
G0 F15000 X191.031 Y138.14
G1 F1320 X177.756 Y124.864 E28.63685
G0 F15000 X176.794 Y124.864
G1 F1320 X190.07 Y138.14 E28.97307
G0 F15000 X189.108 Y138.14
G1 F1320 X175.833 Y124.864 E29.30928
G0 F15000 X174.871 Y124.864
G1 F1320 X188.146 Y138.14 E29.64548
G0 F15000 X187.185 Y138.14
G1 F1320 X173.909 Y124.864 E29.9817
G0 F15000 X172.948 Y124.864
G1 F1320 X186.223 Y138.14 E30.31791
G0 F15000 X185.261 Y138.14
G1 F1320 X171.986 Y124.864 E30.65411
G0 F15000 X171.024 Y124.864
G1 F1320 X184.3 Y138.14 E30.99033
G0 F15000 X183.338 Y138.14
G1 F1320 X170.063 Y124.864 E31.32653
G0 F15000 X169.101 Y124.864
G1 F1320 X182.376 Y138.14 E31.66274
G0 F15000 X181.415 Y138.14
G1 F1320 X168.139 Y124.864 E31.99896
G0 F15000 X167.178 Y124.864
G1 F1320 X180.453 Y138.14 E32.33516
G0 F15000 X179.491 Y138.14
G1 F1320 X166.216 Y124.864 E32.67137
G0 F15000 X165.254 Y124.864
G1 F1320 X178.53 Y138.14 E33.00759
G0 F15000 X177.568 Y138.14
G1 F1320 X164.293 Y124.864 E33.34379
G0 F15000 X163.331 Y124.864
G1 F1320 X176.606 Y138.14 E33.68
G0 F15000 X175.645 Y138.14
G1 F1320 X162.369 Y124.864 E34.01621
G0 F15000 X161.408 Y124.864
G1 F1320 X174.683 Y138.14 E34.35242
G0 F15000 X173.721 Y138.14
G1 F1320 X160.446 Y124.864 E34.68862
G0 F15000 X159.484 Y124.864
G1 F1320 X172.76 Y138.14 E35.02484
G0 F15000 X171.798 Y138.14
G1 F1320 X158.523 Y124.864 E35.36105
G0 F15000 X157.561 Y124.864
G1 F1320 X170.836 Y138.14 E35.69725
G0 F15000 X169.875 Y138.14
G1 F1320 X156.599 Y124.864 E36.03347
G0 F15000 X155.638 Y124.864
G1 F1320 X168.913 Y138.14 E36.36968
G0 F15000 X167.951 Y138.14
G1 F1320 X154.676 Y124.864 E36.70588
G0 F15000 X153.714 Y124.864
G1 F1320 X166.99 Y138.14 E37.0421
G0 F15000 X166.028 Y138.14
M104 T1 S195
G1 F1320 X152.753 Y124.864 E37.3783
G0 F15000 X151.791 Y124.864
G1 F1320 X165.066 Y138.14 E37.71451
G0 F15000 X164.105 Y138.14
G1 F1320 X150.829 Y124.864 E38.05073
G0 F15000 X149.868 Y124.864
G1 F1320 X163.143 Y138.14 E38.38693
G0 F15000 X162.181 Y138.14
G1 F1320 X148.906 Y124.864 E38.72314
G0 F15000 X147.944 Y124.864
G1 F1320 X161.22 Y138.14 E39.05936
G0 F15000 X160.258 Y138.14
G1 F1320 X146.983 Y124.864 E39.39556
G0 F15000 X146.021 Y124.864
G1 F1320 X159.296 Y138.14 E39.73177
G0 F15000 X158.335 Y138.14
G1 F1320 X145.059 Y124.864 E40.06798
G0 F15000 X144.098 Y124.864
G1 F1320 X157.373 Y138.14 E40.40419
G0 F15000 X156.411 Y138.14
G1 F1320 X143.136 Y124.864 E40.74039
G0 F15000 X142.174 Y124.864
G1 F1320 X155.45 Y138.14 E41.07661
G0 F15000 X154.488 Y138.14
G1 F1320 X141.213 Y124.864 E41.41282
G0 F15000 X140.251 Y124.864
G1 F1320 X153.526 Y138.14 E41.74902
G0 F15000 X152.565 Y138.14
G1 F1320 X139.289 Y124.864 E42.08524
G0 F15000 X138.328 Y124.864
G1 F1320 X151.603 Y138.14 E42.42145
G0 F15000 X150.641 Y138.14
G1 F1320 X137.366 Y124.864 E42.75765
G0 F15000 X136.404 Y124.864
G1 F1320 X149.68 Y138.14 E43.09387
G0 F15000 X148.718 Y138.14
G1 F1320 X135.443 Y124.864 E43.43007
G0 F15000 X134.481 Y124.864
G1 F1320 X147.756 Y138.14 E43.76628
G0 F15000 X146.795 Y138.14
G1 F1320 X133.519 Y124.864 E44.1025
G0 F15000 X132.558 Y124.864
G1 F1320 X145.833 Y138.14 E44.4387
G0 F15000 X145.079 Y138.348
G1 F1320 X131.596 Y124.864 E44.78018
G0 F15000 X130.634 Y124.864
G1 F1320 X144.535 Y138.765 E45.13222
G0 F15000 X144.014 Y139.205
G1 F1320 X130.272 Y125.463 E45.48024
G0 F15000 X130.272 Y126.425
G1 F1320 X143.756 Y139.91 E45.82174
G0 F15000 X143.552 Y140.667
G1 F1320 X130.272 Y127.387 E46.15806
G0 F15000 X130.272 Y128.348
G1 F1320 X143.552 Y141.629 E46.49439
G0 F15000 X143.552 Y142.59
G1 F1320 X130.272 Y129.31 E46.83071
G0 F15000 X130.272 Y130.272
G1 F1320 X143.552 Y143.552 E47.16703
G0 F15000 X143.552 Y144.514
G1 F1320 X130.272 Y131.233 E47.50336
G0 F15000 X130.272 Y132.195
G1 F1320 X143.552 Y145.475 E47.83968
G0 F15000 X143.552 Y146.437
G1 F1320 X130.272 Y133.157 E48.176
G0 F15000 X130.272 Y134.118
G1 F1320 X143.552 Y147.399 E48.51233
G0 F15000 X143.551 Y148.359
G1 F1320 X130.272 Y135.08 E48.84862
G0 F15000 X130.272 Y136.042
G1 F1320 X143.551 Y149.321 E49.18492
G0 F15000 X143.551 Y150.283
G1 F1320 X130.272 Y137.003 E49.52123
G0 F15000 X130.272 Y137.965
G1 F1320 X143.551 Y151.244 E49.85752
G0 F15000 X143.551 Y152.206
G1 F1320 X130.272 Y138.927 E50.19381
G0 F15000 X130.272 Y139.888
G1 F1320 X143.551 Y153.168 E50.53012
G0 F15000 X143.551 Y154.129
G1 F1320 X130.272 Y140.85 E50.86641
G0 F15000 X130.272 Y141.812
G1 F1320 X143.551 Y155.091 E51.20271
G0 F15000 X143.55 Y156.052
G1 F1320 X130.272 Y142.773 E51.53899
G0 F15000 X130.272 Y143.735
G1 F1320 X143.55 Y157.014 E51.87527
G0 F15000 X143.55 Y157.975
G1 F1320 X130.272 Y144.697 E52.21154
G0 F15000 X130.272 Y145.658
G1 F1320 X143.55 Y158.937 E52.54782
G0 F15000 X143.55 Y159.899
G1 F1320 X130.272 Y146.62 E52.8841
G0 F15000 X130.272 Y147.582
G1 F1320 X143.55 Y160.86 E53.22037
G0 F15000 X143.55 Y161.822
G1 F1320 X130.272 Y148.543 E53.55665
G0 F15000 X130.272 Y149.505
G1 F1320 X143.55 Y162.784 E53.89293
G0 F15000 X143.55 Y163.745
G1 F1320 X130.272 Y150.467 E54.2292
G0 F15000 X130.272 Y151.428
G1 F1320 X143.55 Y164.706 E54.56547
G0 F15000 X143.55 Y165.668
G1 F1320 X130.272 Y152.39 E54.90174
G0 F15000 X130.272 Y153.352
G1 F1320 X143.55 Y166.63 E55.23801
G0 F15000 X143.55 Y167.591
G1 F1320 X130.272 Y154.313 E55.57427
G0 F15000 X130.272 Y155.275
G1 F1320 X143.55 Y168.553 E55.91054
G0 F15000 X143.55 Y169.515
G1 F1320 X130.272 Y156.237 E56.24681
G0 F15000 X130.272 Y157.198
G1 F1320 X143.55 Y170.476 E56.58308
G0 F15000 X143.549 Y171.437
G1 F1320 X130.272 Y158.16 E56.91932
G0 F15000 X130.272 Y159.122
G1 F1320 X143.549 Y172.399 E57.25557
G0 F15000 X143.549 Y173.361
G1 F1320 X130.272 Y160.083 E57.59182
G0 F15000 X130.272 Y161.045
G1 F1320 X143.549 Y174.322 E57.92807
G0 F15000 X143.549 Y175.284
G1 F1320 X130.272 Y162.007 E58.26431
G0 F15000 X130.272 Y162.968
G1 F1320 X143.549 Y176.246 E58.60056
G0 F15000 X143.549 Y177.207
G1 F1320 X130.272 Y163.93 E58.93681
G0 F15000 X130.272 Y164.892
M104 S195
G1 F1320 X143.549 Y178.169 E59.27305
G0 F15000 X143.548 Y179.13
G1 F1320 X130.272 Y165.853 E59.60928
G0 F15000 X130.272 Y166.815
G1 F1320 X143.548 Y180.092 E59.94551
G0 F15000 X143.548 Y181.053
G1 F1320 X130.272 Y167.777 E60.28173
G0 F15000 X130.272 Y168.738
G1 F1320 X143.548 Y182.015 E60.61796
G0 F15000 X143.548 Y182.977
G1 F1320 X130.272 Y169.7 E60.95419
G0 F15000 X130.272 Y170.662
G1 F1320 X143.548 Y183.938 E61.29041
G0 F15000 X143.548 Y184.9
G1 F1320 X130.272 Y171.623 E61.62664
G0 F15000 X130.272 Y172.585
G1 F1320 X143.548 Y185.862 E61.96287
G0 F15000 X142.761 Y186.036
G1 F1320 X130.272 Y173.547 E62.27916
G0 F15000 X130.272 Y174.508
G1 F1320 X141.8 Y186.036 E62.57111
G0 F15000 X140.838 Y186.036
G1 F1320 X130.272 Y175.47 E62.83869
G0 F15000 X130.272 Y176.432
G1 F1320 X139.876 Y186.036 E63.08192
G0 F15000 X138.915 Y186.036
G1 F1320 X130.272 Y177.393 E63.3008
G0 F15000 X130.272 Y178.355
G1 F1320 X137.953 Y186.036 E63.49533
G0 F15000 X136.991 Y186.036
G1 F1320 X130.272 Y179.317 E63.66549
G0 F15000 X130.272 Y180.278
G1 F1320 X136.03 Y186.036 E63.81131
G0 F15000 X135.068 Y186.036
G1 F1320 X130.272 Y181.24 E63.93277
G0 F15000 X130.272 Y182.202
G1 F1320 X134.106 Y186.036 E64.02987
G0 F15000 X133.145 Y186.036
G1 F1320 X130.272 Y183.163 E64.10263
G0 F15000 X130.272 Y184.125
G1 F1320 X132.183 Y186.036 E64.15102
G0 F15000 X131.221 Y186.036
G1 F1320 X130.272 Y185.087 E64.17506
G1 F1200 E39.17506
G1 F600 Z2.16
G92 E0
T1
G92 E0
T1
M105
M109 S195
M104 T0 S200
G1 F2700 E-6.5
;MESH:NONMESH
G0 F15000 X150 Y150 Z2.16
G1 F600 Z2.16
G0 F15000 X166.145 Y165.656
M104 S210
;TYPE:SKIRT
G1 F600 Z0.16
G1 F1200 E0
G1 F1800 X164.339 Y167.651 E0.01889
G1 X162.566 Y169.726 E0.03804
G1 X160.846 Y171.859 E0.05727
G1 X159.214 Y174.002 E0.07618
G1 X157.613 Y176.235 E0.09547
G1 X156.096 Y178.482 E0.11449
G1 X154.643 Y180.769 E0.13351
G1 X153.251 Y183.107 E0.15261
G1 X151.916 Y185.497 E0.17182
G1 X150.663 Y187.897 E0.19082
G1 X149.343 Y190.607 E0.21198
G1 X148.839 Y191.224 E0.21757
G1 X147.91 Y191.933 E0.22577
G1 X146.605 Y192.395 E0.23549
G1 X128.372 Y192.395 E0.36346
G1 X127.274 Y192.381 E0.37117
G1 X126.502 Y192.189 E0.37675
G1 X125.472 Y191.653 E0.3849
G1 X124.647 Y190.823 E0.39311
G1 X124.111 Y189.777 E0.40136
G1 X123.924 Y188.662 E0.4093
G1 X123.92 Y121.836 E0.87832
G1 X124.349 Y120.565 E0.88774
G1 X125.218 Y119.377 E0.89807
G1 X126.537 Y118.703 E0.90847
G1 X127.644 Y118.517 E0.91634
G1 X193.354 Y118.51 E1.37754
G1 X194.447 Y118.526 E1.38521
G1 X195.575 Y118.815 E1.39338
G1 X196.697 Y119.641 E1.40316
G1 X197.383 Y120.589 E1.41137
G1 X197.801 Y121.865 E1.4208
G1 X197.802 Y140.019 E1.54821
G1 X197.786 Y141.146 E1.55612
G1 X197.591 Y141.922 E1.56174
G1 X196.944 Y143.158 E1.57153
G1 X196.055 Y143.915 E1.57973
G1 X194.422 Y144.712 E1.59248
G1 X192.01 Y145.93 E1.61144
G1 X189.581 Y147.244 E1.63083
G1 X187.259 Y148.587 E1.64965
G1 X184.929 Y150.024 E1.66887
G1 X182.643 Y151.525 E1.68806
G1 X180.431 Y153.069 E1.70699
G1 X178.236 Y154.692 E1.72615
G1 X176.08 Y156.386 E1.7454
G1 X174.022 Y158.1 E1.7642
G1 X171.974 Y159.904 E1.78335
G1 X169.971 Y161.77 E1.80256
G1 X168.033 Y163.683 E1.82168
G1 X166.145 Y165.656 E1.84084
M104 S190
G0 F600 X166.145 Y165.656 Z0.36
G0 F15000 X165.815 Y165.341
;TIME_ELAPSED:175.509184
;LAYER:1
G1 F1200 E-23.15916
G1 F600 Z2.36
G92 E0
T0
G92 E0
T0
M105
M109 S200
M104 T1 S100
M106 S85
G0 F22500 X165.815 Y165.341 Z2.36
M104 S210
;TYPE:SKIRT
G1 F600 Z0.36
G1 F1200 E25
G1 F1320 X163.994 Y167.353 E25.07487
G1 X162.213 Y169.437 E25.1505
G1 X160.483 Y171.582 E25.22653
G1 X158.853 Y173.724 E25.30079
G1 X157.235 Y175.98 E25.37738
G1 X155.713 Y178.235 E25.45244
G1 X154.251 Y180.536 E25.52765
G1 X152.852 Y182.884 E25.60305
G1 X151.522 Y185.268 E25.67837
G1 X150.253 Y187.697 E25.75397
G1 X148.956 Y190.36 E25.83569
G1 X148.517 Y190.897 E25.85483
G1 X147.699 Y191.523 E25.88325
G1 X146.536 Y191.939 E25.91732
G1 X128.377 Y191.939 E26.41831
G1 X127.336 Y191.926 E26.44703
G1 X126.663 Y191.758 E26.46617
G1 X125.749 Y191.285 E26.49456
G1 X125.021 Y190.555 E26.52301
G1 X124.551 Y189.639 E26.55141
G1 X124.374 Y188.586 E26.58087
G1 X124.373 Y121.922 E28.42005
G1 X124.756 Y120.779 E28.45331
G1 X125.522 Y119.734 E28.48905
G1 X126.675 Y119.143 E28.5248
G1 X127.72 Y118.967 E28.55403
G1 X193.347 Y118.966 E30.3646
G1 X194.388 Y118.981 E30.39333
G1 X195.368 Y119.227 E30.4212
G1 X196.366 Y119.961 E30.45538
G1 X196.971 Y120.795 E30.48381
G1 X197.345 Y121.931 E30.5168
G1 X197.346 Y140.013 E31.01566
G1 X197.331 Y141.088 E31.04533
G1 X197.163 Y141.757 E31.06436
G1 X196.593 Y142.858 E31.09856
G1 X195.803 Y143.531 E31.12719
G1 X194.223 Y144.302 E31.17569
G1 X191.793 Y145.529 E31.2508
G1 X189.362 Y146.844 E31.32705
G1 X187.021 Y148.198 E31.40166
G1 X184.681 Y149.641 E31.47751
G1 X182.394 Y151.143 E31.55299
G1 X180.17 Y152.695 E31.62781
G1 X177.957 Y154.332 E31.70376
G1 X175.788 Y156.036 E31.77985
G1 X173.721 Y157.757 E31.85406
G1 X171.665 Y159.568 E31.92965
G1 X169.66 Y161.437 E32.00527
G1 X167.703 Y163.368 E32.08112
G1 X165.815 Y165.341 E32.15646
G1 F2700 E25.65646
G1 F600 Z2.36
;MESH:EXTRUDER_ONE.STL
G0 F22500 X145.708 Y188.196 Z2.36
;TYPE:WALL-OUTER
G1 F600 Z0.36
G1 F1200 E32.15646
G1 F3000 X145.713 Y140.63 E33.34945
G1 X145.846 Y140.397 E33.35618
G1 X146.074 Y140.301 E33.36238
G1 X193.604 Y140.3 E34.55447
G1 X193.604 Y132.287 E34.75544
G1 F2160 X193.604 Y130.723 E34.79467
G1 F3000 X193.604 Y122.704 E34.99579
