;FLAVOR:Marlin
;TIME:476
;Filament used: 0.25573m, 0.066608m
;Layer height: 0.2
;MINX:123.683
;MINY:118.276
;MINZ:0.5
;MAXX:198.036
;MAXY:192.629
;MAXZ:20.001
;TARGET_MACHINE.NAME:Syncraft IDEX
;Generated with Cura_SteamEngine 5.7.2
T0
M104 S215
M105
M109 S215
M105
M109 T1 S100
M82 ;absolute extrusion mode
;Filament weight = [2.0229381494140624, 0.5268992651367188]
;Nozzle diameter = 0.8
M605 S0
M900 P0.8 S55
BREAK_CLEAN P=50
G21 ; set units to millimeters
G90 ; use absolute positioning
M82 ; absolute extrusion mode
M104 T1 S150 ; set extruder temp
M140 S60 ; set bed temp
G28 Z ; home z
M109 S150
G28 XY; home XY
START_GCODE
set_temperature_layer L0=<TEMPERATURE_LAYER_ZERO_VALUE> L1=<TEMPERATURE_LAYER_ONE_VALUE>
PRIME_ROUTINE
G92 E0
T0
G92 E0
G1 F2700 E-6.5
;LAYER_COUNT:3
G0 F30000 X150 Y150
;LAYER:0
M107
G1 F600 Z2.5
G0 F15000 X165.815 Y165.341 Z2.5
;TYPE:SKIRT
G1 F600 Z0.5
G1 F1200 E0
G1 F1320 X163.994 Y167.353 E0.19091
G1 X162.213 Y169.437 E0.38377
G1 X160.483 Y171.582 E0.57764
G1 X158.853 Y173.724 E0.767
G1 X157.235 Y175.98 E0.96231
G1 X155.713 Y178.235 E1.15371
G1 X154.251 Y180.536 E1.3455
G1 X152.852 Y182.884 E1.53778
G1 X151.522 Y185.268 E1.72984
G1 X150.253 Y187.697 E1.92264
G1 X148.956 Y190.36 E2.13102
G1 X148.517 Y190.897 E2.17982
G1 X147.699 Y191.523 E2.25228
G1 X146.536 Y191.939 E2.33918
G1 X128.377 Y191.939 E3.61669
G1 X127.336 Y191.926 E3.68993
G1 X126.663 Y191.758 E3.73873
G1 X125.749 Y191.285 E3.81113
G1 X125.021 Y190.555 E3.88366
G1 X124.551 Y189.639 E3.95609
G1 X124.374 Y188.586 E4.03121
G1 X124.373 Y121.922 E8.72112
G1 X124.756 Y120.779 E8.80593
G1 X125.522 Y119.734 E8.89708
G1 X126.675 Y119.143 E8.98823
G1 X127.72 Y118.967 E9.06279
G1 X193.347 Y118.966 E13.67974
G1 X194.388 Y118.981 E13.75299
G1 X195.368 Y119.227 E13.82407
G1 X196.366 Y119.961 E13.91122
G1 X196.971 Y120.795 E13.98371
G1 X197.345 Y121.931 E14.06785
G1 X197.346 Y140.013 E15.33994
G1 X197.331 Y141.088 E15.41558
G1 X197.163 Y141.757 E15.46411
G1 X196.593 Y142.858 E15.55133
G1 X195.803 Y143.531 E15.62434
G1 X194.223 Y144.302 E15.74802
G1 X191.793 Y145.529 E15.93953
G1 X189.362 Y146.844 E16.13398
G1 X187.021 Y148.198 E16.32423
G1 X184.681 Y149.641 E16.51764
G1 X182.394 Y151.143 E16.71013
G1 X180.17 Y152.695 E16.90092
G1 X177.957 Y154.332 E17.09458
G1 X175.788 Y156.036 E17.28863
G1 X173.721 Y157.757 E17.47785
G1 X171.665 Y159.568 E17.6706
G1 X169.66 Y161.437 E17.86344
G1 X167.703 Y163.368 E18.05685
G1 X165.815 Y165.341 E18.24897
G1 F2700 E11.74897
G1 F600 Z2.5
;MESH:EXTRUDER_ONE.STL
G0 F15000 X145.768 Y188.256 Z2.5
;TYPE:WALL-OUTER
G1 F600 Z0.5
G1 F1200 E18.24897
G1 F1320 X145.769 Y140.594 E21.29723
G1 X146.052 Y140.364 E21.32056
G1 X193.664 Y140.36 E24.36563
G1 X193.664 Y122.644 E25.49867
G1 X128.052 Y122.644 E29.69494
G1 X128.052 Y188.256 E33.89122
G1 X145.768 Y188.256 E35.02426
G0 F15000 X145.768 Y187.856
G0 X145.088 Y187.576
;TYPE:WALL-INNER
G1 F1320 X145.091 Y140.615 E38.02769
G1 X145.289 Y140.09 E38.06358
G1 X145.498 Y139.881 E38.08248
G1 X146.023 Y139.683 E38.11837
G1 X192.984 Y139.68 E41.1218
G1 X192.984 Y123.324 E42.16786
G1 X128.732 Y123.324 E46.27715
G1 X128.732 Y187.576 E50.38645
G1 X145.088 Y187.576 E51.43251
G0 F15000 X144.408 Y186.896
G1 F1320 X144.413 Y140.559 E54.39604
G1 X144.671 Y139.79 E54.44791
G1 X145.432 Y139.139 E54.51196
G1 X145.967 Y139.005 E54.54723
G1 X192.304 Y139 E57.51076
G1 X192.304 Y124.004 E58.46984
G1 X129.412 Y124.004 E62.49216
G1 X129.412 Y186.896 E66.51447
G1 X144.408 Y186.896 E67.47355
G0 F15000 X144.053 Y186.541
;TYPE:SKIN
G1 F1320 X144.055 Y140.568 E68.98691
G1 X144.444 Y139.487 E69.02473
G1 X145.286 Y138.814 E69.06021
G1 X145.858 Y138.646 E69.07984
G1 X191.949 Y138.645 E70.59708
G1 X191.949 Y132.499 E70.7994
G1 X185.003 Y132.499 E71.02805
G1 X185.003 Y134.379 E71.08994
G1 X184.859 Y134.501 E71.09615
G1 X184.209 Y134.396 E71.11783
G1 X184.209 Y132.499 E71.18027
G1 X181.195 Y132.499 E71.27949
G1 X181.195 Y134.344 E71.34022
G1 X181.051 Y134.501 E71.34724
G1 X180.401 Y134.396 E71.36891
G1 X180.401 Y132.499 E71.43136
G1 X177.387 Y132.499 E71.53057
G1 X177.387 Y134.344 E71.59131
G1 X177.243 Y134.501 E71.59832
G1 X176.593 Y134.396 E71.62
G1 X176.593 Y132.499 E71.68244
G1 X173.579 Y132.499 E71.78166
G1 X173.579 Y134.344 E71.84239
G1 X173.435 Y134.501 E71.84941
G1 X172.785 Y134.396 E71.87108
G1 X172.785 Y132.499 E71.93353
G1 X169.771 Y132.499 E72.03274
G1 X169.771 Y134.344 E72.09348
G1 X169.627 Y134.501 E72.10049
G1 X168.981 Y134.396 E72.12204
G1 X168.981 Y132.499 E72.18448
G1 X166.263 Y132.499 E72.27395
G1 X166.221 Y132.859 E72.28588
G1 X165.963 Y132.928 E72.29468
G1 X165.963 Y134.344 E72.34129
G1 X165.819 Y134.501 E72.3483
G1 X165.173 Y134.396 E72.36985
G1 X165.173 Y132.929 E72.41814
G1 X164.908 Y132.86 E72.42715
G1 X164.85 Y132.499 E72.43919
G1 X162.155 Y132.499 E72.5279
G1 X162.155 Y134.344 E72.58864
G1 X162.011 Y134.501 E72.59565
G1 X161.365 Y134.396 E72.6172
G1 X161.365 Y132.499 E72.67964
G1 X158.347 Y132.499 E72.77899
G1 X158.347 Y134.344 E72.83972
G1 X158.203 Y134.501 E72.84674
G1 X157.557 Y134.396 E72.86828
G1 X157.557 Y132.499 E72.93073
G1 X154.539 Y132.499 E73.03008
G1 X154.539 Y134.344 E73.09081
G1 X154.395 Y134.501 E73.09782
G1 X153.749 Y134.396 E73.11937
G1 X153.749 Y132.499 E73.18181
G1 X150.731 Y132.499 E73.28116
G1 X150.731 Y134.344 E73.3419
G1 X150.587 Y134.501 E73.34891
G1 X149.941 Y134.396 E73.37045
G1 X149.941 Y132.499 E73.4329
G1 X146.927 Y132.499 E73.53212
G1 X146.927 Y134.344 E73.59285
G1 X146.783 Y134.501 E73.59986
G1 X146.275 Y134.5 E73.61659
G1 X146.133 Y134.345 E73.62351
G1 X146.135 Y128.644 E73.81117
G1 X146.277 Y128.503 E73.81776
G1 X146.927 Y128.608 E73.83944
G1 X146.927 Y130.505 E73.90188
G1 X149.941 Y130.505 E74.0011
G1 X149.941 Y128.604 E74.06368
G1 X150.085 Y128.503 E74.06947
G1 X150.731 Y128.608 E74.09101
G1 X150.731 Y130.505 E74.15346
G1 X153.749 Y130.505 E74.25281
G1 X153.749 Y128.547 E74.31726
G1 X154.428 Y128.512 E74.33964
G1 X154.539 Y128.608 E74.34447
G1 X154.539 Y130.505 E74.40692
G1 X157.557 Y130.505 E74.50627
G1 X157.557 Y128.547 E74.57072
G1 X158.236 Y128.512 E74.5931
G1 X158.347 Y128.608 E74.59793
G1 X158.347 Y130.505 E74.66038
G1 X161.365 Y130.505 E74.75973
G1 X161.365 Y128.547 E74.82418
G1 X162.044 Y128.512 E74.84656
G1 X162.155 Y128.608 E74.85139
G1 X162.155 Y130.505 E74.91384
G1 X164.873 Y130.505 E75.00331
G1 X164.908 Y129.975 E75.0208
G1 X165.173 Y129.895 E75.02991
G1 X165.173 Y128.547 E75.07428
G1 X165.852 Y128.512 E75.09667
G1 X165.963 Y128.608 E75.1015
G1 X165.963 Y129.896 E75.1439
G1 X166.232 Y129.974 E75.15311
G1 X166.282 Y130.505 E75.17067
G1 X168.981 Y130.505 E75.25952
G1 X168.981 Y128.547 E75.32397
G1 X169.66 Y128.512 E75.34635
G1 X169.771 Y128.608 E75.35119
G1 X169.771 Y130.505 E75.41363
G1 X172.785 Y130.505 E75.51285
G1 X172.785 Y128.604 E75.57543
G1 X172.929 Y128.503 E75.58122
G1 X173.579 Y128.608 E75.60289
G1 X173.579 Y130.505 E75.66534
G1 X176.593 Y130.505 E75.76455
G1 X176.593 Y128.604 E75.82713
G1 X176.737 Y128.503 E75.83292
G1 X177.387 Y128.608 E75.8546
G1 X177.387 Y130.505 E75.91704
G1 X180.401 Y130.505 E76.01626
G1 X180.401 Y128.604 E76.07884
G1 X180.545 Y128.503 E76.08463
G1 X181.195 Y128.608 E76.1063
G1 X181.195 Y130.505 E76.16875
G1 X184.209 Y130.505 E76.26796
G1 X184.209 Y128.604 E76.33054
G1 X184.885 Y128.51 E76.35301
G1 X185.003 Y128.625 E76.35843
G1 X185.003 Y130.505 E76.42032
G1 X191.949 Y130.505 E76.64897
G1 X191.949 Y124.359 E76.85129
G1 X129.767 Y124.359 E78.89822
G1 X129.767 Y186.541 E80.94516
G1 X135.913 Y186.541 E81.14748
G1 X135.913 Y179.595 E81.37613
G1 X134.033 Y179.595 E81.43802
G1 X133.911 Y179.451 E81.44423
G1 X134.016 Y178.801 E81.4659
G1 X135.913 Y178.801 E81.52835
G1 X135.913 Y175.787 E81.62757
G1 X134.068 Y175.787 E81.6883
G1 X133.911 Y175.643 E81.69531
G1 X134.016 Y174.997 E81.71686
G1 X135.913 Y174.997 E81.7793
G1 X135.913 Y171.979 E81.87865
G1 X134.068 Y171.979 E81.93939
G1 X133.911 Y171.835 E81.9464
G1 X134.016 Y171.189 E81.96794
G1 X135.913 Y171.189 E82.03039
G1 X135.913 Y168.171 E82.12974
G1 X134.068 Y168.171 E82.19047
G1 X133.911 Y168.027 E82.19749
G1 X134.016 Y167.381 E82.21903
G1 X135.913 Y167.381 E82.28148
G1 X135.913 Y164.363 E82.38082
G1 X134.068 Y164.363 E82.44156
G1 X133.911 Y164.219 E82.44857
G1 X134.016 Y163.573 E82.47012
G1 X135.913 Y163.573 E82.53256
G1 X135.913 Y160.855 E82.62203
G1 X135.466 Y160.817 E82.6368
G1 X135.392 Y160.555 E82.64576
G1 X134.068 Y160.555 E82.68935
G1 X133.911 Y160.411 E82.69636
G1 X134.016 Y159.765 E82.71791
G1 X135.394 Y159.765 E82.76327
G1 X135.469 Y159.496 E82.77246
G1 X135.913 Y159.443 E82.78718
G1 X135.913 Y156.747 E82.87593
G1 X134.068 Y156.747 E82.93666
G1 X133.911 Y156.603 E82.94368
G1 X134.016 Y155.957 E82.96522
G1 X135.913 Y155.957 E83.02767
G1 X135.913 Y152.943 E83.12688
G1 X134.068 Y152.943 E83.18762
G1 X133.911 Y152.799 E83.19463
G1 X134.016 Y152.149 E83.2163
G1 X135.913 Y152.149 E83.27875
G1 X135.913 Y149.135 E83.37797
G1 X134.068 Y149.135 E83.4387
G1 X133.911 Y148.991 E83.44571
G1 X134.016 Y148.341 E83.46739
G1 X135.913 Y148.341 E83.52984
G1 X135.913 Y145.327 E83.62905
G1 X134.068 Y145.327 E83.68979
G1 X133.911 Y145.183 E83.6968
G1 X134.016 Y144.533 E83.71847
G1 X135.913 Y144.533 E83.78092
G1 X135.913 Y141.519 E83.88014
G1 X134.068 Y141.519 E83.94087
G1 X133.911 Y141.375 E83.94788
G1 X133.918 Y140.843 E83.9654
G1 X134.052 Y140.727 E83.97123
G1 X139.785 Y140.731 E84.15995
G1 X139.91 Y140.876 E84.16626
G1 X139.808 Y141.519 E84.18769
G1 X137.907 Y141.519 E84.25026
G1 X137.907 Y144.533 E84.34948
G1 X139.804 Y144.533 E84.41193
G1 X139.909 Y145.183 E84.4336
G1 X139.808 Y145.327 E84.43939
G1 X137.907 Y145.327 E84.50197
G1 X137.907 Y148.341 E84.60119
G1 X139.804 Y148.341 E84.66363
G1 X139.909 Y148.991 E84.68531
G1 X139.808 Y149.135 E84.6911
G1 X137.907 Y149.135 E84.75367
G1 X137.907 Y152.149 E84.85289
G1 X139.804 Y152.149 E84.91534
G1 X139.909 Y152.799 E84.93701
G1 X139.808 Y152.943 E84.9428
G1 X137.907 Y152.943 E85.00538
G1 X137.907 Y155.957 E85.1046
G1 X139.804 Y155.957 E85.16704
G1 X139.9 Y156.068 E85.17187
G1 X139.865 Y156.747 E85.19425
G1 X137.907 Y156.747 E85.25871
G1 X137.907 Y159.465 E85.34818
G1 X138.354 Y159.503 E85.36295
G1 X138.429 Y159.765 E85.37192
G1 X139.804 Y159.765 E85.41718
G1 X139.9 Y159.876 E85.42201
G1 X139.865 Y160.555 E85.4444
G1 X138.429 Y160.555 E85.49167
G1 X138.355 Y160.824 E85.50085
G1 X137.908 Y160.877 E85.51567
G1 X137.907 Y163.573 E85.60442
G1 X139.804 Y163.573 E85.66686
G1 X139.9 Y163.684 E85.67169
G1 X139.865 Y164.363 E85.69407
G1 X137.907 Y164.363 E85.75853
G1 X137.907 Y167.381 E85.85788
G1 X139.804 Y167.381 E85.92032
G1 X139.9 Y167.492 E85.92515
G1 X139.865 Y168.171 E85.94754
G1 X137.907 Y168.171 E86.01199
G1 X137.907 Y171.189 E86.11134
G1 X139.804 Y171.189 E86.17378
G1 X139.9 Y171.3 E86.17862
G1 X139.865 Y171.979 E86.201
G1 X137.907 Y171.979 E86.26545
G1 X137.907 Y174.997 E86.3648
G1 X139.804 Y174.997 E86.42725
G1 X139.909 Y175.643 E86.44879
G1 X139.808 Y175.787 E86.45458
G1 X137.907 Y175.787 E86.51716
G1 X137.907 Y178.801 E86.61637
G1 X139.804 Y178.801 E86.67882
G1 X139.909 Y179.451 E86.70049
G1 X139.787 Y179.595 E86.70671
G1 X137.907 Y179.595 E86.76859
G1 X137.907 Y186.541 E86.99725
G1 X144.053 Y186.541 E87.19956
G0 F15000 X144.168 Y186.541
G0 X129.341 Y186.971
G0 X129.341 Y123.934
G0 X192.378 Y123.934
G0 X191.774 Y124.953
G1 F1320 X191.356 Y124.534 E87.21905
G0 F15000 X190.861 Y124.534
G1 F1320 X191.774 Y125.448 E87.26157
G0 F15000 X191.774 Y125.943
G1 F1320 X190.366 Y124.534 E87.32714
G0 F15000 X189.871 Y124.534
G1 F1320 X191.774 Y126.438 E87.41576
G0 F15000 X191.774 Y126.933
G1 F1320 X189.376 Y124.534 E87.52742
G0 F15000 X188.881 Y124.534
G1 F1320 X191.774 Y127.428 E87.66212
G0 F15000 X191.774 Y127.923
G1 F1320 X188.386 Y124.534 E87.81987
G0 F15000 X187.891 Y124.534
G1 F1320 X191.774 Y128.418 E88.00066
G0 F15000 X191.774 Y128.913
G1 F1320 X187.396 Y124.534 E88.2045
G0 F15000 X186.901 Y124.534
G1 F1320 X191.774 Y129.408 E88.43138
G0 F15000 X191.774 Y129.903
G1 F1320 X186.406 Y124.534 E88.6813
G0 F15000 X185.911 Y124.534
G1 F1320 X191.707 Y130.33 E88.95112
G0 F15000 X191.212 Y130.33
G1 F1320 X185.416 Y124.534 E89.22095
G0 F15000 X184.921 Y124.534
G1 F1320 X190.717 Y130.33 E89.49078
G0 F15000 X190.222 Y130.33
G1 F1320 X184.426 Y124.534 E89.7606
G0 F15000 X183.931 Y124.534
G1 F1320 X189.727 Y130.33 E90.03043
G0 F15000 X189.232 Y130.33
G1 F1320 X183.436 Y124.534 E90.30025
G0 F15000 X182.941 Y124.534
G1 F1320 X188.737 Y130.33 E90.57008
G0 F15000 X188.242 Y130.33
G1 F1320 X182.446 Y124.534 E90.8399
G0 F15000 X181.951 Y124.534
G1 F1320 X187.747 Y130.33 E91.10973
G0 F15000 X187.252 Y130.33
G1 F1320 X181.456 Y124.534 E91.37955
G1 X181.174 Y124.252
G0 F15000 X181.174 Y124.244
G0 X191.992 Y124.316
G0 X192.152 Y130.335
G0 X192.152 Y132.675
G0 X191.576 Y132.674
G1 F1320 X191.774 Y132.872 E91.38877
G0 F15000 X191.774 Y133.367
G1 F1320 X191.081 Y132.674 E91.42103
G0 F15000 X190.586 Y132.674
G1 F1320 X191.774 Y133.862 E91.47634
G0 F15000 X191.774 Y134.357
G1 F1320 X190.091 Y132.674 E91.55469
G0 F15000 X189.596 Y132.674
G1 F1320 X191.774 Y134.852 E91.65608
G0 F15000 X191.774 Y135.347
G1 F1320 X189.101 Y132.674 E91.78052
G0 F15000 X188.606 Y132.674
G1 F1320 X191.774 Y135.842 E91.928
G0 F15000 X191.774 Y136.337
G1 F1320 X188.111 Y132.674 E92.09853
G0 F15000 X187.616 Y132.674
G1 F1320 X191.774 Y136.832 E92.2921
G0 F15000 X191.774 Y137.327
G1 F1320 X187.121 Y132.674 E92.50872
G0 F15000 X186.626 Y132.674
G1 F1320 X191.774 Y137.822 E92.74837
G0 F15000 X191.774 Y138.317
G1 F1320 X186.131 Y132.674 E93.01108
G0 F15000 X185.636 Y132.674
G1 F1320 X191.432 Y138.47 E93.2809
G0 F15000 X190.937 Y138.47
G1 F1320 X185.178 Y132.711 E93.54901
G0 F15000 X185.178 Y133.205
G1 F1320 X190.442 Y138.47 E93.79409
G0 F15000 X189.947 Y138.47
G1 F1320 X185.178 Y133.7 E94.01613
G0 F15000 X185.178 Y134.195
G1 F1320 X189.452 Y138.47 E94.21512
G0 F15000 X188.957 Y138.47
G1 F1320 X185.046 Y134.559 E94.39719
G0 F15000 X184.651 Y134.659
G1 F1320 X188.462 Y138.47 E94.57461
G1 X188.744 Y138.752
G1 F2700 E88.07461
G1 F600 Z2.5
G0 F15000 X186.758 Y130.33 Z2.5
G1 F600 Z0.5
G1 F1200 E94.57461
G1 F1320 X185.178 Y128.751 E94.64814
G0 F15000 X185.178 Y129.246
G1 F1320 X186.263 Y130.33 E94.69863
G0 F15000 X185.768 Y130.33
G1 F1320 X185.178 Y129.741 E94.72607
G0 F15000 X185.178 Y130.236
G1 F1320 X185.273 Y130.33 E94.73047
G0 F15000 X184.785 Y128.358
G1 F1320 X180.961 Y124.534 E94.90849
G0 F15000 X180.466 Y124.534
G1 F1320 X184.329 Y128.396 E95.08831
G0 F15000 X184.059 Y128.622
G1 F1320 X179.971 Y124.534 E95.27862
G0 F15000 X179.476 Y124.534
G1 F1320 X184.034 Y129.092 E95.49081
G0 F15000 X184.034 Y129.587
G1 F1320 X178.981 Y124.534 E95.72605
G0 F15000 X178.486 Y124.534
G1 F1320 X184.034 Y130.081 E95.9843
G0 F15000 X183.787 Y130.33
G1 F1320 X177.992 Y124.534 E96.25411
G0 F15000 X177.497 Y124.534
G1 F1320 X183.292 Y130.33 E96.52391
G1 X183.574 Y130.612
G0 F15000 X180.84 Y128.373
G1 F1320 X177.002 Y124.534 E96.7026
G0 F15000 X176.507 Y124.534
G1 F1320 X180.382 Y128.409 E96.883
G0 F15000 X180.226 Y128.749
G1 F1320 X176.012 Y124.534 E97.0792
G0 F15000 X175.517 Y124.534
G1 F1320 X180.226 Y129.244 E97.29845
G0 F15000 X180.226 Y129.739
G1 F1320 X175.022 Y124.534 E97.54073
G0 F15000 X174.527 Y124.534
G1 F1320 X180.226 Y130.234 E97.80607
G0 F15000 X179.827 Y130.33
G1 F1320 X174.032 Y124.534 E98.07587
G1 X173.75 Y124.252
G1 F2700 E91.57587
G1 F600 Z2.5
G0 F15000 X181.37 Y128.903 Z2.5
G1 F600 Z0.5
G1 F1200 E98.07587
G1 F1320 X182.797 Y130.33 E98.1423
G0 F15000 X182.302 Y130.33
G1 F1320 X181.37 Y129.398 E98.18569
G0 F15000 X181.37 Y129.893
G1 F1320 X181.807 Y130.33 E98.20603
G0 F15000 X183.657 Y132.674
G1 F1320 X184.034 Y133.052 E98.22361
G0 F15000 X184.034 Y133.547
G1 F1320 X183.162 Y132.674 E98.26423
G0 F15000 X182.667 Y132.674
G1 F1320 X184.035 Y134.043 E98.32794
G1 X184.317 Y134.325
G0 F15000 X182.172 Y132.674
G1 F1320 X187.967 Y138.47 E98.59774
G0 F15000 X187.472 Y138.47
G1 F1320 X181.677 Y132.674 E98.86754
G0 F15000 X181.369 Y132.862
G1 F1320 X186.977 Y138.47 E99.12861
G0 F15000 X186.482 Y138.47
G1 F1320 X181.369 Y133.357 E99.36664
G0 F15000 X181.369 Y133.851
