;FLAVOR:Marlin
;TIME:556
;Filament used: 0.201709m, 0.0398449m
;Layer height: 0.2
;MINX:123.855
;MINY:118.446
;MINZ:0.25
;MAXX:197.866
;MAXY:192.459
;MAXZ:20.001
;TARGET_MACHINE.NAME:Syncraft IDEX
;Generated with Cura_SteamEngine 5.7.2
T0
M104 S215
M105
M109 S215
M105
M109 T1 S100
M82 ;absolute extrusion mode
;Filament weight = [1.595606025390625, 0.31519136474609377]
;Nozzle diameter = 0.4
M605 S0
M900 P0.4 S80
BREAK_CLEAN P=50
G21 ; set units to millimeters
G90 ; use absolute positioning
M82 ; absolute extrusion mode
M104 T1 S150 ; set extruder temp
M140 S60 ; set bed temp
G28 Z ; home z
M109 S150
G28 XY; home XY
START_GCODE
set_temperature_layer L0=<TEMPERATURE_LAYER_ZERO_VALUE> L1=<TEMPERATURE_LAYER_ONE_VALUE>
PRIME_ROUTINE
G92 E0
T0
G92 E0
G1 F2700 E-6.5
;LAYER_COUNT:4
G0 F30000 X150 Y150
;LAYER:0
M107
G1 F600 Z2.25
G0 F15000 X165.815 Y165.341 Z2.25
;TYPE:SKIRT
G1 F600 Z0.25
G1 F1200 E0
G1 F1320 X163.994 Y167.353 E0.09546
G1 X162.213 Y169.437 E0.19189
G1 X160.483 Y171.582 E0.28882
G1 X158.853 Y173.724 E0.3835
G1 X157.235 Y175.98 E0.48116
G1 X155.713 Y178.235 E0.57686
G1 X154.251 Y180.536 E0.67275
G1 X152.852 Y182.884 E0.76889
G1 X151.522 Y185.268 E0.86492
G1 X150.253 Y187.697 E0.96132
G1 X148.956 Y190.36 E1.06551
G1 X148.517 Y190.897 E1.08991
G1 X147.699 Y191.523 E1.12614
G1 X146.536 Y191.939 E1.16959
G1 X128.377 Y191.939 E1.80835
G1 X127.336 Y191.926 E1.84497
G1 X126.663 Y191.758 E1.86937
G1 X125.749 Y191.285 E1.90557
G1 X125.021 Y190.555 E1.94183
G1 X124.551 Y189.639 E1.97805
G1 X124.374 Y188.586 E2.01561
G1 X124.373 Y121.922 E4.36056
G1 X124.756 Y120.779 E4.40296
G1 X125.522 Y119.734 E4.44854
G1 X126.675 Y119.143 E4.49412
G1 X127.72 Y118.967 E4.53139
G1 X193.347 Y118.966 E6.83987
G1 X194.388 Y118.981 E6.87649
G1 X195.368 Y119.227 E6.91203
G1 X196.366 Y119.961 E6.95561
G1 X196.971 Y120.795 E6.99185
G1 X197.345 Y121.931 E7.03392
G1 X197.346 Y140.013 E7.66997
G1 X197.331 Y141.088 E7.70779
G1 X197.163 Y141.757 E7.73205
G1 X196.593 Y142.858 E7.77566
G1 X195.803 Y143.531 E7.81217
G1 X194.223 Y144.302 E7.87401
G1 X191.793 Y145.529 E7.96977
G1 X189.362 Y146.844 E8.06699
G1 X187.021 Y148.198 E8.16212
G1 X184.681 Y149.641 E8.25882
G1 X182.394 Y151.143 E8.35506
G1 X180.17 Y152.695 E8.45046
G1 X177.957 Y154.332 E8.54729
G1 X175.788 Y156.036 E8.64431
G1 X173.721 Y157.757 E8.73892
G1 X171.665 Y159.568 E8.8353
G1 X169.66 Y161.437 E8.93172
G1 X167.703 Y163.368 E9.02843
G1 X165.815 Y165.341 E9.12448
G1 F2700 E2.62448
G1 F600 Z2.25
;MESH:EXTRUDER_ONE.STL
G0 F15000 X145.768 Y188.256 Z2.25
;TYPE:WALL-OUTER
G1 F600 Z0.25
G1 F1200 E9.12448
G1 F1320 X145.769 Y140.594 E10.64862
G1 X146.052 Y140.364 E10.66028
G1 X193.664 Y140.36 E12.18281
G1 X193.664 Y122.644 E12.74933
G1 X128.052 Y122.644 E14.84747
G1 X128.052 Y188.256 E16.94561
G1 X145.768 Y188.256 E17.51213
G0 F15000 X145.768 Y187.856
G0 X145.088 Y187.576
;TYPE:WALL-INNER
G1 F1320 X145.091 Y140.615 E19.01385
G1 X145.289 Y140.09 E19.03179
G1 X145.498 Y139.881 E19.04124
G1 X146.023 Y139.683 E19.05918
G1 X192.984 Y139.68 E20.5609
G1 X192.984 Y123.324 E21.08393
G1 X128.732 Y123.324 E23.13858
G1 X128.732 Y187.576 E25.19322
G1 X145.088 Y187.576 E25.71626
G0 F15000 X144.408 Y186.896
G1 F1320 X144.413 Y140.559 E27.19802
G1 X144.671 Y139.79 E27.22396
G1 X145.432 Y139.139 E27.25598
G1 X145.967 Y139.005 E27.27362
G1 X192.304 Y139 E28.75538
G1 X192.304 Y124.004 E29.23492
G1 X129.412 Y124.004 E31.24608
G1 X129.412 Y186.896 E33.25723
G1 X144.408 Y186.896 E33.73678
G0 F15000 X143.888 Y186.376
;TYPE:SKIN
G1 F1320 X143.89 Y140.533 E35.0195
G1 X144.312 Y139.373 E35.05403
G1 X145.214 Y138.666 E35.0861
G1 X145.82 Y138.485 E35.1038
G1 X191.784 Y138.48 E36.3899
G1 X191.784 Y124.524 E36.7804
G1 X129.932 Y124.524 E38.51106
G1 X129.932 Y186.376 E40.24173
G1 X143.888 Y186.376 E40.63223
G0 F15000 X144.328 Y186.376
G0 X129.341 Y186.971
G0 X129.341 Y123.934
G0 X192.378 Y123.934
G0 X191.444 Y125.089
G1 F1320 X191.219 Y124.864 E40.64113
G0 F15000 X190.258 Y124.864
G1 F1320 X191.444 Y126.051 E40.68808
G0 F15000 X191.444 Y127.013
G1 F1320 X189.296 Y124.864 E40.7731
G0 F15000 X188.334 Y124.864
G1 F1320 X191.444 Y127.974 E40.89616
G0 F15000 X191.444 Y128.936
G1 F1320 X187.373 Y124.864 E41.05727
G0 F15000 X186.411 Y124.864
G1 F1320 X191.444 Y129.898 E41.25645
G0 F15000 X191.444 Y130.859
G1 F1320 X185.449 Y124.864 E41.49368
G0 F15000 X184.488 Y124.864
G1 F1320 X191.444 Y131.821 E41.76895
G0 F15000 X191.444 Y132.783
G1 F1320 X183.526 Y124.864 E42.08229
G0 F15000 X182.564 Y124.864
G1 F1320 X191.444 Y133.744 E42.43368
G0 F15000 X191.444 Y134.706
G1 F1320 X181.603 Y124.864 E42.82312
G0 F15000 X180.641 Y124.864
G1 F1320 X191.444 Y135.668 E43.25062
G0 F15000 X191.444 Y136.629
G1 F1320 X179.679 Y124.864 E43.71617
G0 F15000 X178.718 Y124.864
G1 F1320 X191.444 Y137.591 E44.21976
G0 F15000 X191.031 Y138.14
G1 F1320 X177.756 Y124.864 E44.74508
G0 F15000 X176.794 Y124.864
G1 F1320 X190.07 Y138.14 E45.27042
G0 F15000 X189.108 Y138.14
G1 F1320 X175.833 Y124.864 E45.79575
G0 F15000 X174.871 Y124.864
G1 F1320 X188.146 Y138.14 E46.32107
G0 F15000 X187.185 Y138.14
G1 F1320 X173.909 Y124.864 E46.84641
G0 F15000 X172.948 Y124.864
G1 F1320 X186.223 Y138.14 E47.37173
G0 F15000 X185.261 Y138.14
G1 F1320 X171.986 Y124.864 E47.89705
G0 F15000 X171.024 Y124.864
G1 F1320 X184.3 Y138.14 E48.42239
G0 F15000 X183.338 Y138.14
G1 F1320 X170.063 Y124.864 E48.94771
G0 F15000 X169.101 Y124.864
G1 F1320 X182.376 Y138.14 E49.47303
G0 F15000 X181.415 Y138.14
G1 F1320 X168.139 Y124.864 E49.99837
G0 F15000 X167.178 Y124.864
G1 F1320 X180.453 Y138.14 E50.52369
G0 F15000 X179.491 Y138.14
G1 F1320 X166.216 Y124.864 E51.04901
G0 F15000 X165.254 Y124.864
G1 F1320 X178.53 Y138.14 E51.57435
G0 F15000 X177.568 Y138.14
G1 F1320 X164.293 Y124.864 E52.09967
G0 F15000 X163.331 Y124.864
G1 F1320 X176.606 Y138.14 E52.62499
G0 F15000 X175.645 Y138.14
G1 F1320 X162.369 Y124.864 E53.15033
G0 F15000 X161.408 Y124.864
G1 F1320 X174.683 Y138.14 E53.67565
G0 F15000 X173.721 Y138.14
M104 T1 S205
G1 F1320 X160.446 Y124.864 E54.20098
G0 F15000 X159.484 Y124.864
G1 F1320 X172.76 Y138.14 E54.72632
G0 F15000 X171.798 Y138.14
G1 F1320 X158.523 Y124.864 E55.25164
G0 F15000 X157.561 Y124.864
G1 F1320 X170.836 Y138.14 E55.77696
G0 F15000 X169.875 Y138.14
G1 F1320 X156.599 Y124.864 E56.3023
G0 F15000 X155.638 Y124.864
G1 F1320 X168.913 Y138.14 E56.82762
G0 F15000 X167.951 Y138.14
G1 F1320 X154.676 Y124.864 E57.35294
G0 F15000 X153.714 Y124.864
G1 F1320 X166.99 Y138.14 E57.87828
G0 F15000 X166.028 Y138.14
G1 F1320 X152.753 Y124.864 E58.4036
G0 F15000 X151.791 Y124.864
G1 F1320 X165.066 Y138.14 E58.92892
G0 F15000 X164.105 Y138.14
G1 F1320 X150.829 Y124.864 E59.45426
G0 F15000 X149.868 Y124.864
G1 F1320 X163.143 Y138.14 E59.97958
G0 F15000 X162.181 Y138.14
G1 F1320 X148.906 Y124.864 E60.5049
G0 F15000 X147.944 Y124.864
G1 F1320 X161.22 Y138.14 E61.03024
G0 F15000 X160.258 Y138.14
G1 F1320 X146.983 Y124.864 E61.55556
G0 F15000 X146.021 Y124.864
G1 F1320 X159.296 Y138.14 E62.08088
G0 F15000 X158.335 Y138.14
G1 F1320 X145.059 Y124.864 E62.60622
G0 F15000 X144.098 Y124.864
G1 F1320 X157.373 Y138.14 E63.13155
G0 F15000 X156.411 Y138.14
G1 F1320 X143.136 Y124.864 E63.65687
G0 F15000 X142.174 Y124.864
G1 F1320 X155.45 Y138.14 E64.18221
G0 F15000 X154.488 Y138.14
G1 F1320 X141.213 Y124.864 E64.70753
G0 F15000 X140.251 Y124.864
G1 F1320 X153.526 Y138.14 E65.23285
G0 F15000 X152.565 Y138.14
G1 F1320 X139.289 Y124.864 E65.75819
G0 F15000 X138.328 Y124.864
G1 F1320 X151.603 Y138.14 E66.28351
G0 F15000 X150.641 Y138.14
G1 F1320 X137.366 Y124.864 E66.80883
G0 F15000 X136.404 Y124.864
G1 F1320 X149.68 Y138.14 E67.33417
G0 F15000 X148.718 Y138.14
G1 F1320 X135.443 Y124.864 E67.85949
G0 F15000 X134.481 Y124.864
G1 F1320 X147.756 Y138.14 E68.38481
G0 F15000 X146.795 Y138.14
G1 F1320 X133.519 Y124.864 E68.91015
G0 F15000 X132.558 Y124.864
G1 F1320 X145.833 Y138.14 E69.43547
G0 F15000 X145.079 Y138.348
G1 F1320 X131.596 Y124.864 E69.96902
G0 F15000 X130.634 Y124.864
G1 F1320 X144.535 Y138.765 E70.5191
G0 F15000 X144.014 Y139.205
G1 F1320 X130.272 Y125.463 E71.06288
G0 F15000 X130.272 Y126.425
G1 F1320 X143.756 Y139.91 E71.59647
G0 F15000 X143.552 Y140.667
G1 F1320 X130.272 Y127.387 E72.12197
G0 F15000 X130.272 Y128.348
G1 F1320 X143.552 Y141.629 E72.64749
G0 F15000 X143.552 Y142.59
G1 F1320 X130.272 Y129.31 E73.17298
G0 F15000 X130.272 Y130.272
G1 F1320 X143.552 Y143.552 E73.69848
G0 F15000 X143.552 Y144.514
G1 F1320 X130.272 Y131.233 E74.224
G0 F15000 X130.272 Y132.195
G1 F1320 X143.552 Y145.475 E74.7495
G0 F15000 X143.552 Y146.437
G1 F1320 X130.272 Y133.157 E75.275
G0 F15000 X130.272 Y134.118
G1 F1320 X143.552 Y147.399 E75.80052
G0 F15000 X143.551 Y148.359
G1 F1320 X130.272 Y135.08 E76.32598
G0 F15000 X130.272 Y136.042
G1 F1320 X143.551 Y149.321 E76.85144
G0 F15000 X143.551 Y150.283
G1 F1320 X130.272 Y137.003 E77.37691
G0 F15000 X130.272 Y137.965
G1 F1320 X143.551 Y151.244 E77.90237
G0 F15000 X143.551 Y152.206
G1 F1320 X130.272 Y138.927 E78.42783
G0 F15000 X130.272 Y139.888
G1 F1320 X143.551 Y153.168 E78.95331
G0 F15000 X143.551 Y154.129
G1 F1320 X130.272 Y140.85 E79.47877
G0 F15000 X130.272 Y141.812
G1 F1320 X143.551 Y155.091 E80.00423
G0 F15000 X143.55 Y156.052
G1 F1320 X130.272 Y142.773 E80.52967
G0 F15000 X130.272 Y143.735
G1 F1320 X143.55 Y157.014 E81.05511
G0 F15000 X143.55 Y157.975
G1 F1320 X130.272 Y144.697 E81.58053
G0 F15000 X130.272 Y145.658
G1 F1320 X143.55 Y158.937 E82.10597
G0 F15000 X143.55 Y159.899
G1 F1320 X130.272 Y146.62 E82.63141
G0 F15000 X130.272 Y147.582
G1 F1320 X143.55 Y160.86 E83.15683
G0 F15000 X143.55 Y161.822
G1 F1320 X130.272 Y148.543 E83.68227
G0 F15000 X130.272 Y149.505
G1 F1320 X143.55 Y162.784 E84.20771
G0 F15000 X143.55 Y163.745
G1 F1320 X130.272 Y150.467 E84.73313
G0 F15000 X130.272 Y151.428
G1 F1320 X143.55 Y164.706 E85.25855
G0 F15000 X143.55 Y165.668
G1 F1320 X130.272 Y152.39 E85.78396
G0 F15000 X130.272 Y153.352
G1 F1320 X143.55 Y166.63 E86.30938
G0 F15000 X143.55 Y167.591
G1 F1320 X130.272 Y154.313 E86.8348
G0 F15000 X130.272 Y155.275
G1 F1320 X143.55 Y168.553 E87.36022
G0 F15000 X143.55 Y169.515
G1 F1320 X130.272 Y156.237 E87.88564
G0 F15000 X130.272 Y157.198
G1 F1320 X143.55 Y170.476 E88.41106
G0 F15000 X143.549 Y171.437
G1 F1320 X130.272 Y158.16 E88.93644
G0 F15000 X130.272 Y159.122
G1 F1320 X143.549 Y172.399 E89.46182
G0 F15000 X143.549 Y173.361
G1 F1320 X130.272 Y160.083 E89.98722
G0 F15000 X130.272 Y161.045
G1 F1320 X143.549 Y174.322 E90.5126
G0 F15000 X143.549 Y175.284
G1 F1320 X130.272 Y162.007 E91.03798
G0 F15000 X130.272 Y162.968
G1 F1320 X143.549 Y176.246 E91.56338
G0 F15000 X143.549 Y177.207
G1 F1320 X130.272 Y163.93 E92.08876
G0 F15000 X130.272 Y164.892
M104 S195
G1 F1320 X143.549 Y178.169 E92.61414
G0 F15000 X143.548 Y179.13
G1 F1320 X130.272 Y165.853 E93.1395
G0 F15000 X130.272 Y166.815
G1 F1320 X143.548 Y180.092 E93.66486
G0 F15000 X143.548 Y181.053
G1 F1320 X130.272 Y167.777 E94.1902
G0 F15000 X130.272 Y168.738
G1 F1320 X143.548 Y182.015 E94.71556
G0 F15000 X143.548 Y182.977
G1 F1320 X130.272 Y169.7 E95.24092
G0 F15000 X130.272 Y170.662
G1 F1320 X143.548 Y183.938 E95.76626
G0 F15000 X143.548 Y184.9
G1 F1320 X130.272 Y171.623 E96.29162
G0 F15000 X130.272 Y172.585
G1 F1320 X143.548 Y185.862 E96.81699
G0 F15000 X142.761 Y186.036
G1 F1320 X130.272 Y173.547 E97.31118
G0 F15000 X130.272 Y174.508
G1 F1320 X141.8 Y186.036 E97.76735
G0 F15000 X140.838 Y186.036
G1 F1320 X130.272 Y175.47 E98.18546
G0 F15000 X130.272 Y176.432
G1 F1320 X139.876 Y186.036 E98.5655
G0 F15000 X138.915 Y186.036
G1 F1320 X130.272 Y177.393 E98.9075
G0 F15000 X130.272 Y178.355
G1 F1320 X137.953 Y186.036 E99.21145
G0 F15000 X136.991 Y186.036
G1 F1320 X130.272 Y179.317 E99.47732
G0 F15000 X130.272 Y180.278
G1 F1320 X136.03 Y186.036 E99.70517
G0 F15000 X135.068 Y186.036
G1 F1320 X130.272 Y181.24 E99.89495
G0 F15000 X130.272 Y182.202
G1 F1320 X134.106 Y186.036 E100.04667
G0 F15000 X133.145 Y186.036
G1 F1320 X130.272 Y183.163 E100.16035
G0 F15000 X130.272 Y184.125
G1 F1320 X132.183 Y186.036 E100.23597
G0 F15000 X131.221 Y186.036
G1 F1320 X130.272 Y185.087 E100.27352
G1 F1200 E75.27352
G1 F600 Z2.25
G92 E0
T1
G92 E0
T1
M105
M109 S205
M104 T0 S200
G1 F2700 E-6.5
;MESH:NONMESH
G0 F9000 X150 Y150 Z2.25
G1 F600 Z2.25
G0 F9000 X166.191 Y165.701
M104 S210
;TYPE:SKIRT
G1 F600 Z0.25
G1 F1200 E0
G1 F1920 X164.386 Y167.694 E0.04299
G1 X162.617 Y169.764 E0.08653
G1 X160.895 Y171.899 E0.13039
G1 X159.264 Y174.041 E0.17343
G1 X157.666 Y176.271 E0.2173
G1 X156.149 Y178.518 E0.26065
G1 X154.694 Y180.808 E0.30403
G1 X153.304 Y183.141 E0.34745
G1 X151.977 Y185.52 E0.391
G1 X150.72 Y187.927 E0.43442
G1 X149.396 Y190.645 E0.48276
G1 X148.884 Y191.271 E0.49569
G1 X147.941 Y191.989 E0.51464
G1 X146.616 Y192.458 E0.53711
G1 X128.371 Y192.459 E0.82883
G1 X127.267 Y192.445 E0.84649
G1 X126.479 Y192.248 E0.85947
G1 X125.435 Y191.705 E0.87829
G1 X124.596 Y190.864 E0.89728
G1 X124.049 Y189.795 E0.91648
G1 X123.855 Y188.608 E0.93571
G1 X123.857 Y121.825 E2.0035
G1 X124.295 Y120.529 E2.02538
G1 X125.174 Y119.329 E2.04916
G1 X126.519 Y118.641 E2.07332
G1 X127.698 Y118.448 E2.09242
G1 X193.354 Y118.446 E3.14219
G1 X194.454 Y118.462 E3.15978
G1 X195.593 Y118.748 E3.17856
G1 X196.747 Y119.6 E3.20149
G1 X197.437 Y120.551 E3.22028
G1 X197.864 Y121.854 E3.2422
G1 X197.866 Y140.02 E3.53266
G1 X197.85 Y141.154 E3.55079
G1 X197.651 Y141.945 E3.56383
G1 X197.009 Y143.186 E3.58617
G1 X196.082 Y143.974 E3.60563
G1 X194.447 Y144.771 E3.63471
G1 X192.041 Y145.987 E3.67781
G1 X189.606 Y147.303 E3.72207
G1 X187.297 Y148.638 E3.76471
G1 X184.962 Y150.079 E3.80858
G1 X182.677 Y151.579 E3.85229
G1 X180.471 Y153.119 E3.8953
G1 X178.274 Y154.744 E3.939
G1 X176.121 Y156.436 E3.98278
G1 X174.061 Y158.151 E4.02564
G1 X172.016 Y159.952 E4.06921
G1 X170.015 Y161.817 E4.11294
G1 X168.079 Y163.728 E4.15644
G1 X166.191 Y165.701 E4.2001
M104 S200
G0 F600 X166.191 Y165.701 Z0.45
G0 F9000 X165.815 Y165.341
;TIME_ELAPSED:175.254443
;LAYER:1
G1 F1200 E-20.7999
G1 F600 Z2.45
G92 E0
T0
G92 E0
T0
M105
M109 S200
M104 T1 S101
M106 S85
G0 F22500 X165.815 Y165.341 Z2.45
M104 S210
;TYPE:SKIRT
G1 F600 Z0.45
G1 F1200 E25
G1 F1320 X163.994 Y167.353 E25.07487
G1 X162.213 Y169.437 E25.1505
G1 X160.483 Y171.582 E25.22653
G1 X158.853 Y173.724 E25.30079
G1 X157.235 Y175.98 E25.37738
G1 X155.713 Y178.235 E25.45244
G1 X154.251 Y180.536 E25.52765
G1 X152.852 Y182.884 E25.60305
G1 X151.522 Y185.268 E25.67837
G1 X150.253 Y187.697 E25.75397
G1 X148.956 Y190.36 E25.83569
G1 X148.517 Y190.897 E25.85483
G1 X147.699 Y191.523 E25.88325
G1 X146.536 Y191.939 E25.91732
G1 X128.377 Y191.939 E26.41831
G1 X127.336 Y191.926 E26.44703
G1 X126.663 Y191.758 E26.46617
G1 X125.749 Y191.285 E26.49456
G1 X125.021 Y190.555 E26.52301
G1 X124.551 Y189.639 E26.55141
G1 X124.374 Y188.586 E26.58087
G1 X124.373 Y121.922 E28.42005
G1 X124.756 Y120.779 E28.45331
G1 X125.522 Y119.734 E28.48905
G1 X126.675 Y119.143 E28.5248
G1 X127.72 Y118.967 E28.55403
G1 X193.347 Y118.966 E30.3646
G1 X194.388 Y118.981 E30.39333
G1 X195.368 Y119.227 E30.4212
G1 X196.366 Y119.961 E30.45538
G1 X196.971 Y120.795 E30.48381
G1 X197.345 Y121.931 E30.5168
G1 X197.346 Y140.013 E31.01566
G1 X197.331 Y141.088 E31.04533
G1 X197.163 Y141.757 E31.06436
G1 X196.593 Y142.858 E31.09856
G1 X195.803 Y143.531 E31.12719
G1 X194.223 Y144.302 E31.17569
G1 X191.793 Y145.529 E31.2508
G1 X189.362 Y146.844 E31.32705
G1 X187.021 Y148.198 E31.40166
G1 X184.681 Y149.641 E31.47751
G1 X182.394 Y151.143 E31.55299
G1 X180.17 Y152.695 E31.62781
G1 X177.957 Y154.332 E31.70376
G1 X175.788 Y156.036 E31.77985
G1 X173.721 Y157.757 E31.85406
G1 X171.665 Y159.568 E31.92965
G1 X169.66 Y161.437 E32.00527
G1 X167.703 Y163.368 E32.08112
G1 X165.815 Y165.341 E32.15646
G1 F2700 E25.65646
G1 F600 Z2.45
;MESH:EXTRUDER_ONE.STL
G0 F22500 X145.708 Y188.196 Z2.45
;TYPE:WALL-OUTER
G1 F600 Z0.45
G1 F1200 E32.15646
G1 F3000 X145.713 Y140.63 E33.34945
G1 X145.846 Y140.397 E33.35618
G1 X146.074 Y140.301 E33.36238
G1 X193.604 Y140.3 E34.55447
G1 X193.604 Y132.287 E34.75544
G1 F2160 X193.604 Y130.723 E34.79467
G1 F3000 X193.604 Y122.704 E34.99579
