;FLAVOR:Marlin
;TIME:361
;Filament used: 0.163m, 0.0514417m
;Layer height: 0.2
;MINX:123.67
;MINY:118.263
;MINZ:0.37
;MAXX:198.05
;MAXY:192.643
;MAXZ:20.001
;TARGET_MACHINE.NAME:Syncraft IDEX
;Generated with Cura_SteamEngine 5.7.2
T0
M104 S210
M105
M109 S210
M105
M109 T1 S100
M82 ;absolute extrusion mode
;Filament weight = [1.2894060986328124, 0.40692744873046877]
;Nozzle diameter = 0.6
M605 S0
M900 P0.6 S75
BREAK_CLEAN P=50
G21 ; set units to millimeters
G90 ; use absolute positioning
M82 ; absolute extrusion mode
M104 T1 S150 ; set extruder temp
M140 S60 ; set bed temp
G28 Z ; home z
M109 S150
G28 XY; home XY
START_GCODE
set_temperature_layer L0=<TEMPERATURE_LAYER_ZERO_VALUE> L1=<TEMPERATURE_LAYER_ONE_VALUE>
PRIME_ROUTINE
G92 E0
T0
G92 E0
G1 F2700 E-6.5
;LAYER_COUNT:3
G0 F7200 X150 Y150
;LAYER:0
M107
G1 F600 Z2.37
G0 F2400 X165.858 Y165.381 Z2.37
;TYPE:SKIRT
G1 F600 Z0.37
G1 F1200 E0
G1 X164.039 Y167.392 E0.12582
G1 X162.244 Y169.492 E0.254
G1 X160.531 Y171.615 E0.38057
G1 X158.885 Y173.779 E0.50673
G1 X157.303 Y175.985 E0.63268
G1 X155.745 Y178.293 E0.76189
G1 X154.306 Y180.559 E0.88644
G1 X152.892 Y182.932 E1.01461
G1 X151.57 Y185.301 E1.14049
G1 X150.312 Y187.713 E1.26671
G1 X149.037 Y190.326 E1.40162
G1 X148.596 Y190.867 E1.434
G1 X147.772 Y191.502 E1.48227
G1 X146.796 Y191.858 E1.53047
G1 X146.132 Y191.933 E1.56148
G1 X128.443 Y191.933 E2.38224
G1 X127.398 Y191.92 E2.43073
G1 X126.72 Y191.752 E2.46314
G1 X125.795 Y191.278 E2.51136
G1 X125.056 Y190.547 E2.5596
G1 X124.779 Y190.106 E2.58376
G1 X124.442 Y189.123 E2.63198
G1 X124.381 Y188.528 E2.65973
G1 X124.38 Y123.001 E5.70014
G1 X124.394 Y121.987 E5.74719
G1 X124.562 Y121.311 E5.77951
G1 X125.036 Y120.386 E5.82774
G1 X125.768 Y119.648 E5.87597
G1 X126.209 Y119.371 E5.90013
G1 X127.192 Y119.035 E5.94833
G1 X127.781 Y118.974 E5.97581
G1 X193.282 Y118.973 E9.01502
G1 X194.327 Y118.988 E9.06351
G1 X195.004 Y119.157 E9.09588
G1 X195.485 Y119.359 E9.12009
G1 X196.326 Y119.969 E9.1683
G1 X196.943 Y120.806 E9.21654
G1 X197.279 Y121.789 E9.26475
G1 X197.339 Y122.375 E9.29208
G1 X197.34 Y140.044 E10.11191
G1 X197.325 Y141.124 E10.16202
G1 X197.157 Y141.798 E10.19425
G1 X196.955 Y142.279 E10.21846
G1 X196.345 Y143.12 E10.26667
G1 X195.951 Y143.461 E10.29084
G1 X195.42 Y143.783 E10.31966
G1 X194.286 Y144.336 E10.3782
G1 X191.789 Y145.597 E10.50799
G1 X189.401 Y146.889 E10.63397
G1 X187.052 Y148.248 E10.75989
G1 X184.7 Y149.699 E10.88812
G1 X182.431 Y151.188 E11.01404
G1 X180.188 Y152.753 E11.14095
G1 X177.991 Y154.381 E11.26782
G1 X175.855 Y156.058 E11.39383
G1 X173.73 Y157.826 E11.52209
G1 X171.703 Y159.614 E11.6475
G1 X169.679 Y161.501 E11.7759
G1 X167.759 Y163.394 E11.901
G1 X165.858 Y165.381 E12.0286
G1 F2700 E5.5286
G1 F600 Z2.37
;MESH:EXTRUDER_ONE.STL
G0 F2400 X145.878 Y140.429 Z2.37
;TYPE:WALL-OUTER
G1 F600 Z0.37
G1 F1200 E12.0286
G1 X145.741 Y140.698 E12.04261
G1 X145.74 Y188.132 E14.24351
G1 X128.18 Y188.132 E15.05829
G1 X128.18 Y122.772 E18.09095
G1 X193.54 Y122.772 E21.12361
G1 X193.54 Y140.332 E21.93838
G1 X146.106 Y140.333 E24.13929
G1 X145.878 Y140.429 E24.15077
G0 F2400 X146.106 Y140.333
G0 X146.259 Y140.333
G0 X145.101 Y140.346
;TYPE:SKIN
G1 F1200 X145.1 Y187.492 E26.27269
G1 X128.82 Y187.492 E27.00541
G1 X128.82 Y123.412 E29.88948
G1 X192.9 Y123.412 E32.77356
G1 X192.9 Y139.692 E33.50628
G1 X145.754 Y139.693 E35.6282
G1 X145.101 Y140.346 E35.66976
G0 F2400 X144.44 Y140.346
G0 X144.512 Y139.105
G0 X146.152 Y128.545
G0 X191.695 Y124.073
G0 X191.695 Y123.812
G1 F1200 X192.5 Y124.618 E35.72103
G0 F2400 X192.5 Y125.749
G1 F1200 X190.563 Y123.812 E35.84432
G0 F2400 X189.432 Y123.812
G1 F1200 X192.5 Y126.88 E36.0396
G0 F2400 X192.5 Y128.012
G1 F1200 X188.3 Y123.812 E36.30693
G0 F2400 X187.169 Y123.812
G1 F1200 X192.5 Y129.143 E36.64625
G0 F2400 X192.5 Y130.275
G1 F1200 X186.038 Y123.812 E37.05759
G0 F2400 X184.906 Y123.812
G1 F1200 X192.5 Y131.406 E37.54094
G0 F2400 X192.5 Y132.537
G1 F1200 X183.775 Y123.812 E38.09629
G0 F2400 X182.644 Y123.812
G1 F1200 X192.5 Y133.669 E38.72366
G0 F2400 X192.5 Y134.8
G1 F1200 X181.512 Y123.812 E39.42304
G0 F2400 X180.381 Y123.812
G1 F1200 X192.5 Y135.931 E40.19442
G0 F2400 X192.5 Y137.063
G1 F1200 X179.249 Y123.812 E41.03785
G0 F2400 X178.118 Y123.812
G1 F1200 X192.5 Y138.194 E41.95326
G0 F2400 X192.466 Y139.292
G1 F1200 X176.987 Y123.812 E42.93853
G0 F2400 X175.855 Y123.812
G1 F1200 X191.335 Y139.292 E43.92384
G0 F2400 X190.203 Y139.292
G1 F1200 X174.724 Y123.812 E44.90911
G0 F2400 X173.593 Y123.812
G1 F1200 X189.072 Y139.292 E45.89438
G0 F2400 X187.94 Y139.292
G1 F1200 X172.461 Y123.812 E46.87965
G0 F2400 X171.33 Y123.812
G1 F1200 X186.809 Y139.292 E47.86492
G0 F2400 X185.678 Y139.292
G1 F1200 X170.198 Y123.812 E48.85022
G0 F2400 X169.067 Y123.812
G1 F1200 X184.546 Y139.292 E49.8355
G0 F2400 X183.415 Y139.292
G1 F1200 X167.936 Y123.812 E50.82077
G0 F2400 X166.804 Y123.812
G1 F1200 X182.284 Y139.292 E51.80607
G0 F2400 X181.152 Y139.292
G1 F1200 X165.673 Y123.812 E52.79134
G0 F2400 X164.542 Y123.812
G1 F1200 X180.021 Y139.292 E53.77661
G0 F2400 X178.89 Y139.292
G1 F1200 X163.41 Y123.812 E54.76191
G0 F2400 X162.279 Y123.812
G1 F1200 X177.758 Y139.292 E55.74719
G0 F2400 X176.627 Y139.292
G1 F1200 X161.148 Y123.812 E56.73246
G0 F2400 X160.016 Y123.812
G1 F1200 X175.495 Y139.292 E57.71773
G0 F2400 X174.364 Y139.292
G1 F1200 X158.885 Y123.812 E58.703
G0 F2400 X157.753 Y123.812
G1 F1200 X173.233 Y139.292 E59.6883
G0 F2400 X172.101 Y139.292
G1 F1200 X156.622 Y123.812 E60.67357
G0 F2400 X155.491 Y123.812
G1 F1200 X170.97 Y139.292 E61.65884
G0 F2400 X169.839 Y139.292
G1 F1200 X154.359 Y123.812 E62.64415
G0 F2400 X153.228 Y123.812
G1 F1200 X168.707 Y139.292 E63.62942
G0 F2400 X167.576 Y139.292
G1 F1200 X152.097 Y123.812 E64.61469
G0 F2400 X150.965 Y123.812
G1 F1200 X166.444 Y139.292 E65.59996
G0 F2400 X165.313 Y139.292
G1 F1200 X149.834 Y123.812 E66.58523
G0 F2400 X148.702 Y123.812
G1 F1200 X164.182 Y139.292 E67.57054
G0 F2400 X163.05 Y139.292
G1 F1200 X147.571 Y123.812 E68.55581
G0 F2400 X146.44 Y123.812
G1 F1200 X161.919 Y139.292 E69.54108
G0 F2400 X160.788 Y139.292
G1 F1200 X145.308 Y123.812 E70.52638
G0 F2400 X144.177 Y123.812
G1 F1200 X159.656 Y139.292 E71.51165
G0 F2400 X158.525 Y139.292
M104 T1 S195
G1 F1200 X143.046 Y123.812 E72.49692
G0 F2400 X141.914 Y123.812
G1 F1200 X157.393 Y139.292 E73.48219
G0 F2400 X156.262 Y139.292
G1 F1200 X140.783 Y123.812 E74.46747
G0 F2400 X139.651 Y123.812
G1 F1200 X155.131 Y139.292 E75.45277
G0 F2400 X153.999 Y139.292
G1 F1200 X138.52 Y123.812 E76.43804
G0 F2400 X137.389 Y123.812
G1 F1200 X152.868 Y139.292 E77.42331
G0 F2400 X151.737 Y139.292
G1 F1200 X136.257 Y123.812 E78.40861
G0 F2400 X135.126 Y123.812
G1 F1200 X150.605 Y139.292 E79.39388
G0 F2400 X149.474 Y139.292
G1 F1200 X133.995 Y123.812 E80.37916
G0 F2400 X132.863 Y123.812
G1 F1200 X148.343 Y139.292 E81.36446
G0 F2400 X147.211 Y139.292
G1 F1200 X131.732 Y123.812 E82.34973
G0 F2400 X130.601 Y123.812
G1 F1200 X146.08 Y139.292 E83.335
G0 F2400 X145.27 Y139.613
G1 F1200 X129.469 Y123.812 E84.34074
G0 F2400 X129.22 Y124.694
G1 F1200 X144.76 Y140.235 E85.32989
G0 F2400 X144.703 Y141.309
G1 F1200 X129.22 Y125.825 E86.31542
G0 F2400 X129.22 Y126.957
G1 F1200 X144.703 Y142.44 E87.30091
G0 F2400 X144.703 Y143.572
G1 F1200 X129.22 Y128.088 E88.28643
G0 F2400 X129.22 Y129.22
G1 F1200 X144.703 Y144.703 E89.27193
G0 F2400 X144.703 Y145.834
G1 F1200 X129.22 Y130.351 E90.25742
G0 F2400 X129.22 Y131.482
G1 F1200 X144.703 Y146.966 E91.24295
G0 F2400 X144.703 Y148.097
G1 F1200 X129.22 Y132.614 E92.22844
G0 F2400 X129.22 Y133.745
G1 F1200 X144.703 Y149.229 E93.21397
G0 F2400 X144.702 Y150.359
G1 F1200 X129.22 Y134.876 E94.19943
G0 F2400 X129.22 Y136.008
G1 F1200 X144.702 Y151.491 E95.18489
G0 F2400 X144.702 Y152.622
G1 F1200 X129.22 Y137.139 E96.17035
G0 F2400 X129.22 Y138.27
G1 F1200 X144.702 Y153.753 E97.15582
G0 F2400 X144.702 Y154.885
G1 F1200 X129.22 Y139.402 E98.14128
G0 F2400 X129.22 Y140.533
G1 F1200 X144.702 Y156.016 E99.12674
G0 F2400 X144.702 Y157.147
G1 F1200 X129.22 Y141.665 E100.11217
G0 F2400 X129.22 Y142.796
G1 F1200 X144.702 Y158.279 E101.09763
G0 F2400 X144.702 Y159.409
G1 F1200 X129.22 Y143.927 E102.08306
G0 F2400 X129.22 Y145.059
G1 F1200 X144.702 Y160.541 E103.06849
G0 F2400 X144.702 Y161.672
G1 F1200 X129.22 Y146.19 E104.05392
G0 F2400 X129.22 Y147.321
G1 F1200 X144.702 Y162.804 E105.03939
G0 F2400 X144.702 Y163.935
G1 F1200 X129.22 Y148.453 E106.02482
G0 F2400 X129.22 Y149.584
G1 F1200 X144.702 Y165.066 E107.01025
G0 F2400 X144.702 Y166.198
G1 F1200 X129.22 Y150.716 E107.99568
G0 F2400 X129.22 Y151.847
G1 F1200 X144.702 Y167.329 E108.98111
G0 F2400 X144.701 Y168.46
G1 F1200 X129.22 Y152.978 E109.96651
G0 F2400 X129.22 Y154.11
G1 F1200 X144.701 Y169.591 E110.95187
G0 F2400 X144.701 Y170.722
G1 F1200 X129.22 Y155.241 E111.93724
G0 F2400 X129.22 Y156.372
G1 F1200 X144.701 Y171.854 E112.92264
G0 F2400 X144.701 Y172.985
G1 F1200 X129.22 Y157.504 E113.908
G0 F2400 X129.22 Y158.635
G1 F1200 X144.701 Y174.117 E114.8934
G0 F2400 X144.701 Y175.248
G1 F1200 X129.22 Y159.767 E115.87877
G0 F2400 X129.22 Y160.898
G1 F1200 X144.701 Y176.379 E116.86414
G0 F2400 X144.701 Y177.511
G1 F1200 X129.22 Y162.029 E117.84953
G0 F2400 X129.22 Y163.161
G1 F1200 X144.7 Y178.641 E118.83484
G0 F2400 X144.7 Y179.773
G1 F1200 X129.22 Y164.292 E119.82017
G0 F2400 X129.22 Y165.423
G1 F1200 X144.7 Y180.904 E120.80551
G0 F2400 X144.7 Y182.035
G1 F1200 X129.22 Y166.555 E121.79081
G0 F2400 X129.22 Y167.686
G1 F1200 X144.7 Y183.167 E122.77614
G0 F2400 X144.7 Y184.298
G1 F1200 X129.22 Y168.818 E123.76145
G0 F2400 X129.22 Y169.949
M104 S195
G1 F1200 X144.7 Y185.43 E124.74678
G0 F2400 X144.7 Y186.561
G1 F1200 X129.22 Y171.08 E125.73212
G0 F2400 X129.22 Y172.212
G1 F1200 X144.1 Y187.092 E126.67923
G0 F2400 X142.969 Y187.092
G1 F1200 X129.22 Y173.343 E127.55436
G0 F2400 X129.22 Y174.474
G1 F1200 X141.837 Y187.092 E128.35746
G0 F2400 X140.706 Y187.092
G1 F1200 X129.22 Y175.606 E129.08854
G0 F2400 X129.22 Y176.737
G1 F1200 X139.574 Y187.092 E129.74761
G0 F2400 X138.443 Y187.092
G1 F1200 X129.22 Y177.868 E130.33469
G0 F2400 X129.22 Y179
G1 F1200 X137.312 Y187.092 E130.84974
G0 F2400 X136.18 Y187.092
G1 F1200 X129.22 Y180.131 E131.29278
G0 F2400 X129.22 Y181.263
G1 F1200 X135.049 Y187.092 E131.66379
G0 F2400 X133.918 Y187.092
G1 F1200 X129.22 Y182.394 E131.96282
G0 F2400 X129.22 Y183.525
G1 F1200 X132.786 Y187.092 E132.18983
G0 F2400 X131.655 Y187.092
G1 F1200 X129.22 Y184.657 E132.34482
G0 F2400 X129.22 Y185.788
G1 F1200 X130.523 Y187.092 E132.42779
G0 F2400 X129.392 Y187.092
G1 F1200 X129.22 Y186.919 E132.43877
G0 F2400 X130.18 Y186.133
G1 F1200 E107.43877
G1 F600 Z2.37
G92 E0
T1
G92 E0
T1
M105
M109 S195
M104 T0 S166.5
G1 F2700 E-6.5
;MESH:NONMESH
G0 F1920 X150 Y150 Z2.37
G1 F600 Z2.37
G0 F1920 X166.379 Y165.862
M104 S205
;TYPE:SKIRT
G1 F600 Z0.37
G1 F1200 E0
G1 X164.579 Y167.853 E0.0934
G1 X162.784 Y169.953 E0.18954
G1 X161.096 Y172.045 E0.28309
G1 X159.457 Y174.2 E0.3773
G1 X157.887 Y176.389 E0.47105
G1 X156.34 Y178.681 E0.56728
G1 X154.916 Y180.923 E0.6597
G1 X153.508 Y183.286 E0.75543
G1 X152.2 Y185.63 E0.84884
G1 X150.942 Y188.042 E0.9435
G1 X149.66 Y190.668 E1.04519
G1 X149.112 Y191.359 E1.07589
G1 X148.362 Y192.017 E1.11061
G1 X147.2 Y192.529 E1.15479
G1 X146.132 Y192.643 E1.19217
G1 X128.434 Y192.643 E1.80805
G1 X127.354 Y192.629 E1.84564
G1 X126.492 Y192.427 E1.87645
G1 X125.87 Y192.156 E1.90006
G1 X125.336 Y191.82 E1.92202
G1 X124.661 Y191.233 E1.95315
G1 X124.003 Y190.213 E1.99539
G1 X123.741 Y189.251 E2.03008
G1 X123.671 Y188.528 E2.05536
G1 X123.67 Y122.991 E4.33602
G1 X123.682 Y122.272 E4.36104
G1 X123.747 Y121.646 E4.38294
G1 X123.907 Y121.036 E4.40489
G1 X124.266 Y120.213 E4.43613
G1 X124.87 Y119.486 E4.46903
G1 X125.39 Y119.047 E4.49271
G1 X126.152 Y118.581 E4.52379
G1 X127.066 Y118.334 E4.55674
G1 X127.781 Y118.264 E4.58174
G1 X193.292 Y118.263 E6.86149
G1 X194.046 Y118.276 E6.88773
G1 X194.671 Y118.342 E6.9096
G1 X195.534 Y118.569 E6.94066
G1 X196.301 Y119.027 E6.97175
G1 X196.785 Y119.427 E6.9936
G1 X197.238 Y119.939 E7.01739
G1 X197.734 Y120.75 E7.05047
G1 X197.979 Y121.657 E7.08316
G1 X198.049 Y122.375 E7.10827
G1 X198.05 Y140.054 E7.72349
G1 X198.037 Y140.838 E7.75078
G1 X197.972 Y141.465 E7.77271
G1 X197.745 Y142.328 E7.80377
G1 X197.287 Y143.095 E7.83485
G1 X196.887 Y143.579 E7.8567
G1 X196.366 Y144.041 E7.88094
G1 X195.731 Y144.422 E7.90671
G1 X194.593 Y144.976 E7.95075
G1 X192.127 Y146.222 E8.0469
G1 X189.739 Y147.514 E8.14138
G1 X187.417 Y148.857 E8.23473
G1 X185.09 Y150.293 E8.32989
G1 X182.82 Y151.782 E8.42436
G1 X180.595 Y153.335 E8.51878
G1 X178.423 Y154.944 E8.61285
G1 X176.309 Y156.604 E8.70638
G1 X174.184 Y158.372 E8.80258
G1 X172.191 Y160.129 E8.89504
G1 X170.17 Y162.015 E8.99124
G1 X168.253 Y163.904 E9.08489
G1 X166.379 Y165.862 E9.17921
;TIME_ELAPSED:175.211603
;LAYER:1
M106 S63.8
G0 F4560 X166.379 Y165.862 Z0.57
;TYPE:SKIRT
G1 F1200 X164.579 Y167.853 E9.2297
G1 X162.784 Y169.953 E9.28167
G1 X161.096 Y172.045 E9.33223
G1 X159.457 Y174.2 E9.38316
G1 X157.887 Y176.389 E9.43383
G1 X156.34 Y178.681 E9.48585
G1 X154.916 Y180.923 E9.53581
G1 X153.508 Y183.286 E9.58755
G1 X152.2 Y185.63 E9.63804
G1 X150.942 Y188.042 E9.68921
G1 X149.66 Y190.668 E9.74418
G1 X149.112 Y191.359 E9.76077
G1 X148.362 Y192.017 E9.77954
G1 X147.2 Y192.529 E9.80342
G1 X146.132 Y192.643 E9.82363
G1 X128.434 Y192.643 E10.15654
G1 X127.354 Y192.629 E10.17685
G1 X126.492 Y192.427 E10.19351
G1 X125.87 Y192.156 E10.20627
G1 X125.336 Y191.82 E10.21814
G1 X124.661 Y191.233 E10.23497
G1 X124.003 Y190.213 E10.2578
G1 X123.741 Y189.251 E10.27655
G1 X123.671 Y188.528 E10.29022
G1 X123.67 Y122.991 E11.523
G1 X123.682 Y122.272 E11.53653
G1 X123.747 Y121.646 E11.54837
G1 X123.907 Y121.036 E11.56023
G1 X124.266 Y120.213 E11.57712
G1 X124.87 Y119.486 E11.5949
G1 X125.39 Y119.047 E11.6077
G1 X126.152 Y118.581 E11.6245
G1 X127.066 Y118.334 E11.64231
G1 X127.781 Y118.264 E11.65583
G1 X193.292 Y118.263 E12.88813
G1 X194.046 Y118.276 E12.90231
G1 X194.671 Y118.342 E12.91413
G1 X195.534 Y118.569 E12.93092
G1 X196.301 Y119.027 E12.94772
G1 X196.785 Y119.427 E12.95953
G1 X197.238 Y119.939 E12.97239
G1 X197.734 Y120.75 E12.99028
G1 X197.979 Y121.657 E13.00795
G1 X198.049 Y122.375 E13.02152
G1 X198.05 Y140.054 E13.35407
G1 X198.037 Y140.838 E13.36882
G1 X197.972 Y141.465 E13.38068
G1 X197.745 Y142.328 E13.39746
G1 X197.287 Y143.095 E13.41427
G1 X196.887 Y143.579 E13.42608
G1 X196.366 Y144.041 E13.43918
G1 X195.731 Y144.422 E13.45311
G1 X194.593 Y144.976 E13.47691
G1 X192.127 Y146.222 E13.52889
G1 X189.739 Y147.514 E13.57996
G1 X187.417 Y148.857 E13.63042
G1 X185.09 Y150.293 E13.68185
G1 X182.82 Y151.782 E13.73292
G1 X180.595 Y153.335 E13.78396
G1 X178.423 Y154.944 E13.8348
G1 X176.309 Y156.604 E13.88536
G1 X174.184 Y158.372 E13.93736
G1 X172.191 Y160.129 E13.98734
G1 X170.17 Y162.015 E14.03934
G1 X168.253 Y163.904 E14.08996
G1 X166.379 Y165.862 E14.14095
G1 F2700 E7.64095
G1 F600 Z2.57
;MESH:EXTRUDER_TWO.STL
G0 F4560 X143.55 Y184.342 Z2.57
;TYPE:WALL-OUTER
G1 F600 Z0.57
G1 F1200 E14.14095
G1 F1992.8 X140.57 Y184.342 E14.19513
G1 X140.57 Y183.762 E14.20568
G1 X143.55 Y183.762 E14.25987
G1 X143.55 Y184.342 E14.27041
G0 F4560 X143.55 Y184.042
G1 F2700 E7.77041
G1 F600 Z2.57
G0 F4560 X132.15 Y184.342 Z2.57
G1 F600 Z0.57
G1 F1200 E14.27041
G1 F1475.4 X132.15 Y184.942 E14.28471
G1 F1788 X132.15 Y185.542 E14.29675
G1 F1992.8 X131.57 Y185.542 E14.30729
G1 X131.57 Y185.252 E14.31257
G1 F1618.3 X131.57 Y184.342 E14.33254
G1 F1475.4 X130.97 Y184.342 E14.34683
G1 F1788 X130.37 Y184.342 E14.35887
G1 F1992.8 X130.37 Y183.762 E14.36942
G1 X130.66 Y183.762 E14.37469
G1 F1618.3 X131.57 Y183.762 E14.39466
G1 F1475.4 X131.57 Y183.162 E14.40896
G1 F1788 X131.57 Y182.562 E14.421
G1 F1992.8 X132.15 Y182.562 E14.43154
G1 X132.15 Y182.852 E14.43682
G1 F1618.3 X132.15 Y183.762 E14.45679
G1 F1475.4 X132.75 Y183.762 E14.47108
G1 F1788 X133.35 Y183.762 E14.48312
G1 F1992.8 X133.35 Y184.342 E14.49367
G1 X133.06 Y184.342 E14.49894
G1 F1618.3 X132.15 Y184.342 E14.51891
G0 F4560 X132.45 Y184.342
